(G-CODE GENERATED BY FLATCAM v8.994 - www.flatcam.org - Version Date: 2020/11/7)

(Name: etch)
(Type: G-code from Geometry)
(Units: MM)

(Created on Sunday, 05 February 2023 at 13:01)

(This preprocessor is the default preprocessor used by FlatCAM.)
(It is made to work with MACH3 compatible motion controllers.)

(TOOL DIAMETER: 0.22 mm)
(Feedrate_XY: 240.0 mm/min)
(Feedrate_Z: 120.0 mm/min)
(Feedrate rapids 1500.0 mm/min)

(Z_Cut: -0.08 mm)
(Z_Move: 1.2 mm)
(Z Start: None mm)
(Z End: 15.0 mm)
(X,Y End: None mm)
(Steps per circle: 64)
(Preprocessor Geometry: default)

(X range:    1.8613 ...   59.6466  mm)
(Y range:    1.8613 ...   52.6466  mm)

(Spindle Speed: 30000 RPM)
G21
G90
G94

; START
G01 F240.00
G00 Z1.2000

M03 S30000
G00 X12.7219 Y6.9953
G01 F120.00
G01 Z-0.0800
G01 F240.00
G01 X12.6788 Y6.9953
G01 X12.6788 Y6.9799
G01 X13.1798 Y6.4789
G01 X13.1952 Y6.4789
G01 X13.1952 Y6.5220
G01 X13.1874 Y6.5258
G01 X13.1782 Y6.5313
G01 X13.1695 Y6.5378
G01 X13.1615 Y6.5450
G01 X12.7449 Y6.9616
G01 X12.7377 Y6.9696
G01 X12.7312 Y6.9783
G01 X12.7257 Y6.9876
G01 X12.7219 Y6.9953
G00 Z1.2000
G00 X13.8726 Y6.5220
G01 F120.00
G01 Z-0.0800
G01 F240.00
G01 X13.8726 Y6.4789
G01 X13.8882 Y6.4789
G01 X14.3890 Y6.9799
G01 X14.3890 Y6.9953
G01 X14.3458 Y6.9953
G01 X14.3421 Y6.9876
G01 X14.3365 Y6.9783
G01 X14.3301 Y6.9696
G01 X14.3229 Y6.9616
G01 X13.9063 Y6.5450
G01 X13.8983 Y6.5378
G01 X13.8896 Y6.5313
G01 X13.8803 Y6.5258
G01 X13.8726 Y6.5220
G00 Z1.2000
G00 X15.2619 Y6.9953
G01 F120.00
G01 Z-0.0800
G01 F240.00
G01 X15.2188 Y6.9953
G01 X15.2188 Y6.9799
G01 X15.7198 Y6.4789
G01 X15.7352 Y6.4789
G01 X15.7352 Y6.5220
G01 X15.7274 Y6.5258
G01 X15.7182 Y6.5313
G01 X15.7095 Y6.5378
G01 X15.7015 Y6.5450
G01 X15.2849 Y6.9616
G01 X15.2777 Y6.9696
G01 X15.2712 Y6.9783
G01 X15.2657 Y6.9876
G01 X15.2619 Y6.9953
G00 Z1.2000
G00 X16.4126 Y6.5220
G01 F120.00
G01 Z-0.0800
G01 F240.00
G01 X16.4126 Y6.4789
G01 X16.4282 Y6.4789
G01 X16.9290 Y6.9799
G01 X16.9290 Y6.9953
G01 X16.8858 Y6.9953
G01 X16.8821 Y6.9876
G01 X16.8765 Y6.9783
G01 X16.8701 Y6.9696
G01 X16.8629 Y6.9616
G01 X16.4463 Y6.5450
G01 X16.4383 Y6.5378
G01 X16.4296 Y6.5313
G01 X16.4203 Y6.5258
G01 X16.4126 Y6.5220
G00 Z1.2000
G00 X16.2133 Y8.7448
G01 F120.00
G01 Z-0.0800
G01 F240.00
G01 X15.9347 Y8.7448
G01 X15.9519 Y8.7218
G01 X15.9637 Y8.7050
G01 X15.9693 Y8.6964
G01 X15.9850 Y8.6706
G01 X15.9901 Y8.6617
G01 X15.9998 Y8.6436
G01 X16.0171 Y8.6071
G01 X16.0250 Y8.5881
G01 X16.0286 Y8.5785
G01 X16.0386 Y8.5500
G01 X16.0417 Y8.5402
G01 X16.0472 Y8.5204
G01 X16.0545 Y8.4911
G01 X16.0597 Y8.4632
G01 X16.0883 Y8.4632
G01 X16.0935 Y8.4910
G01 X16.1008 Y8.5203
G01 X16.1062 Y8.5401
G01 X16.1194 Y8.5783
G01 X16.1268 Y8.5975
G01 X16.1308 Y8.6069
G01 X16.1481 Y8.6435
G01 X16.1528 Y8.6526
G01 X16.1630 Y8.6704
G01 X16.1842 Y8.7049
G01 X16.1960 Y8.7216
G01 X16.2133 Y8.7448
G00 Z1.2000
G00 X15.4974 Y10.6767
G01 F120.00
G01 Z-0.0800
G01 F240.00
G01 X14.7974 Y10.6768
G01 X14.7581 Y10.6789
G01 X14.7191 Y10.6845
G01 X14.7064 Y10.6870
G01 X14.6807 Y10.6934
G01 X14.6621 Y10.6988
G01 X14.6311 Y10.7099
G01 X14.6191 Y10.7148
G01 X14.5894 Y10.7289
G01 X14.5723 Y10.7383
G01 X14.5443 Y10.7555
G01 X14.5176 Y10.7748
G01 X14.5025 Y10.7869
G01 X14.4828 Y10.8046
G01 X14.4735 Y10.8136
G01 X13.8475 Y11.4395
G01 X13.8285 Y11.4388
G01 X13.2393 Y11.4388
G01 X13.2199 Y11.4395
G01 X13.2006 Y11.4417
G01 X13.1815 Y11.4452
G01 X13.1689 Y11.4484
G01 X13.1565 Y11.4521
G01 X13.1383 Y11.4589
G01 X13.1264 Y11.4641
G01 X13.1148 Y11.4700
G01 X13.0981 Y11.4798
G01 X13.0820 Y11.4908
G01 X13.0669 Y11.5029
G01 X13.0526 Y11.5161
G01 X12.6360 Y11.9327
G01 X12.6228 Y11.9470
G01 X12.6106 Y11.9621
G01 X12.5996 Y11.9782
G01 X12.5930 Y11.9893
G01 X12.5869 Y12.0007
G01 X12.5788 Y12.0184
G01 X12.5720 Y12.0366
G01 X12.5666 Y12.0553
G01 X12.5638 Y12.0679
G01 X12.5615 Y12.0807
G01 X12.5594 Y12.1000
G01 X12.5587 Y12.1194
G01 X12.5588 Y12.7151
G01 X12.5600 Y12.7345
G01 X12.5626 Y12.7537
G01 X12.5651 Y12.7664
G01 X12.5682 Y12.7790
G01 X12.5741 Y12.7975
G01 X12.5788 Y12.8096
G01 X12.5840 Y12.8215
G01 X12.5899 Y12.8330
G01 X12.5962 Y12.8443
G01 X12.6032 Y12.8553
G01 X12.6106 Y12.8658
G01 X12.6186 Y12.8761
G01 X12.6271 Y12.8859
G01 X12.6360 Y12.8953
G01 X12.9574 Y13.2167
G01 X12.2639 Y13.2167
G01 X12.2245 Y13.2184
G01 X12.2052 Y13.2205
G01 X12.1727 Y13.2257
G01 X12.1345 Y13.2350
G01 X12.1159 Y13.2409
G01 X12.0851 Y13.2523
G01 X12.0494 Y13.2689
G01 X12.0323 Y13.2783
G01 X12.0043 Y13.2955
G01 X11.9776 Y13.3148
G01 X11.9674 Y13.3228
G01 X11.9428 Y13.3446
G01 X11.9335 Y13.3536
G01 X10.6589 Y14.6282
G01 X10.6327 Y14.6575
G01 X10.6090 Y14.6890
G01 X10.5984 Y14.7053
G01 X10.5849 Y14.7280
G01 X10.5788 Y14.7395
G01 X10.5622 Y14.7752
G01 X10.5487 Y14.8122
G01 X10.5432 Y14.8308
G01 X10.5369 Y14.8565
G01 X10.5344 Y14.8692
G01 X10.5288 Y14.9082
G01 X10.5269 Y14.9410
G01 X10.5266 Y14.9540
G01 X10.5266 Y21.3040
G01 X10.5279 Y21.3369
G01 X10.5295 Y21.3562
G01 X10.5344 Y21.3888
G01 X10.5384 Y21.4078
G01 X10.5467 Y21.4396
G01 X10.5597 Y21.4768
G01 X10.5674 Y21.4947
G01 X10.5818 Y21.5243
G01 X10.6018 Y21.5582
G01 X10.6128 Y21.5742
G01 X10.6327 Y21.6004
G01 X10.6589 Y21.6298
G01 X13.0666 Y24.0376
G01 X13.0666 Y25.2656
G01 X13.0397 Y25.2208
G01 X13.0291 Y25.2045
G01 X12.9867 Y25.1472
G01 X12.9745 Y25.1320
G01 X12.9267 Y25.0791
G01 X12.9131 Y25.0652
G01 X12.8555 Y25.0129
G01 X12.8455 Y25.0047
G01 X12.8282 Y24.9918
G01 X12.8401 Y24.9814
G01 X12.8634 Y24.9591
G01 X12.8720 Y24.9498
G01 X12.8930 Y24.9254
G01 X12.9121 Y24.8995
G01 X12.9193 Y24.8890
G01 X12.9358 Y24.8613
G01 X12.9419 Y24.8502
G01 X12.9475 Y24.8388
G01 X12.9607 Y24.8095
G01 X12.9716 Y24.7791
G01 X12.9755 Y24.7671
G01 X12.9789 Y24.7548
G01 X12.9862 Y24.7235
G01 X12.9883 Y24.7110
G01 X12.9927 Y24.6790
G01 X12.9945 Y24.6469
G01 X12.9948 Y24.6342
G01 X12.9948 Y24.2608
G01 X12.9935 Y24.2279
G01 X12.9919 Y24.2086
G01 X12.9870 Y24.1760
G01 X12.9830 Y24.1570
G01 X12.9747 Y24.1252
G01 X12.9639 Y24.0941
G01 X12.9567 Y24.0760
G01 X12.9426 Y24.0463
G01 X12.9333 Y24.0293
G01 X12.9161 Y24.0012
G01 X12.8967 Y23.9746
G01 X12.8888 Y23.9644
G01 X12.8669 Y23.9398
G01 X12.8580 Y23.9304
G01 X10.5369 Y21.6093
G01 X10.4548 Y21.4112
G01 X10.4548 Y14.8468
G01 X10.5369 Y14.6487
G01 X11.9586 Y13.2270
G01 X12.2043 Y13.1251
G01 X12.2398 Y13.1081
G01 X12.2682 Y13.0914
G01 X12.2791 Y13.0845
G01 X12.3109 Y13.0612
G01 X12.3258 Y13.0487
G01 X12.3500 Y13.0264
G01 X12.3766 Y12.9973
G01 X12.3887 Y12.9822
G01 X12.4081 Y12.9556
G01 X12.4285 Y12.9219
G01 X12.4375 Y12.9046
G01 X12.4487 Y12.8807
G01 X12.4537 Y12.8687
G01 X12.4648 Y12.8378
G01 X12.4685 Y12.8254
G01 X12.4765 Y12.7934
G01 X12.4790 Y12.7807
G01 X12.4839 Y12.7482
G01 X12.4855 Y12.7288
G01 X12.4868 Y12.6959
G01 X12.4868 Y11.9802
G01 X12.9928 Y11.4745
G01 X13.0151 Y11.4503
G01 X13.0277 Y11.4354
G01 X13.0509 Y11.4036
G01 X13.0714 Y11.3699
G01 X13.0775 Y11.3585
G01 X13.0889 Y11.3346
G01 X13.0942 Y11.3228
G01 X13.0988 Y11.3107
G01 X13.1096 Y11.2796
G01 X13.1179 Y11.2477
G01 X13.1208 Y11.2350
G01 X13.1230 Y11.2223
G01 X13.1275 Y11.1896
G01 X13.1294 Y11.1568
G01 X13.1296 Y11.1373
G01 X13.1280 Y11.1044
G01 X13.1267 Y11.0915
G01 X13.1219 Y11.0589
G01 X13.1193 Y11.0462
G01 X13.1113 Y11.0143
G01 X13.1075 Y11.0019
G01 X13.0964 Y10.9709
G01 X13.0887 Y10.9530
G01 X13.0744 Y10.9234
G01 X13.0680 Y10.9121
G01 X13.0507 Y10.8840
G01 X13.0313 Y10.8574
G01 X13.0234 Y10.8472
G01 X13.0014 Y10.8226
G01 X12.9925 Y10.8132
G01 X12.8698 Y10.6908
G01 X12.8456 Y10.6685
G01 X12.8308 Y10.6560
G01 X12.8043 Y10.6364
G01 X12.7936 Y10.6293
G01 X12.7653 Y10.6124
G01 X12.7481 Y10.6034
G01 X12.7182 Y10.5897
G01 X12.6812 Y10.5762
G01 X12.6626 Y10.5708
G01 X12.6306 Y10.5632
G01 X12.5917 Y10.5572
G01 X12.5788 Y10.5559
G01 X12.5524 Y10.5546
G01 X12.5330 Y10.5544
G01 X12.4937 Y10.5565
G01 X12.4611 Y10.5611
G01 X12.4484 Y10.5633
G01 X12.4357 Y10.5661
G01 X12.4039 Y10.5744
G01 X12.3916 Y10.5785
G01 X12.3608 Y10.5899
G01 X12.3309 Y10.6037
G01 X12.3194 Y10.6095
G01 X12.3081 Y10.6159
G01 X12.2801 Y10.6331
G01 X12.2535 Y10.6524
G01 X12.2433 Y10.6604
G01 X12.2187 Y10.6822
G01 X12.2093 Y10.6911
G01 X6.5901 Y16.3104
G01 X6.5677 Y16.3345
G01 X6.5593 Y16.3444
G01 X6.5394 Y16.3706
G01 X6.5319 Y16.3812
G01 X6.5250 Y16.3921
G01 X6.5084 Y16.4205
G01 X6.4940 Y16.4501
G01 X6.4888 Y16.4620
G01 X6.4841 Y16.4741
G01 X6.4733 Y16.5052
G01 X6.4650 Y16.5370
G01 X6.4622 Y16.5496
G01 X6.4599 Y16.5624
G01 X6.4554 Y16.5950
G01 X6.4535 Y16.6279
G01 X6.4532 Y16.6408
G01 X6.4532 Y26.0507
G01 X6.4545 Y26.0836
G01 X6.4561 Y26.1030
G01 X6.4610 Y26.1355
G01 X6.4635 Y26.1483
G01 X6.4715 Y26.1802
G01 X6.4753 Y26.1926
G01 X6.4864 Y26.2236
G01 X6.4913 Y26.2355
G01 X6.5054 Y26.2653
G01 X6.5115 Y26.2767
G01 X6.5284 Y26.3049
G01 X6.5356 Y26.3157
G01 X6.5552 Y26.3421
G01 X6.5634 Y26.3522
G01 X6.5855 Y26.3765
G01 X6.5947 Y26.3857
G01 X6.6191 Y26.4078
G01 X6.6342 Y26.4199
G01 X6.6609 Y26.4393
G01 X6.6945 Y26.4597
G01 X6.7118 Y26.4687
G01 X6.7357 Y26.4799
G01 X6.7477 Y26.4849
G01 X6.7787 Y26.4960
G01 X6.7911 Y26.4997
G01 X6.8230 Y26.5077
G01 X6.8357 Y26.5103
G01 X6.8682 Y26.5151
G01 X6.8811 Y26.5164
G01 X6.9140 Y26.5180
G01 X6.9400 Y26.5180
G01 X7.3573 Y26.6910
G01 X7.6770 Y27.0107
G01 X7.8499 Y27.4282
G01 X7.8499 Y27.8800
G01 X7.6770 Y28.2973
G01 X7.3573 Y28.6171
G01 X7.1853 Y28.6885
G01 X7.1494 Y28.7058
G01 X7.1207 Y28.7227
G01 X7.1042 Y28.7334
G01 X7.0828 Y28.7494
G01 X7.0724 Y28.7575
G01 X7.0626 Y28.7661
G01 X7.0429 Y28.7842
G01 X7.0337 Y28.7935
G01 X7.0114 Y28.8183
G01 X6.9992 Y28.8338
G01 X6.9835 Y28.8554
G01 X6.9763 Y28.8663
G01 X6.9594 Y28.8950
G01 X6.9534 Y28.9067
G01 X6.9369 Y28.9429
G01 X6.9257 Y28.9743
G01 X6.9217 Y28.9868
G01 X6.9183 Y28.9995
G01 X6.9109 Y29.0319
G01 X6.9053 Y29.0714
G01 X6.9042 Y29.0844
G01 X6.9031 Y29.1177
G01 X6.9032 Y29.1308
G01 X6.9042 Y29.1472
G01 X6.8312 Y29.1363
G01 X6.8183 Y29.1348
G01 X6.8054 Y29.1338
G01 X6.7269 Y29.1299
G01 X6.7140 Y29.1296
G01 X5.1140 Y29.1296
G01 X5.1011 Y29.1299
G01 X5.0226 Y29.1338
G01 X5.0097 Y29.1348
G01 X4.9968 Y29.1363
G01 X4.9238 Y29.1472
G01 X4.9250 Y29.1243
G01 X4.9241 Y29.0910
G01 X4.9227 Y29.0714
G01 X4.9192 Y29.0449
G01 X4.9158 Y29.0255
G01 X4.9081 Y28.9931
G01 X4.9044 Y28.9805
G01 X4.8957 Y28.9552
G01 X4.8886 Y28.9369
G01 X4.8747 Y28.9067
G01 X4.8686 Y28.8950
G01 X4.8517 Y28.8663
G01 X4.8445 Y28.8554
G01 X4.8248 Y28.8285
G01 X4.8166 Y28.8183
G01 X4.7988 Y28.7983
G01 X4.7898 Y28.7888
G01 X4.7804 Y28.7797
G01 X4.7606 Y28.7617
G01 X4.7505 Y28.7534
G01 X4.7184 Y28.7297
G01 X4.7073 Y28.7227
G01 X4.6786 Y28.7058
G01 X4.6487 Y28.6912
G01 X4.6367 Y28.6859
G01 X4.4708 Y28.6171
G01 X4.1510 Y28.2973
G01 X3.9781 Y27.8800
G01 X3.9781 Y27.4282
G01 X4.1510 Y27.0107
G01 X4.4707 Y26.6910
G01 X4.8880 Y26.5180
G01 X4.9205 Y26.5177
G01 X4.9469 Y26.5164
G01 X4.9598 Y26.5151
G01 X4.9987 Y26.5091
G01 X5.0370 Y26.4997
G01 X5.0494 Y26.4960
G01 X5.0743 Y26.4871
G01 X5.0864 Y26.4825
G01 X5.0982 Y26.4772
G01 X5.1278 Y26.4629
G01 X5.1562 Y26.4462
G01 X5.1672 Y26.4393
G01 X5.1777 Y26.4318
G01 X5.2040 Y26.4120
G01 X5.2286 Y26.3901
G01 X5.2425 Y26.3765
G01 X5.2646 Y26.3522
G01 X5.2728 Y26.3421
G01 X5.2924 Y26.3157
G01 X5.3030 Y26.2994
G01 X5.3165 Y26.2767
G01 X5.3255 Y26.2595
G01 X5.3393 Y26.2296
G01 X5.3506 Y26.1987
G01 X5.3565 Y26.1802
G01 X5.3645 Y26.1483
G01 X5.3670 Y26.1355
G01 X5.3719 Y26.1030
G01 X5.3735 Y26.0836
G01 X5.3748 Y26.0507
G01 X5.3748 Y16.1168
G01 X5.4569 Y15.9187
G01 X11.9586 Y9.4170
G01 X12.1567 Y9.3349
G01 X12.3988 Y9.3349
G01 X12.4117 Y9.3346
G01 X12.4381 Y9.3333
G01 X12.4574 Y9.3311
G01 X12.4899 Y9.3260
G01 X12.5218 Y9.3183
G01 X12.5405 Y9.3129
G01 X12.5715 Y9.3018
G01 X12.5834 Y9.2969
G01 X12.6132 Y9.2828
G01 X12.6246 Y9.2767
G01 X12.6528 Y9.2598
G01 X12.6636 Y9.2526
G01 X12.6900 Y9.2330
G01 X12.7049 Y9.2206
G01 X12.7290 Y9.1982
G01 X13.2375 Y8.6902
G01 X13.2465 Y8.6809
G01 X13.2684 Y8.6563
G01 X13.2882 Y8.6300
G01 X13.2992 Y8.6140
G01 X13.3162 Y8.5858
G01 X13.3223 Y8.5743
G01 X13.3337 Y8.5505
G01 X13.3389 Y8.5386
G01 X13.3436 Y8.5265
G01 X13.3524 Y8.5016
G01 X13.3579 Y8.4830
G01 X13.3642 Y8.4573
G01 X13.3667 Y8.4446
G01 X13.3716 Y8.4120
G01 X13.3729 Y8.3991
G01 X13.3746 Y8.3598
G01 X13.3733 Y8.3269
G01 X13.3718 Y8.3092
G01 X13.6962 Y8.3092
G01 X13.6947 Y8.3268
G01 X13.6935 Y8.3597
G01 X13.6938 Y8.3727
G01 X13.6957 Y8.4055
G01 X13.7002 Y8.4381
G01 X13.7024 Y8.4509
G01 X13.7101 Y8.4829
G01 X13.7156 Y8.5015
G01 X13.7266 Y8.5325
G01 X13.7316 Y8.5445
G01 X13.7457 Y8.5742
G01 X13.7550 Y8.5912
G01 X13.7687 Y8.6139
G01 X13.7797 Y8.6299
G01 X13.7996 Y8.6561
G01 X13.8214 Y8.6807
G01 X13.8303 Y8.6901
G01 X13.8403 Y8.6996
G01 X14.3388 Y9.1981
G01 X14.3630 Y9.2204
G01 X14.3728 Y9.2289
G01 X14.3991 Y9.2487
G01 X14.4096 Y9.2562
G01 X14.4377 Y9.2734
G01 X14.4490 Y9.2798
G01 X14.4606 Y9.2856
G01 X14.4845 Y9.2968
G01 X14.4965 Y9.3018
G01 X14.5336 Y9.3148
G01 X14.5718 Y9.3246
G01 X14.5845 Y9.3272
G01 X14.6106 Y9.3311
G01 X14.6235 Y9.3327
G01 X14.6364 Y9.3337
G01 X14.6693 Y9.3349
G01 X14.9388 Y9.3349
G01 X14.9716 Y9.3337
G01 X14.9910 Y9.3320
G01 X15.0235 Y9.3272
G01 X15.0425 Y9.3231
G01 X15.0743 Y9.3149
G01 X15.1054 Y9.3041
G01 X15.1234 Y9.2969
G01 X15.1532 Y9.2828
G01 X15.1646 Y9.2767
G01 X15.1928 Y9.2598
G01 X15.2088 Y9.2488
G01 X15.2350 Y9.2290
G01 X15.2596 Y9.2072
G01 X15.2690 Y9.1982
G01 X15.7775 Y8.6902
G01 X15.8042 Y8.6612
G01 X15.8163 Y8.6461
G01 X15.8320 Y8.6248
G01 X15.8392 Y8.6140
G01 X15.8562 Y8.5858
G01 X15.8623 Y8.5743
G01 X15.8764 Y8.5446
G01 X15.8813 Y8.5326
G01 X15.8924 Y8.5016
G01 X15.8962 Y8.4892
G01 X15.9056 Y8.4510
G01 X15.9078 Y8.4382
G01 X15.9123 Y8.4056
G01 X15.9142 Y8.3727
G01 X15.9146 Y8.3598
G01 X15.9133 Y8.3269
G01 X15.9118 Y8.3092
G01 X16.2362 Y8.3092
G01 X16.2347 Y8.3268
G01 X16.2335 Y8.3597
G01 X16.2338 Y8.3727
G01 X16.2357 Y8.4055
G01 X16.2402 Y8.4381
G01 X16.2424 Y8.4509
G01 X16.2501 Y8.4829
G01 X16.2556 Y8.5015
G01 X16.2666 Y8.5325
G01 X16.2716 Y8.5445
G01 X16.2857 Y8.5742
G01 X16.2950 Y8.5912
G01 X16.3087 Y8.6139
G01 X16.3197 Y8.6299
G01 X16.3396 Y8.6561
G01 X16.3614 Y8.6807
G01 X16.3703 Y8.6901
G01 X16.3803 Y8.6996
G01 X16.8788 Y9.1981
G01 X16.9030 Y9.2204
G01 X16.9128 Y9.2289
G01 X16.9391 Y9.2487
G01 X16.9496 Y9.2562
G01 X16.9777 Y9.2734
G01 X16.9947 Y9.2828
G01 X17.0304 Y9.2994
G01 X17.0425 Y9.3040
G01 X17.0736 Y9.3148
G01 X17.1055 Y9.3231
G01 X17.1181 Y9.3260
G01 X17.1309 Y9.3282
G01 X17.1570 Y9.3320
G01 X17.1699 Y9.3333
G01 X17.2093 Y9.3349
G01 X32.2574 Y9.3349
G01 X32.2902 Y9.3333
G01 X32.3096 Y9.3311
G01 X32.3421 Y9.3260
G01 X32.3740 Y9.3183
G01 X32.3927 Y9.3129
G01 X32.4237 Y9.3018
G01 X32.4416 Y9.2941
G01 X32.4712 Y9.2798
G01 X32.4996 Y9.2631
G01 X32.5158 Y9.2525
G01 X32.5423 Y9.2329
G01 X32.5572 Y9.2204
G01 X32.5813 Y9.1981
G01 X32.6037 Y9.1739
G01 X32.6162 Y9.1590
G01 X32.6358 Y9.1326
G01 X32.6464 Y9.1163
G01 X32.6630 Y9.0879
G01 X32.6774 Y9.0583
G01 X32.6826 Y9.0465
G01 X32.6873 Y9.0344
G01 X32.6981 Y9.0033
G01 X32.7064 Y8.9715
G01 X32.7092 Y8.9588
G01 X32.7114 Y8.9460
G01 X32.7159 Y8.9135
G01 X32.7181 Y8.8741
G01 X32.7182 Y8.6957
G01 X32.8912 Y8.2781
G01 X33.2104 Y7.9587
G01 X33.6281 Y7.7855
G01 X34.0800 Y7.7855
G01 X34.4974 Y7.9585
G01 X34.8169 Y8.2781
G01 X34.9898 Y8.6957
G01 X34.9898 Y8.8676
G01 X34.9911 Y8.9005
G01 X34.9921 Y8.9135
G01 X34.9966 Y8.9460
G01 X34.9988 Y8.9588
G01 X35.0065 Y8.9908
G01 X35.0119 Y9.0095
G01 X35.0254 Y9.0465
G01 X35.0307 Y9.0583
G01 X35.0450 Y9.0879
G01 X35.0617 Y9.1163
G01 X35.0686 Y9.1273
G01 X35.0760 Y9.1379
G01 X35.0959 Y9.1641
G01 X35.1222 Y9.1934
G01 X35.1313 Y9.2026
G01 X35.1557 Y9.2247
G01 X35.1657 Y9.2329
G01 X35.1869 Y9.2487
G01 X35.2029 Y9.2597
G01 X35.2256 Y9.2734
G01 X35.2368 Y9.2798
G01 X35.2484 Y9.2856
G01 X35.2783 Y9.2994
G01 X35.3092 Y9.3108
G01 X35.3277 Y9.3166
G01 X35.3533 Y9.3231
G01 X35.3723 Y9.3272
G01 X35.4049 Y9.3320
G01 X35.4178 Y9.3333
G01 X35.4507 Y9.3349
G01 X37.3374 Y9.3349
G01 X37.3767 Y9.3327
G01 X37.4157 Y9.3272
G01 X37.4284 Y9.3246
G01 X37.4540 Y9.3183
G01 X37.4727 Y9.3129
G01 X37.5097 Y9.2994
G01 X37.5454 Y9.2828
G01 X37.5568 Y9.2766
G01 X37.5796 Y9.2631
G01 X37.5958 Y9.2525
G01 X37.6273 Y9.2289
G01 X37.6567 Y9.2026
G01 X37.6703 Y9.1887
G01 X37.6879 Y9.1691
G01 X37.6962 Y9.1590
G01 X37.7194 Y9.1273
G01 X37.7399 Y9.0936
G01 X37.7460 Y9.0822
G01 X37.7574 Y9.0583
G01 X37.7650 Y9.0405
G01 X37.7781 Y9.0033
G01 X37.7864 Y8.9715
G01 X37.7892 Y8.9588
G01 X37.7914 Y8.9460
G01 X37.7959 Y8.9135
G01 X37.7981 Y8.8741
G01 X37.7982 Y7.9496
G01 X37.8493 Y7.8262
G01 X37.9438 Y7.7317
G01 X38.0672 Y7.6806
G01 X39.8009 Y7.6806
G01 X39.9242 Y7.7317
G01 X40.0188 Y7.8262
G01 X40.0698 Y7.9496
G01 X40.0699 Y8.8741
G01 X40.0721 Y8.9135
G01 X40.0766 Y8.9460
G01 X40.0788 Y8.9588
G01 X40.0865 Y8.9908
G01 X40.0900 Y9.0033
G01 X40.1030 Y9.0405
G01 X40.1107 Y9.0583
G01 X40.1250 Y9.0879
G01 X40.1451 Y9.1218
G01 X40.1560 Y9.1379
G01 X40.1759 Y9.1641
G01 X40.2022 Y9.1934
G01 X40.2161 Y9.2070
G01 X40.2407 Y9.2289
G01 X40.2722 Y9.2525
G01 X40.2885 Y9.2631
G01 X40.3168 Y9.2798
G01 X40.3523 Y9.2968
G01 X40.3704 Y9.3040
G01 X40.4015 Y9.3148
G01 X40.4396 Y9.3246
G01 X40.4587 Y9.3282
G01 X40.4913 Y9.3327
G01 X40.5242 Y9.3346
G01 X40.5371 Y9.3349
G01 X44.1488 Y9.3349
G01 X44.1617 Y9.3346
G01 X44.1945 Y9.3327
G01 X44.2271 Y9.3282
G01 X44.2399 Y9.3260
G01 X44.2718 Y9.3183
G01 X44.2905 Y9.3129
G01 X44.3275 Y9.2994
G01 X44.3573 Y9.2857
G01 X44.3746 Y9.2767
G01 X44.4082 Y9.2563
G01 X44.4348 Y9.2370
G01 X44.4500 Y9.2248
G01 X44.4790 Y9.1982
G01 X44.9875 Y8.6902
G01 X45.0142 Y8.6612
G01 X45.0263 Y8.6461
G01 X45.0457 Y8.6194
G01 X45.0526 Y8.6085
G01 X45.0693 Y8.5801
G01 X45.0837 Y8.5505
G01 X45.0889 Y8.5386
G01 X45.1003 Y8.5078
G01 X45.1044 Y8.4955
G01 X45.1079 Y8.4830
G01 X45.1156 Y8.4510
G01 X45.1207 Y8.4184
G01 X45.1223 Y8.4056
G01 X45.1233 Y8.3927
G01 X45.1246 Y8.3598
G01 X45.1233 Y8.3269
G01 X45.1218 Y8.3092
G01 X45.4462 Y8.3092
G01 X45.4447 Y8.3268
G01 X45.4435 Y8.3597
G01 X45.4452 Y8.3991
G01 X45.4464 Y8.4120
G01 X45.4513 Y8.4445
G01 X45.4538 Y8.4572
G01 X45.4601 Y8.4829
G01 X45.4656 Y8.5015
G01 X45.4744 Y8.5264
G01 X45.4790 Y8.5385
G01 X45.4843 Y8.5504
G01 X45.4957 Y8.5742
G01 X45.5018 Y8.5857
G01 X45.5187 Y8.6139
G01 X45.5297 Y8.6299
G01 X45.5496 Y8.6561
G01 X45.5580 Y8.6659
G01 X45.5803 Y8.6901
G01 X45.5903 Y8.6996
G01 X46.0888 Y9.1981
G01 X46.1130 Y9.2204
G01 X46.1279 Y9.2329
G01 X46.1596 Y9.2562
G01 X46.1877 Y9.2734
G01 X46.2047 Y9.2828
G01 X46.2345 Y9.2968
G01 X46.2525 Y9.3040
G01 X46.2836 Y9.3148
G01 X46.3155 Y9.3231
G01 X46.3345 Y9.3272
G01 X46.3735 Y9.3327
G01 X46.4063 Y9.3346
G01 X46.4193 Y9.3349
G01 X46.6888 Y9.3349
G01 X46.7216 Y9.3337
G01 X46.7410 Y9.3320
G01 X46.7799 Y9.3260
G01 X46.8118 Y9.3183
G01 X46.8305 Y9.3129
G01 X46.8675 Y9.2994
G01 X46.8793 Y9.2942
G01 X46.9089 Y9.2798
G01 X46.9373 Y9.2632
G01 X46.9536 Y9.2526
G01 X46.9850 Y9.2290
G01 X47.0096 Y9.2072
G01 X47.0190 Y9.1982
G01 X47.5275 Y8.6902
G01 X47.5499 Y8.6661
G01 X47.5624 Y8.6512
G01 X47.5820 Y8.6248
G01 X47.5892 Y8.6140
G01 X47.6062 Y8.5858
G01 X47.6151 Y8.5685
G01 X47.6289 Y8.5386
G01 X47.6403 Y8.5078
G01 X47.6444 Y8.4955
G01 X47.6527 Y8.4636
G01 X47.6556 Y8.4510
G01 X47.6607 Y8.4184
G01 X47.6623 Y8.4056
G01 X47.6633 Y8.3927
G01 X47.6646 Y8.3598
G01 X47.6633 Y8.3269
G01 X47.6618 Y8.3092
G01 X47.9862 Y8.3092
G01 X47.9847 Y8.3268
G01 X47.9835 Y8.3597
G01 X47.9848 Y8.3926
G01 X47.9857 Y8.4055
G01 X47.9873 Y8.4184
G01 X47.9924 Y8.4509
G01 X48.0001 Y8.4829
G01 X48.0036 Y8.4954
G01 X48.0144 Y8.5264
G01 X48.0190 Y8.5385
G01 X48.0243 Y8.5504
G01 X48.0387 Y8.5800
G01 X48.0553 Y8.6084
G01 X48.0622 Y8.6193
G01 X48.0697 Y8.6299
G01 X48.0896 Y8.6561
G01 X48.0980 Y8.6659
G01 X48.1203 Y8.6901
G01 X48.1303 Y8.6996
G01 X48.6335 Y9.2026
G01 X48.6628 Y9.2289
G01 X48.6891 Y9.2487
G01 X48.6996 Y9.2562
G01 X48.7106 Y9.2631
G01 X48.7390 Y9.2798
G01 X48.7686 Y9.2941
G01 X48.7804 Y9.2994
G01 X48.8113 Y9.3108
G01 X48.8236 Y9.3148
G01 X48.8361 Y9.3183
G01 X48.8681 Y9.3260
G01 X48.9006 Y9.3311
G01 X48.9135 Y9.3327
G01 X48.9528 Y9.3349
G01 X50.4713 Y9.3349
G01 X50.6693 Y9.4169
G01 X57.1710 Y15.9187
G01 X57.2532 Y16.1169
G01 X57.2532 Y36.6511
G01 X57.1710 Y36.8492
G01 X56.1200 Y37.9004
G01 X56.1111 Y37.9098
G01 X56.0892 Y37.9344
G01 X56.0656 Y37.9659
G01 X56.0584 Y37.9767
G01 X56.0447 Y37.9993
G01 X56.0354 Y38.0163
G01 X56.0187 Y38.0520
G01 X56.0053 Y38.0890
G01 X56.0015 Y38.1014
G01 X55.9950 Y38.1270
G01 X55.9922 Y38.1397
G01 X55.9899 Y38.1524
G01 X55.9854 Y38.1850
G01 X55.9835 Y38.2179
G01 X55.9832 Y38.2308
G01 X55.9832 Y39.8046
G01 X55.9835 Y39.8175
G01 X55.9854 Y39.8504
G01 X55.9899 Y39.8830
G01 X55.9922 Y39.8958
G01 X55.9999 Y39.9278
G01 X56.0033 Y39.9402
G01 X56.0141 Y39.9713
G01 X56.0213 Y39.9894
G01 X56.0354 Y40.0191
G01 X56.0447 Y40.0362
G01 X56.0619 Y40.0642
G01 X56.0813 Y40.0908
G01 X56.0934 Y40.1060
G01 X56.1201 Y40.1350
G01 X56.3223 Y40.3373
G01 X56.4800 Y40.7180
G01 X56.4800 Y42.5300
G01 X56.3223 Y42.9107
G01 X56.0308 Y43.2022
G01 X55.6501 Y43.3599
G01 X55.2379 Y43.3599
G01 X54.8572 Y43.2022
G01 X54.6412 Y42.9862
G01 X54.6412 Y42.8585
G01 X54.6495 Y42.8704
G01 X54.6904 Y42.9256
G01 X54.6984 Y42.9358
G01 X54.7069 Y42.9456
G01 X54.7530 Y42.9965
G01 X54.7620 Y43.0059
G01 X54.7714 Y43.0149
G01 X54.8223 Y43.0610
G01 X54.8321 Y43.0695
G01 X54.8423 Y43.0775
G01 X54.8975 Y43.1184
G01 X54.9081 Y43.1259
G01 X54.9191 Y43.1328
G01 X54.9780 Y43.1681
G01 X54.9893 Y43.1745
G01 X55.0009 Y43.1803
G01 X55.0630 Y43.2097
G01 X55.0748 Y43.2150
G01 X55.0869 Y43.2196
G01 X55.1516 Y43.2428
G01 X55.1639 Y43.2469
G01 X55.1764 Y43.2503
G01 X55.2431 Y43.2670
G01 X55.2557 Y43.2699
G01 X55.2685 Y43.2721
G01 X55.3365 Y43.2822
G01 X55.3494 Y43.2837
G01 X55.3623 Y43.2847
G01 X55.4309 Y43.2881
G01 X55.4439 Y43.2884
G01 X55.4568 Y43.2881
G01 X55.5255 Y43.2847
G01 X55.5384 Y43.2837
G01 X55.5513 Y43.2822
G01 X55.6257 Y43.2710
G01 X55.6447 Y43.2670
G01 X55.7113 Y43.2503
G01 X55.7238 Y43.2469
G01 X55.7361 Y43.2428
G01 X55.8008 Y43.2196
G01 X55.8129 Y43.2150
G01 X55.8248 Y43.2097
G01 X55.8869 Y43.1803
G01 X55.8985 Y43.1745
G01 X55.9098 Y43.1681
G01 X55.9687 Y43.1328
G01 X55.9797 Y43.1259
G01 X55.9903 Y43.1184
G01 X56.0455 Y43.0775
G01 X56.0557 Y43.0695
G01 X56.0655 Y43.0610
G01 X56.1164 Y43.0149
G01 X56.1258 Y43.0059
G01 X56.1347 Y42.9965
G01 X56.1809 Y42.9456
G01 X56.1894 Y42.9358
G01 X56.1973 Y42.9256
G01 X56.2383 Y42.8704
G01 X56.2457 Y42.8598
G01 X56.2527 Y42.8488
G01 X56.2880 Y42.7899
G01 X56.2944 Y42.7786
G01 X56.3002 Y42.7670
G01 X56.3296 Y42.7049
G01 X56.3373 Y42.6871
G01 X56.3627 Y42.6163
G01 X56.3667 Y42.6040
G01 X56.3702 Y42.5915
G01 X56.3869 Y42.5248
G01 X56.3897 Y42.5122
G01 X56.3919 Y42.4994
G01 X56.4020 Y42.4314
G01 X56.4036 Y42.4185
G01 X56.4046 Y42.4056
G01 X56.4082 Y42.3305
G01 X56.4083 Y40.9240
G01 X56.4079 Y40.9110
G01 X56.4046 Y40.8424
G01 X56.4036 Y40.8294
G01 X56.4020 Y40.8166
G01 X56.3919 Y40.7486
G01 X56.3897 Y40.7358
G01 X56.3869 Y40.7232
G01 X56.3702 Y40.6565
G01 X56.3667 Y40.6440
G01 X56.3627 Y40.6317
G01 X56.3395 Y40.5670
G01 X56.3348 Y40.5549
G01 X56.3296 Y40.5431
G01 X56.3002 Y40.4809
G01 X56.2944 Y40.4694
G01 X56.2880 Y40.4581
G01 X56.2527 Y40.3991
G01 X56.2457 Y40.3882
G01 X56.2383 Y40.3776
G01 X56.1973 Y40.3224
G01 X56.1894 Y40.3122
G01 X56.1809 Y40.3024
G01 X56.1347 Y40.2514
G01 X56.1258 Y40.2421
G01 X56.1164 Y40.2331
G01 X56.0606 Y40.1827
G01 X56.0455 Y40.1705
G01 X55.9903 Y40.1296
G01 X55.9797 Y40.1221
G01 X55.9687 Y40.1152
G01 X55.9112 Y40.0807
G01 X55.9112 Y38.0076
G01 X57.0443 Y36.8744
G01 X57.0666 Y36.8503
G01 X57.0751 Y36.8404
G01 X57.0831 Y36.8302
G01 X57.0988 Y36.8090
G01 X57.1060 Y36.7982
G01 X57.1260 Y36.7643
G01 X57.1431 Y36.7288
G01 X57.1480 Y36.7168
G01 X57.1570 Y36.6919
G01 X57.1611 Y36.6796
G01 X57.1645 Y36.6672
G01 X57.1722 Y36.6352
G01 X57.1773 Y36.6027
G01 X57.1789 Y36.5898
G01 X57.1809 Y36.5569
G01 X57.1812 Y36.5440
G01 X57.1812 Y16.2240
G01 X57.1809 Y16.2110
G01 X57.1789 Y16.1782
G01 X57.1734 Y16.1392
G01 X57.1709 Y16.1265
G01 X57.1645 Y16.1008
G01 X57.1611 Y16.0883
G01 X57.1570 Y16.0760
G01 X57.1456 Y16.0452
G01 X57.1404 Y16.0333
G01 X57.1260 Y16.0037
G01 X57.1094 Y15.9753
G01 X57.1024 Y15.9644
G01 X57.0831 Y15.9378
G01 X57.0709 Y15.9226
G01 X57.0443 Y15.8936
G01 X50.6943 Y9.5436
G01 X50.6701 Y9.5212
G01 X50.6553 Y9.5087
G01 X50.6235 Y9.4855
G01 X50.5898 Y9.4650
G01 X50.5784 Y9.4589
G01 X50.5546 Y9.4475
G01 X50.5367 Y9.4399
G01 X50.4995 Y9.4268
G01 X50.4614 Y9.4170
G01 X50.4487 Y9.4145
G01 X50.4225 Y9.4105
G01 X50.4097 Y9.4089
G01 X50.3968 Y9.4080
G01 X50.3639 Y9.4067
G01 X48.7347 Y9.4067
G01 X48.7218 Y9.3927
G01 X48.3051 Y8.9761
G01 X48.2958 Y8.9672
G01 X48.2859 Y8.9587
G01 X48.2757 Y8.9508
G01 X48.2651 Y8.9433
G01 X48.2486 Y8.9331
G01 X48.2372 Y8.9270
G01 X48.2255 Y8.9214
G01 X48.2074 Y8.9142
G01 X48.1889 Y8.9084
G01 X48.1763 Y8.9052
G01 X48.1636 Y8.9027
G01 X48.1443 Y8.9001
G01 X48.1314 Y8.8991
G01 X48.1185 Y8.8988
G01 X47.5228 Y8.8989
G01 X47.5099 Y8.8995
G01 X47.4970 Y8.9008
G01 X47.4778 Y8.9039
G01 X47.4651 Y8.9067
G01 X47.4527 Y8.9102
G01 X47.4404 Y8.9142
G01 X47.4283 Y8.9189
G01 X47.4164 Y8.9241
G01 X47.4048 Y8.9300
G01 X47.3881 Y8.9398
G01 X47.3773 Y8.9470
G01 X47.3669 Y8.9547
G01 X47.3569 Y8.9629
G01 X47.3473 Y8.9716
G01 X46.9260 Y9.3927
G01 X46.9130 Y9.4067
G01 X46.1947 Y9.4067
G01 X46.1818 Y9.3927
G01 X45.7605 Y8.9716
G01 X45.7509 Y8.9629
G01 X45.7409 Y8.9547
G01 X45.7305 Y8.9470
G01 X45.7197 Y8.9398
G01 X45.7086 Y8.9331
G01 X45.6972 Y8.9270
G01 X45.6795 Y8.9189
G01 X45.6613 Y8.9121
G01 X45.6489 Y8.9084
G01 X45.6363 Y8.9052
G01 X45.6236 Y8.9027
G01 X45.6108 Y8.9008
G01 X45.5979 Y8.8995
G01 X45.5849 Y8.8989
G01 X44.9893 Y8.8988
G01 X44.9763 Y8.8991
G01 X44.9634 Y8.9001
G01 X44.9442 Y8.9027
G01 X44.9315 Y8.9052
G01 X44.9189 Y8.9084
G01 X44.9004 Y8.9142
G01 X44.8883 Y8.9189
G01 X44.8764 Y8.9241
G01 X44.8592 Y8.9331
G01 X44.8481 Y8.9398
G01 X44.8373 Y8.9470
G01 X44.8218 Y8.9587
G01 X44.8120 Y8.9672
G01 X44.8026 Y8.9761
G01 X44.3860 Y9.3927
G01 X44.3730 Y9.4067
G01 X39.4012 Y9.4067
G01 X39.4012 Y9.1805
G01 X39.7403 Y9.1805
G01 X39.7533 Y9.1798
G01 X39.7662 Y9.1786
G01 X39.7854 Y9.1755
G01 X39.8043 Y9.1710
G01 X39.8228 Y9.1651
G01 X39.8349 Y9.1604
G01 X39.8526 Y9.1524
G01 X39.8696 Y9.1430
G01 X39.8859 Y9.1324
G01 X39.9013 Y9.1206
G01 X39.9111 Y9.1122
G01 X39.9251 Y9.0986
G01 X39.9338 Y9.0890
G01 X39.9459 Y9.0738
G01 X39.9534 Y9.0632
G01 X39.9636 Y9.0467
G01 X39.9697 Y9.0352
G01 X39.9752 Y9.0235
G01 X39.9824 Y9.0055
G01 X39.9883 Y8.9870
G01 X39.9928 Y8.9680
G01 X39.9950 Y8.9553
G01 X39.9966 Y8.9424
G01 X39.9975 Y8.9295
G01 X39.9979 Y8.9165
G01 X39.9979 Y8.0166
G01 X39.9975 Y8.0037
G01 X39.9966 Y7.9907
G01 X39.9950 Y7.9779
G01 X39.9928 Y7.9651
G01 X39.9883 Y7.9462
G01 X39.9845 Y7.9338
G01 X39.9802 Y7.9216
G01 X39.9725 Y7.9037
G01 X39.9667 Y7.8922
G01 X39.9603 Y7.8809
G01 X39.9497 Y7.8646
G01 X39.9420 Y7.8542
G01 X39.9338 Y7.8442
G01 X39.9205 Y7.8299
G01 X39.9063 Y7.8167
G01 X39.8911 Y7.8046
G01 X39.8805 Y7.7971
G01 X39.8696 Y7.7902
G01 X39.8583 Y7.7838
G01 X39.8467 Y7.7780
G01 X39.8289 Y7.7703
G01 X39.8105 Y7.7640
G01 X39.7980 Y7.7605
G01 X39.7854 Y7.7577
G01 X39.7726 Y7.7555
G01 X39.7597 Y7.7539
G01 X39.7403 Y7.7527
G01 X38.1339 Y7.7526
G01 X38.1210 Y7.7529
G01 X38.1080 Y7.7539
G01 X38.0888 Y7.7565
G01 X38.0761 Y7.7590
G01 X38.0635 Y7.7622
G01 X38.0450 Y7.7681
G01 X38.0329 Y7.7727
G01 X38.0210 Y7.7780
G01 X38.0095 Y7.7838
G01 X37.9982 Y7.7902
G01 X37.9819 Y7.8008
G01 X37.9715 Y7.8085
G01 X37.9615 Y7.8167
G01 X37.9519 Y7.8254
G01 X37.9427 Y7.8346
G01 X37.9340 Y7.8442
G01 X37.9258 Y7.8542
G01 X37.9144 Y7.8700
G01 X37.9042 Y7.8865
G01 X37.8953 Y7.9037
G01 X37.8900 Y7.9156
G01 X37.8853 Y7.9277
G01 X37.8795 Y7.9462
G01 X37.8750 Y7.9651
G01 X37.8719 Y7.9843
G01 X37.8706 Y7.9972
G01 X37.8700 Y8.0101
G01 X37.8700 Y8.9230
G01 X37.8712 Y8.9424
G01 X37.8738 Y8.9617
G01 X37.8778 Y8.9807
G01 X37.8813 Y8.9932
G01 X37.8853 Y9.0055
G01 X37.8900 Y9.0176
G01 X37.8953 Y9.0294
G01 X37.9011 Y9.0410
G01 X37.9109 Y9.0578
G01 X37.9181 Y9.0686
G01 X37.9298 Y9.0840
G01 X37.9383 Y9.0938
G01 X37.9519 Y9.1077
G01 X37.9615 Y9.1164
G01 X37.9715 Y9.1247
G01 X37.9872 Y9.1360
G01 X37.9982 Y9.1430
G01 X38.0152 Y9.1524
G01 X38.0269 Y9.1579
G01 X38.0450 Y9.1651
G01 X38.0573 Y9.1692
G01 X38.0761 Y9.1741
G01 X38.0952 Y9.1777
G01 X38.1145 Y9.1798
G01 X38.1274 Y9.1805
G01 X38.4666 Y9.1805
G01 X38.4666 Y9.4067
G01 X34.8003 Y9.4067
G01 X34.8316 Y9.3405
G01 X34.8369 Y9.3287
G01 X34.8415 Y9.3166
G01 X34.8680 Y9.2427
G01 X34.8720 Y9.2304
G01 X34.8755 Y9.2179
G01 X34.8946 Y9.1417
G01 X34.8974 Y9.1291
G01 X34.8996 Y9.1163
G01 X34.9111 Y9.0386
G01 X34.9127 Y9.0258
G01 X34.9137 Y9.0129
G01 X34.9175 Y8.9344
G01 X34.9179 Y8.9215
G01 X34.9175 Y8.9085
G01 X34.9137 Y8.8301
G01 X34.9127 Y8.8172
G01 X34.9111 Y8.8043
G01 X34.8996 Y8.7267
G01 X34.8974 Y8.7139
G01 X34.8946 Y8.7013
G01 X34.8755 Y8.6251
G01 X34.8720 Y8.6126
G01 X34.8680 Y8.6003
G01 X34.8415 Y8.5264
G01 X34.8369 Y8.5143
G01 X34.8316 Y8.5025
G01 X34.7980 Y8.4315
G01 X34.7922 Y8.4199
G01 X34.7858 Y8.4087
G01 X34.7455 Y8.3413
G01 X34.7385 Y8.3304
G01 X34.7311 Y8.3198
G01 X34.6843 Y8.2567
G01 X34.6763 Y8.2465
G01 X34.6679 Y8.2367
G01 X34.6152 Y8.1785
G01 X34.6062 Y8.1692
G01 X34.5968 Y8.1602
G01 X34.5387 Y8.1075
G01 X34.5289 Y8.0990
G01 X34.5186 Y8.0911
G01 X34.4556 Y8.0443
G01 X34.4450 Y8.0368
G01 X34.4340 Y8.0299
G01 X34.3667 Y7.9895
G01 X34.3554 Y7.9832
G01 X34.3439 Y7.9773
G01 X34.2729 Y7.9438
G01 X34.2610 Y7.9385
G01 X34.2490 Y7.9339
G01 X34.1750 Y7.9074
G01 X34.1627 Y7.9033
G01 X34.1502 Y7.8999
G01 X34.0741 Y7.8808
G01 X34.0615 Y7.8780
G01 X34.0487 Y7.8758
G01 X33.9710 Y7.8642
G01 X33.9582 Y7.8626
G01 X33.9452 Y7.8617
G01 X33.8604 Y7.8576
G01 X33.8409 Y7.8578
G01 X33.7625 Y7.8617
G01 X33.7496 Y7.8626
G01 X33.7367 Y7.8642
G01 X33.6591 Y7.8758
G01 X33.6463 Y7.8780
G01 X33.6337 Y7.8808
G01 X33.5575 Y7.8999
G01 X33.5450 Y7.9033
G01 X33.5327 Y7.9074
G01 X33.4588 Y7.9339
G01 X33.4467 Y7.9385
G01 X33.4349 Y7.9438
G01 X33.3639 Y7.9773
G01 X33.3523 Y7.9832
G01 X33.3411 Y7.9895
G01 X33.2737 Y8.0299
G01 X33.2628 Y8.0368
G01 X33.2522 Y8.0443
G01 X33.1891 Y8.0911
G01 X33.1789 Y8.0990
G01 X33.1691 Y8.1075
G01 X33.1109 Y8.1602
G01 X33.1015 Y8.1692
G01 X33.0926 Y8.1785
G01 X33.0399 Y8.2367
G01 X33.0314 Y8.2465
G01 X33.0234 Y8.2567
G01 X32.9767 Y8.3198
G01 X32.9692 Y8.3304
G01 X32.9623 Y8.3413
G01 X32.9219 Y8.4087
G01 X32.9155 Y8.4199
G01 X32.9097 Y8.4315
G01 X32.8762 Y8.5025
G01 X32.8709 Y8.5143
G01 X32.8662 Y8.5264
G01 X32.8398 Y8.6003
G01 X32.8357 Y8.6126
G01 X32.8323 Y8.6251
G01 X32.8132 Y8.7013
G01 X32.8104 Y8.7139
G01 X32.8081 Y8.7267
G01 X32.7966 Y8.8043
G01 X32.7950 Y8.8172
G01 X32.7941 Y8.8301
G01 X32.7902 Y8.9085
G01 X32.7899 Y8.9215
G01 X32.7902 Y8.9344
G01 X32.7941 Y9.0129
G01 X32.7950 Y9.0258
G01 X32.7966 Y9.0386
G01 X32.8081 Y9.1163
G01 X32.8104 Y9.1291
G01 X32.8132 Y9.1417
G01 X32.8323 Y9.2179
G01 X32.8357 Y9.2304
G01 X32.8398 Y9.2427
G01 X32.8662 Y9.3166
G01 X32.8709 Y9.3287
G01 X32.8762 Y9.3405
G01 X32.9075 Y9.4067
G01 X16.9847 Y9.4067
G01 X16.9718 Y9.3927
G01 X16.5505 Y8.9716
G01 X16.5409 Y8.9629
G01 X16.5309 Y8.9547
G01 X16.5151 Y8.9433
G01 X16.5042 Y8.9364
G01 X16.4929 Y8.9300
G01 X16.4813 Y8.9241
G01 X16.4695 Y8.9189
G01 X16.4513 Y8.9121
G01 X16.4389 Y8.9084
G01 X16.4263 Y8.9052
G01 X16.4136 Y8.9027
G01 X16.4008 Y8.9008
G01 X16.3879 Y8.8995
G01 X16.3749 Y8.8989
G01 X15.7793 Y8.8988
G01 X15.7599 Y8.8995
G01 X15.7470 Y8.9008
G01 X15.7342 Y8.9027
G01 X15.7215 Y8.9052
G01 X15.7089 Y8.9084
G01 X15.6904 Y8.9142
G01 X15.6783 Y8.9189
G01 X15.6664 Y8.9241
G01 X15.6492 Y8.9331
G01 X15.6381 Y8.9398
G01 X15.6273 Y8.9470
G01 X15.6118 Y8.9587
G01 X15.6020 Y8.9672
G01 X15.5926 Y8.9761
G01 X15.1760 Y9.3927
G01 X15.1630 Y9.4067
G01 X14.4447 Y9.4067
G01 X14.4318 Y9.3927
G01 X14.0105 Y8.9716
G01 X14.0009 Y8.9629
G01 X13.9909 Y8.9547
G01 X13.9805 Y8.9470
G01 X13.9697 Y8.9398
G01 X13.9586 Y8.9331
G01 X13.9472 Y8.9270
G01 X13.9355 Y8.9214
G01 X13.9235 Y8.9165
G01 X13.9051 Y8.9102
G01 X13.8926 Y8.9067
G01 X13.8800 Y8.9039
G01 X13.8608 Y8.9008
G01 X13.8479 Y8.8995
G01 X13.8349 Y8.8989
G01 X13.2393 Y8.8988
G01 X13.2263 Y8.8991
G01 X13.2134 Y8.9001
G01 X13.2006 Y8.9017
G01 X13.1878 Y8.9039
G01 X13.1751 Y8.9067
G01 X13.1627 Y8.9102
G01 X13.1504 Y8.9142
G01 X13.1383 Y8.9189
G01 X13.1264 Y8.9241
G01 X13.1148 Y8.9300
G01 X13.0981 Y8.9398
G01 X13.0873 Y8.9470
G01 X13.0769 Y8.9547
G01 X13.0669 Y8.9629
G01 X13.0573 Y8.9716
G01 X12.6360 Y9.3927
G01 X12.6230 Y9.4067
G01 X12.2574 Y9.4068
G01 X12.2181 Y9.4089
G01 X12.1855 Y9.4135
G01 X12.1727 Y9.4157
G01 X12.1345 Y9.4250
G01 X12.1159 Y9.4309
G01 X12.0851 Y9.4423
G01 X12.0552 Y9.4560
G01 X12.0436 Y9.4619
G01 X12.0097 Y9.4819
G01 X11.9937 Y9.4929
G01 X11.9674 Y9.5128
G01 X11.9381 Y9.5390
G01 X5.5835 Y15.8936
G01 X5.5745 Y15.9030
G01 X5.5527 Y15.9275
G01 X5.5328 Y15.9538
G01 X5.5253 Y15.9644
G01 X5.5184 Y15.9753
G01 X5.5018 Y16.0037
G01 X5.4847 Y16.0392
G01 X5.4775 Y16.0573
G01 X5.4667 Y16.0883
G01 X5.4584 Y16.1202
G01 X5.4556 Y16.1328
G01 X5.4533 Y16.1456
G01 X5.4488 Y16.1782
G01 X5.4469 Y16.2110
G01 X5.4466 Y16.2240
G01 X5.4466 Y26.5896
G01 X5.1076 Y26.5897
G01 X5.0226 Y26.5938
G01 X5.0097 Y26.5948
G01 X4.9968 Y26.5963
G01 X4.9192 Y26.6079
G01 X4.9064 Y26.6101
G01 X4.8937 Y26.6129
G01 X4.8176 Y26.6320
G01 X4.8051 Y26.6355
G01 X4.7928 Y26.6395
G01 X4.7188 Y26.6660
G01 X4.7067 Y26.6706
G01 X4.6949 Y26.6759
G01 X4.6180 Y26.7123
G01 X4.6010 Y26.7217
G01 X4.5337 Y26.7621
G01 X4.5227 Y26.7690
G01 X4.5121 Y26.7765
G01 X4.4490 Y26.8233
G01 X4.4388 Y26.8312
G01 X4.4290 Y26.8397
G01 X4.3708 Y26.8924
G01 X4.3614 Y26.9014
G01 X4.3525 Y26.9108
G01 X4.2997 Y26.9690
G01 X4.2913 Y26.9788
G01 X4.2833 Y26.9890
G01 X4.2365 Y27.0521
G01 X4.2290 Y27.0627
G01 X4.2221 Y27.0736
G01 X4.1817 Y27.1410
G01 X4.1753 Y27.1523
G01 X4.1695 Y27.1638
G01 X4.1359 Y27.2348
G01 X4.1307 Y27.2467
G01 X4.1260 Y27.2588
G01 X4.0996 Y27.3327
G01 X4.0955 Y27.3450
G01 X4.0920 Y27.3575
G01 X4.0730 Y27.4337
G01 X4.0701 Y27.4463
G01 X4.0679 Y27.4591
G01 X4.0564 Y27.5368
G01 X4.0548 Y27.5497
G01 X4.0538 Y27.5626
G01 X4.0500 Y27.6410
G01 X4.0497 Y27.6540
G01 X4.0500 Y27.6669
G01 X4.0538 Y27.7454
G01 X4.0548 Y27.7583
G01 X4.0564 Y27.7712
G01 X4.0679 Y27.8489
G01 X4.0701 Y27.8616
G01 X4.0730 Y27.8743
G01 X4.0920 Y27.9505
G01 X4.0955 Y27.9630
G01 X4.0996 Y27.9753
G01 X4.1260 Y28.0492
G01 X4.1307 Y28.0613
G01 X4.1359 Y28.0732
G01 X4.1695 Y28.1442
G01 X4.1753 Y28.1557
G01 X4.1817 Y28.1670
G01 X4.2221 Y28.2344
G01 X4.2290 Y28.2453
G01 X4.2365 Y28.2559
G01 X4.2833 Y28.3190
G01 X4.2913 Y28.3292
G01 X4.2997 Y28.3390
G01 X4.3525 Y28.3972
G01 X4.3614 Y28.4066
G01 X4.3708 Y28.4156
G01 X4.4290 Y28.4683
G01 X4.4388 Y28.4768
G01 X4.4490 Y28.4847
G01 X4.5121 Y28.5315
G01 X4.5227 Y28.5390
G01 X4.5337 Y28.5459
G01 X4.6010 Y28.5863
G01 X4.6123 Y28.5927
G01 X4.6239 Y28.5985
G01 X4.6949 Y28.6321
G01 X4.7067 Y28.6373
G01 X4.7188 Y28.6420
G01 X4.7928 Y28.6685
G01 X4.8051 Y28.6725
G01 X4.8176 Y28.6760
G01 X4.8937 Y28.6951
G01 X4.9064 Y28.6979
G01 X4.9192 Y28.7001
G01 X4.9968 Y28.7117
G01 X5.0162 Y28.7138
G01 X5.1011 Y28.7180
G01 X5.1140 Y28.7184
G01 X6.7140 Y28.7184
G01 X6.7269 Y28.7180
G01 X6.8054 Y28.7142
G01 X6.8183 Y28.7132
G01 X6.8312 Y28.7117
G01 X6.9089 Y28.7001
G01 X6.9280 Y28.6966
G01 X7.0105 Y28.6760
G01 X7.0230 Y28.6725
G01 X7.0353 Y28.6685
G01 X7.1092 Y28.6420
G01 X7.1213 Y28.6373
G01 X7.1331 Y28.6321
G01 X7.2041 Y28.5985
G01 X7.2157 Y28.5927
G01 X7.2270 Y28.5863
G01 X7.2944 Y28.5459
G01 X7.3053 Y28.5390
G01 X7.3159 Y28.5315
G01 X7.3790 Y28.4847
G01 X7.3892 Y28.4768
G01 X7.3990 Y28.4683
G01 X7.4572 Y28.4156
G01 X7.4666 Y28.4066
G01 X7.4755 Y28.3972
G01 X7.5283 Y28.3390
G01 X7.5368 Y28.3292
G01 X7.5447 Y28.3190
G01 X7.5915 Y28.2559
G01 X7.5990 Y28.2453
G01 X7.6059 Y28.2344
G01 X7.6463 Y28.1670
G01 X7.6527 Y28.1557
G01 X7.6585 Y28.1442
G01 X7.6921 Y28.0732
G01 X7.6973 Y28.0613
G01 X7.7020 Y28.0492
G01 X7.7285 Y27.9753
G01 X7.7325 Y27.9630
G01 X7.7360 Y27.9505
G01 X7.7551 Y27.8743
G01 X7.7579 Y27.8616
G01 X7.7601 Y27.8489
G01 X7.7716 Y27.7712
G01 X7.7732 Y27.7583
G01 X7.7742 Y27.7454
G01 X7.7780 Y27.6669
G01 X7.7784 Y27.6540
G01 X7.7780 Y27.6410
G01 X7.7742 Y27.5626
G01 X7.7732 Y27.5497
G01 X7.7716 Y27.5368
G01 X7.7601 Y27.4591
G01 X7.7579 Y27.4463
G01 X7.7551 Y27.4337
G01 X7.7360 Y27.3575
G01 X7.7325 Y27.3450
G01 X7.7285 Y27.3327
G01 X7.7020 Y27.2588
G01 X7.6973 Y27.2467
G01 X7.6921 Y27.2348
G01 X7.6585 Y27.1638
G01 X7.6527 Y27.1523
G01 X7.6463 Y27.1410
G01 X7.6059 Y27.0736
G01 X7.5990 Y27.0627
G01 X7.5915 Y27.0521
G01 X7.5447 Y26.9890
G01 X7.5368 Y26.9788
G01 X7.5283 Y26.9690
G01 X7.4755 Y26.9108
G01 X7.4666 Y26.9014
G01 X7.4572 Y26.8924
G01 X7.3990 Y26.8397
G01 X7.3892 Y26.8312
G01 X7.3790 Y26.8233
G01 X7.3159 Y26.7765
G01 X7.3053 Y26.7690
G01 X7.2944 Y26.7621
G01 X7.2270 Y26.7217
G01 X7.2157 Y26.7153
G01 X7.2041 Y26.7095
G01 X7.1331 Y26.6759
G01 X7.1213 Y26.6706
G01 X7.1092 Y26.6660
G01 X7.0353 Y26.6395
G01 X7.0167 Y26.6337
G01 X6.9343 Y26.6129
G01 X6.9216 Y26.6101
G01 X6.9089 Y26.6079
G01 X6.8312 Y26.5963
G01 X6.8119 Y26.5942
G01 X6.7269 Y26.5899
G01 X6.7140 Y26.5896
G01 X6.3812 Y26.5896
G01 X6.3812 Y16.4176
G01 X12.4574 Y10.3413
G01 X12.6230 Y10.3413
G01 X12.6360 Y10.3553
G01 X13.0526 Y10.7719
G01 X13.0669 Y10.7851
G01 X13.0820 Y10.7972
G01 X13.0981 Y10.8082
G01 X13.1148 Y10.8180
G01 X13.1323 Y10.8265
G01 X13.1504 Y10.8338
G01 X13.1627 Y10.8378
G01 X13.1751 Y10.8413
G01 X13.1942 Y10.8453
G01 X13.2134 Y10.8479
G01 X13.2263 Y10.8489
G01 X13.2393 Y10.8492
G01 X13.8349 Y10.8491
G01 X13.8543 Y10.8479
G01 X13.8672 Y10.8463
G01 X13.8800 Y10.8441
G01 X13.8926 Y10.8413
G01 X13.9051 Y10.8378
G01 X13.9174 Y10.8338
G01 X13.9295 Y10.8291
G01 X13.9413 Y10.8238
G01 X13.9529 Y10.8180
G01 X13.9642 Y10.8116
G01 X13.9751 Y10.8047
G01 X13.9909 Y10.7933
G01 X14.0009 Y10.7851
G01 X14.0105 Y10.7764
G01 X14.4318 Y10.3553
G01 X14.4447 Y10.3413
G01 X15.1630 Y10.3413
G01 X15.1760 Y10.3553
G01 X15.4974 Y10.6767
G00 Z1.2000
G00 X15.1257 Y10.5227
G01 F120.00
G01 Z-0.0800
G01 F240.00
G01 X14.8039 Y10.5227
G01 X14.7936 Y10.5228
G01 X14.7634 Y10.5242
G01 X14.7532 Y10.5248
G01 X14.7328 Y10.5268
G01 X14.6928 Y10.5328
G01 X14.6726 Y10.5368
G01 X14.6334 Y10.5466
G01 X14.6137 Y10.5525
G01 X14.5756 Y10.5662
G01 X14.5567 Y10.5740
G01 X14.5201 Y10.5913
G01 X14.5020 Y10.6010
G01 X14.4760 Y10.6164
G01 X14.4587 Y10.6274
G01 X14.4502 Y10.6332
G01 X14.4259 Y10.6511
G01 X14.4177 Y10.6573
G01 X14.4019 Y10.6703
G01 X14.3719 Y10.6975
G01 X13.7844 Y11.2848
G01 X13.2674 Y11.2848
G01 X13.2737 Y11.2549
G01 X13.2796 Y11.2149
G01 X13.2807 Y11.2047
G01 X13.2822 Y11.1842
G01 X13.2836 Y11.1540
G01 X13.2837 Y11.1437
G01 X13.2836 Y11.1335
G01 X13.2822 Y11.1033
G01 X13.2816 Y11.0930
G01 X13.2795 Y11.0726
G01 X13.2736 Y11.0325
G01 X13.2674 Y11.0032
G01 X13.8285 Y11.0032
G01 X13.8490 Y11.0027
G01 X13.8592 Y11.0021
G01 X13.8796 Y11.0000
G01 X13.8999 Y10.9970
G01 X13.9201 Y10.9930
G01 X13.9400 Y10.9881
G01 X13.9596 Y10.9821
G01 X13.9789 Y10.9752
G01 X13.9884 Y10.9714
G01 X14.0072 Y10.9631
G01 X14.0255 Y10.9538
G01 X14.0345 Y10.9489
G01 X14.0521 Y10.9383
G01 X14.0692 Y10.9269
G01 X14.0856 Y10.9147
G01 X14.0936 Y10.9083
G01 X14.1092 Y10.8949
G01 X14.1240 Y10.8808
G01 X14.5095 Y10.4953
G01 X15.0983 Y10.4953
G01 X15.1257 Y10.5227
G00 Z1.2000
G00 X16.6503 Y11.6113
G01 F120.00
G01 Z-0.0800
G01 F240.00
G01 X32.3903 Y11.6113
G01 X34.7981 Y14.0190
G01 X34.8274 Y14.0452
G01 X34.8537 Y14.0651
G01 X34.8643 Y14.0725
G01 X34.8752 Y14.0795
G01 X34.9036 Y14.0961
G01 X34.9391 Y14.1132
G01 X34.9511 Y14.1181
G01 X34.9821 Y14.1292
G01 X34.9945 Y14.1330
G01 X35.0201 Y14.1395
G01 X35.0327 Y14.1423
G01 X35.0455 Y14.1445
G01 X35.0716 Y14.1483
G01 X35.0910 Y14.1500
G01 X35.1239 Y14.1513
G01 X42.4264 Y14.1513
G01 X42.4393 Y14.1510
G01 X42.4722 Y14.1490
G01 X42.5048 Y14.1445
G01 X42.5175 Y14.1423
G01 X42.5495 Y14.1346
G01 X42.5620 Y14.1312
G01 X42.5743 Y14.1271
G01 X42.5992 Y14.1181
G01 X42.6112 Y14.1132
G01 X42.6467 Y14.0961
G01 X42.6806 Y14.0761
G01 X42.6913 Y14.0689
G01 X42.7126 Y14.0532
G01 X42.7228 Y14.0452
G01 X42.7326 Y14.0368
G01 X42.7568 Y14.0144
G01 X43.8899 Y12.8813
G01 X44.3730 Y12.8813
G01 X44.3860 Y12.8953
G01 X44.7074 Y13.2167
G01 X44.0139 Y13.2167
G01 X43.9745 Y13.2184
G01 X43.9552 Y13.2205
G01 X43.9227 Y13.2257
G01 X43.8907 Y13.2334
G01 X43.8782 Y13.2368
G01 X43.8471 Y13.2476
G01 X43.8291 Y13.2548
G01 X43.7994 Y13.2689
G01 X43.7823 Y13.2783
G01 X43.7543 Y13.2955
G01 X43.7225 Y13.3187
G01 X43.7076 Y13.3312
G01 X43.6835 Y13.3536
G01 X42.5503 Y14.4867
G01 X31.9428 Y14.4867
G01 X31.9741 Y14.4205
G01 X31.9794 Y14.4087
G01 X31.9840 Y14.3966
G01 X32.0105 Y14.3227
G01 X32.0145 Y14.3104
G01 X32.0180 Y14.2979
G01 X32.0371 Y14.2217
G01 X32.0399 Y14.2091
G01 X32.0421 Y14.1963
G01 X32.0536 Y14.1186
G01 X32.0552 Y14.1058
G01 X32.0562 Y14.0929
G01 X32.0600 Y14.0144
G01 X32.0604 Y14.0015
G01 X32.0600 Y13.9885
G01 X32.0562 Y13.9101
G01 X32.0552 Y13.8972
G01 X32.0536 Y13.8843
G01 X32.0421 Y13.8067
G01 X32.0399 Y13.7939
G01 X32.0371 Y13.7813
G01 X32.0180 Y13.7051
G01 X32.0145 Y13.6926
G01 X32.0105 Y13.6803
G01 X31.9840 Y13.6064
G01 X31.9794 Y13.5943
G01 X31.9741 Y13.5825
G01 X31.9405 Y13.5115
G01 X31.9347 Y13.4999
G01 X31.9283 Y13.4887
G01 X31.8880 Y13.4213
G01 X31.8810 Y13.4104
G01 X31.8736 Y13.3998
G01 X31.8268 Y13.3367
G01 X31.8188 Y13.3265
G01 X31.8104 Y13.3167
G01 X31.7577 Y13.2585
G01 X31.7487 Y13.2492
G01 X31.7393 Y13.2402
G01 X31.6812 Y13.1875
G01 X31.6714 Y13.1790
G01 X31.6611 Y13.1711
G01 X31.5981 Y13.1243
G01 X31.5875 Y13.1168
G01 X31.5765 Y13.1099
G01 X31.5092 Y13.0695
G01 X31.4979 Y13.0632
G01 X31.4864 Y13.0573
G01 X31.4154 Y13.0238
G01 X31.4035 Y13.0185
G01 X31.3915 Y13.0139
G01 X31.3175 Y12.9874
G01 X31.3052 Y12.9833
G01 X31.2927 Y12.9799
G01 X31.2166 Y12.9608
G01 X31.2040 Y12.9580
G01 X31.1912 Y12.9558
G01 X31.1135 Y12.9442
G01 X31.1007 Y12.9426
G01 X31.0877 Y12.9417
G01 X31.0029 Y12.9376
G01 X30.9834 Y12.9378
G01 X30.9050 Y12.9417
G01 X30.8921 Y12.9426
G01 X30.8792 Y12.9442
G01 X30.8016 Y12.9558
G01 X30.7888 Y12.9580
G01 X30.7762 Y12.9608
G01 X30.7000 Y12.9799
G01 X30.6875 Y12.9833
G01 X30.6752 Y12.9874
G01 X30.6013 Y13.0139
G01 X30.5892 Y13.0185
G01 X30.5774 Y13.0238
G01 X30.5064 Y13.0573
G01 X30.4948 Y13.0632
G01 X30.4836 Y13.0695
G01 X30.4162 Y13.1099
G01 X30.4053 Y13.1168
G01 X30.3947 Y13.1243
G01 X30.3316 Y13.1711
G01 X30.3214 Y13.1790
G01 X30.3116 Y13.1875
G01 X30.2534 Y13.2402
G01 X30.2440 Y13.2492
G01 X30.2351 Y13.2585
G01 X30.1824 Y13.3167
G01 X30.1739 Y13.3265
G01 X30.1659 Y13.3367
G01 X30.1192 Y13.3998
G01 X30.1117 Y13.4104
G01 X30.1048 Y13.4213
G01 X30.0644 Y13.4887
G01 X30.0580 Y13.4999
G01 X30.0522 Y13.5115
G01 X30.0187 Y13.5825
G01 X30.0134 Y13.5943
G01 X30.0087 Y13.6064
G01 X29.9823 Y13.6803
G01 X29.9782 Y13.6926
G01 X29.9748 Y13.7051
G01 X29.9557 Y13.7813
G01 X29.9529 Y13.7939
G01 X29.9506 Y13.8067
G01 X29.9391 Y13.8843
G01 X29.9375 Y13.8972
G01 X29.9366 Y13.9101
G01 X29.9327 Y13.9885
G01 X29.9324 Y14.0015
G01 X29.9327 Y14.0144
G01 X29.9366 Y14.0929
G01 X29.9375 Y14.1058
G01 X29.9391 Y14.1186
G01 X29.9506 Y14.1963
G01 X29.9529 Y14.2091
G01 X29.9557 Y14.2217
G01 X29.9748 Y14.2979
G01 X29.9782 Y14.3104
G01 X29.9823 Y14.3227
G01 X30.0087 Y14.3966
G01 X30.0134 Y14.4087
G01 X30.0187 Y14.4205
G01 X30.0500 Y14.4867
G01 X16.9847 Y14.4867
G01 X16.9718 Y14.4727
G01 X16.5505 Y14.0516
G01 X16.5409 Y14.0429
G01 X16.5309 Y14.0347
G01 X16.5151 Y14.0233
G01 X16.5042 Y14.0164
G01 X16.4929 Y14.0100
G01 X16.4813 Y14.0041
G01 X16.4695 Y13.9989
G01 X16.4513 Y13.9921
G01 X16.4389 Y13.9884
G01 X16.4263 Y13.9852
G01 X16.4136 Y13.9827
G01 X16.4008 Y13.9808
G01 X16.3879 Y13.9795
G01 X16.3749 Y13.9789
G01 X15.7793 Y13.9788
G01 X15.7599 Y13.9795
G01 X15.7470 Y13.9808
G01 X15.7342 Y13.9827
G01 X15.7151 Y13.9867
G01 X15.6965 Y13.9921
G01 X15.6843 Y13.9965
G01 X15.6723 Y14.0014
G01 X15.6606 Y14.0070
G01 X15.6492 Y14.0131
G01 X15.6326 Y14.0233
G01 X15.6220 Y14.0308
G01 X15.6118 Y14.0387
G01 X15.5973 Y14.0516
G01 X15.1760 Y14.4727
G01 X15.1628 Y14.4870
G01 X15.1546 Y14.4970
G01 X15.1432 Y14.5127
G01 X15.1330 Y14.5293
G01 X15.1240 Y14.5465
G01 X15.1164 Y14.5644
G01 X15.1101 Y14.5828
G01 X15.1051 Y14.6016
G01 X15.1015 Y14.6207
G01 X15.0994 Y14.6400
G01 X15.0987 Y14.6594
G01 X15.0988 Y15.2551
G01 X15.1000 Y15.2745
G01 X15.1026 Y15.2937
G01 X15.1051 Y15.3064
G01 X15.1082 Y15.3190
G01 X15.1141 Y15.3375
G01 X15.1188 Y15.3496
G01 X15.1240 Y15.3615
G01 X15.1299 Y15.3730
G01 X15.1362 Y15.3843
G01 X15.1432 Y15.3953
G01 X15.1506 Y15.4058
G01 X15.1586 Y15.4161
G01 X15.1671 Y15.4259
G01 X15.1760 Y15.4353
G01 X15.4974 Y15.7567
G01 X14.9974 Y15.7567
G01 X14.5084 Y15.2676
G01 X14.5091 Y15.2486
G01 X14.5090 Y14.6529
G01 X14.5078 Y14.6335
G01 X14.5062 Y14.6207
G01 X14.5040 Y14.6079
G01 X14.4995 Y14.5890
G01 X14.4936 Y14.5705
G01 X14.4890 Y14.5584
G01 X14.4837 Y14.5465
G01 X14.4779 Y14.5350
G01 X14.4715 Y14.5237
G01 X14.4646 Y14.5127
G01 X14.4571 Y14.5021
G01 X14.4492 Y14.4919
G01 X14.4407 Y14.4821
G01 X14.4318 Y14.4727
G01 X14.1103 Y14.1513
G01 X14.8104 Y14.1512
G01 X14.8497 Y14.1490
G01 X14.8887 Y14.1435
G01 X14.9014 Y14.1410
G01 X14.9270 Y14.1346
G01 X14.9457 Y14.1292
G01 X14.9767 Y14.1181
G01 X14.9887 Y14.1132
G01 X15.0184 Y14.0991
G01 X15.0354 Y14.0897
G01 X15.0635 Y14.0725
G01 X15.0901 Y14.0532
G01 X15.1053 Y14.0411
G01 X15.1249 Y14.0234
G01 X15.1343 Y14.0144
G01 X15.7602 Y13.3885
G01 X15.7793 Y13.3892
G01 X16.3685 Y13.3892
G01 X16.3814 Y13.3889
G01 X16.3943 Y13.3879
G01 X16.4136 Y13.3853
G01 X16.4263 Y13.3828
G01 X16.4389 Y13.3796
G01 X16.4513 Y13.3759
G01 X16.4635 Y13.3715
G01 X16.4813 Y13.3638
G01 X16.4986 Y13.3549
G01 X16.5097 Y13.3482
G01 X16.5205 Y13.3410
G01 X16.5359 Y13.3293
G01 X16.5458 Y13.3208
G01 X16.5551 Y13.3119
G01 X16.9718 Y12.8953
G01 X16.9807 Y12.8859
G01 X16.9892 Y12.8761
G01 X17.0009 Y12.8606
G01 X17.0115 Y12.8443
G01 X17.0179 Y12.8330
G01 X17.0237 Y12.8215
G01 X17.0314 Y12.8036
G01 X17.0377 Y12.7852
G01 X17.0412 Y12.7727
G01 X17.0440 Y12.7601
G01 X17.0471 Y12.7409
G01 X17.0488 Y12.7215
G01 X17.0491 Y12.7086
G01 X17.0490 Y12.1129
G01 X17.0478 Y12.0935
G01 X17.0452 Y12.0743
G01 X17.0427 Y12.0616
G01 X17.0395 Y12.0490
G01 X17.0336 Y12.0305
G01 X17.0290 Y12.0184
G01 X17.0237 Y12.0065
G01 X17.0179 Y11.9950
G01 X17.0115 Y11.9837
G01 X17.0046 Y11.9727
G01 X16.9971 Y11.9621
G01 X16.9892 Y11.9519
G01 X16.9807 Y11.9421
G01 X16.9718 Y11.9327
G01 X16.6503 Y11.6113
G00 Z1.2000
G00 X17.0221 Y11.7653
G01 F120.00
G01 Z-0.0800
G01 F240.00
G01 X32.3265 Y11.7653
G01 X34.6919 Y14.1305
G01 X34.7142 Y14.1509
G01 X34.7297 Y14.1643
G01 X34.7377 Y14.1707
G01 X34.7619 Y14.1888
G01 X34.7787 Y14.2006
G01 X34.7873 Y14.2062
G01 X34.8132 Y14.2218
G01 X34.8310 Y14.2319
G01 X34.8401 Y14.2367
G01 X34.8674 Y14.2497
G01 X34.8767 Y14.2540
G01 X34.8956 Y14.2618
G01 X34.9240 Y14.2721
G01 X34.9435 Y14.2785
G01 X34.9534 Y14.2814
G01 X34.9827 Y14.2889
G01 X34.9926 Y14.2912
G01 X35.0128 Y14.2952
G01 X35.0528 Y14.3012
G01 X35.0732 Y14.3032
G01 X35.0834 Y14.3038
G01 X35.1136 Y14.3052
G01 X35.1239 Y14.3053
G01 X42.4264 Y14.3053
G01 X42.4469 Y14.3048
G01 X42.4771 Y14.3032
G01 X42.4975 Y14.3012
G01 X42.5215 Y14.2977
G01 X42.4865 Y14.3327
G01 X32.1680 Y14.3327
G01 X32.1865 Y14.2591
G01 X32.1909 Y14.2391
G01 X32.1945 Y14.2189
G01 X32.2060 Y14.1412
G01 X32.2074 Y14.1311
G01 X32.2094 Y14.1107
G01 X32.2138 Y14.0220
G01 X32.2144 Y14.0015
G01 X32.2138 Y13.9810
G01 X32.2100 Y13.9026
G01 X32.2085 Y13.8821
G01 X32.2060 Y13.8618
G01 X32.1945 Y13.7841
G01 X32.1909 Y13.7639
G01 X32.1865 Y13.7439
G01 X32.1674 Y13.6677
G01 X32.1619 Y13.6479
G01 X32.1555 Y13.6285
G01 X32.1290 Y13.5545
G01 X32.1216 Y13.5354
G01 X32.1133 Y13.5166
G01 X32.0798 Y13.4457
G01 X32.0705 Y13.4273
G01 X32.0604 Y13.4095
G01 X32.0201 Y13.3422
G01 X32.0147 Y13.3334
G01 X32.0033 Y13.3164
G01 X31.9443 Y13.2368
G01 X31.9313 Y13.2210
G01 X31.9245 Y13.2133
G01 X31.8718 Y13.1551
G01 X31.8576 Y13.1403
G01 X31.8428 Y13.1261
G01 X31.7846 Y13.0734
G01 X31.7691 Y13.0600
G01 X31.7529 Y13.0474
G01 X31.6815 Y12.9946
G01 X31.6645 Y12.9832
G01 X31.6557 Y12.9778
G01 X31.5884 Y12.9375
G01 X31.5705 Y12.9273
G01 X31.5522 Y12.9181
G01 X31.4812 Y12.8846
G01 X31.4625 Y12.8762
G01 X31.4433 Y12.8689
G01 X31.3694 Y12.8424
G01 X31.3499 Y12.8360
G01 X31.3302 Y12.8305
G01 X31.2540 Y12.8114
G01 X31.2340 Y12.8069
G01 X31.2138 Y12.8034
G01 X31.1361 Y12.7919
G01 X31.1158 Y12.7894
G01 X31.0953 Y12.7879
G01 X31.0169 Y12.7840
G01 X30.9964 Y12.7835
G01 X30.9759 Y12.7840
G01 X30.8872 Y12.7885
G01 X30.8770 Y12.7894
G01 X30.8566 Y12.7919
G01 X30.7790 Y12.8034
G01 X30.7588 Y12.8069
G01 X30.7387 Y12.8114
G01 X30.6626 Y12.8305
G01 X30.6428 Y12.8360
G01 X30.6330 Y12.8391
G01 X30.5398 Y12.8724
G01 X30.5209 Y12.8803
G01 X30.5115 Y12.8846
G01 X30.4313 Y12.9226
G01 X30.4132 Y12.9323
G01 X30.4044 Y12.9375
G01 X30.3370 Y12.9778
G01 X30.3197 Y12.9888
G01 X30.3029 Y13.0006
G01 X30.2399 Y13.0474
G01 X30.2237 Y13.0600
G01 X30.2082 Y13.0734
G01 X30.1500 Y13.1261
G01 X30.1351 Y13.1403
G01 X30.1210 Y13.1551
G01 X30.0683 Y13.2133
G01 X30.0549 Y13.2288
G01 X30.0423 Y13.2450
G01 X29.9955 Y13.3081
G01 X29.9837 Y13.3248
G01 X29.9727 Y13.3422
G01 X29.9323 Y13.4095
G01 X29.9222 Y13.4273
G01 X29.9175 Y13.4365
G01 X29.8794 Y13.5166
G01 X29.8711 Y13.5354
G01 X29.8637 Y13.5545
G01 X29.8373 Y13.6285
G01 X29.8309 Y13.6479
G01 X29.8254 Y13.6677
G01 X29.8063 Y13.7439
G01 X29.8018 Y13.7639
G01 X29.7983 Y13.7841
G01 X29.7868 Y13.8618
G01 X29.7843 Y13.8821
G01 X29.7828 Y13.9026
G01 X29.7789 Y13.9810
G01 X29.7784 Y14.0015
G01 X29.7789 Y14.0220
G01 X29.7834 Y14.1107
G01 X29.7843 Y14.1209
G01 X29.7868 Y14.1412
G01 X29.7983 Y14.2189
G01 X29.8018 Y14.2391
G01 X29.8063 Y14.2591
G01 X29.8247 Y14.3327
G01 X17.0495 Y14.3327
G01 X16.6640 Y13.9472
G01 X16.6492 Y13.9331
G01 X16.6336 Y13.9197
G01 X16.6175 Y13.9071
G01 X16.6007 Y13.8952
G01 X16.5834 Y13.8843
G01 X16.5655 Y13.8742
G01 X16.5472 Y13.8649
G01 X16.5284 Y13.8566
G01 X16.5189 Y13.8528
G01 X16.5093 Y13.8492
G01 X16.4898 Y13.8428
G01 X16.4700 Y13.8373
G01 X16.4500 Y13.8328
G01 X16.4298 Y13.8293
G01 X16.4094 Y13.8268
G01 X16.3992 Y13.8259
G01 X16.3787 Y13.8249
G01 X15.7793 Y13.8248
G01 X15.7690 Y13.8249
G01 X15.7485 Y13.8259
G01 X15.7281 Y13.8279
G01 X15.7078 Y13.8310
G01 X15.6977 Y13.8328
G01 X15.6777 Y13.8373
G01 X15.6580 Y13.8428
G01 X15.6482 Y13.8459
G01 X15.6385 Y13.8492
G01 X15.6193 Y13.8566
G01 X15.6006 Y13.8649
G01 X15.5914 Y13.8694
G01 X15.5733 Y13.8791
G01 X15.5644 Y13.8843
G01 X15.5557 Y13.8897
G01 X15.5386 Y13.9010
G01 X15.5221 Y13.9133
G01 X15.5141 Y13.9197
G01 X15.5063 Y13.9263
G01 X15.4911 Y13.9401
G01 X15.0671 Y14.3638
G01 X15.0530 Y14.3787
G01 X15.0396 Y14.3942
G01 X15.0269 Y14.4104
G01 X15.0151 Y14.4272
G01 X15.0042 Y14.4445
G01 X14.9940 Y14.4624
G01 X14.9848 Y14.4807
G01 X14.9765 Y14.4994
G01 X14.9691 Y14.5186
G01 X14.9627 Y14.5381
G01 X14.9598 Y14.5479
G01 X14.9572 Y14.5578
G01 X14.9527 Y14.5779
G01 X14.9492 Y14.5981
G01 X14.9478 Y14.6082
G01 X14.9458 Y14.6287
G01 X14.9448 Y14.6492
G01 X14.9447 Y15.2486
G01 X14.9448 Y15.2588
G01 X14.9458 Y15.2793
G01 X14.9478 Y15.2998
G01 X14.9492 Y15.3099
G01 X14.9527 Y15.3301
G01 X14.9572 Y15.3501
G01 X14.9627 Y15.3699
G01 X14.9691 Y15.3894
G01 X14.9765 Y15.4085
G01 X14.9848 Y15.4273
G01 X14.9893 Y15.4365
G01 X14.9990 Y15.4546
G01 X15.0095 Y15.4722
G01 X15.0209 Y15.4893
G01 X15.0332 Y15.5057
G01 X15.0462 Y15.5216
G01 X15.0600 Y15.5368
G01 X15.0671 Y15.5442
G01 X15.1257 Y15.6027
G01 X15.0612 Y15.6027
G01 X14.6631 Y15.2045
G01 X14.6630 Y14.6492
G01 X14.6619 Y14.6287
G01 X14.6611 Y14.6184
G01 X14.6586 Y14.5981
G01 X14.6550 Y14.5779
G01 X14.6506 Y14.5578
G01 X14.6451 Y14.5381
G01 X14.6386 Y14.5186
G01 X14.6351 Y14.5090
G01 X14.6272 Y14.4900
G01 X14.6184 Y14.4715
G01 X14.6088 Y14.4534
G01 X14.5982 Y14.4358
G01 X14.5868 Y14.4187
G01 X14.5746 Y14.4022
G01 X14.5616 Y14.3864
G01 X14.5548 Y14.3787
G01 X14.5406 Y14.3638
G01 X14.4821 Y14.3053
G01 X14.8039 Y14.3053
G01 X14.8141 Y14.3052
G01 X14.8443 Y14.3038
G01 X14.8546 Y14.3032
G01 X14.8750 Y14.3012
G01 X14.9150 Y14.2952
G01 X14.9351 Y14.2912
G01 X14.9744 Y14.2814
G01 X14.9940 Y14.2754
G01 X15.0321 Y14.2618
G01 X15.0511 Y14.2540
G01 X15.0877 Y14.2367
G01 X15.1057 Y14.2270
G01 X15.1317 Y14.2116
G01 X15.1491 Y14.2006
G01 X15.1575 Y14.1948
G01 X15.1819 Y14.1769
G01 X15.1980 Y14.1643
G01 X15.2059 Y14.1577
G01 X15.2359 Y14.1305
G01 X15.8233 Y13.5432
G01 X16.3685 Y13.5432
G01 X16.3787 Y13.5431
G01 X16.3992 Y13.5421
G01 X16.4196 Y13.5400
G01 X16.4298 Y13.5387
G01 X16.4399 Y13.5370
G01 X16.4601 Y13.5330
G01 X16.4800 Y13.5281
G01 X16.4898 Y13.5252
G01 X16.5093 Y13.5188
G01 X16.5284 Y13.5114
G01 X16.5472 Y13.5031
G01 X16.5564 Y13.4986
G01 X16.5745 Y13.4889
G01 X16.5921 Y13.4783
G01 X16.6007 Y13.4727
G01 X16.6175 Y13.4609
G01 X16.6336 Y13.4483
G01 X16.6415 Y13.4417
G01 X16.6567 Y13.4279
G01 X16.6640 Y13.4208
G01 X17.0806 Y13.0042
G01 X17.0948 Y12.9893
G01 X17.1016 Y12.9816
G01 X17.1146 Y12.9657
G01 X17.1268 Y12.9493
G01 X17.1326 Y12.9408
G01 X17.1436 Y12.9235
G01 X17.1488 Y12.9146
G01 X17.1584 Y12.8965
G01 X17.1672 Y12.8780
G01 X17.1713 Y12.8685
G01 X17.1786 Y12.8494
G01 X17.1851 Y12.8299
G01 X17.1879 Y12.8201
G01 X17.1929 Y12.8002
G01 X17.1969 Y12.7800
G01 X17.1999 Y12.7598
G01 X17.2011 Y12.7496
G01 X17.2026 Y12.7291
G01 X17.2031 Y12.7086
G01 X17.2031 Y12.1194
G01 X17.2026 Y12.0989
G01 X17.2011 Y12.0784
G01 X17.1986 Y12.0581
G01 X17.1969 Y12.0479
G01 X17.1929 Y12.0278
G01 X17.1879 Y12.0079
G01 X17.1820 Y11.9883
G01 X17.1751 Y11.9690
G01 X17.1672 Y11.9500
G01 X17.1584 Y11.9315
G01 X17.1488 Y11.9134
G01 X17.1382 Y11.8958
G01 X17.1268 Y11.8787
G01 X17.1146 Y11.8622
G01 X17.1016 Y11.8464
G01 X17.0948 Y11.8387
G01 X17.0806 Y11.8238
G01 X17.0221 Y11.7653
G00 Z1.2000
G00 X14.4821 Y13.0627
G01 F120.00
G01 Z-0.0800
G01 F240.00
G01 X14.5406 Y13.0042
G01 X14.5548 Y12.9893
G01 X14.5616 Y12.9816
G01 X14.5746 Y12.9657
G01 X14.5868 Y12.9493
G01 X14.5982 Y12.9322
G01 X14.6036 Y12.9235
G01 X14.6137 Y12.9056
G01 X14.6229 Y12.8873
G01 X14.6313 Y12.8685
G01 X14.6386 Y12.8494
G01 X14.6451 Y12.8299
G01 X14.6506 Y12.8101
G01 X14.6550 Y12.7901
G01 X14.6586 Y12.7699
G01 X14.6611 Y12.7496
G01 X14.6619 Y12.7393
G01 X14.6630 Y12.7188
G01 X14.6631 Y12.1635
G01 X15.0612 Y11.7653
G01 X15.1257 Y11.7653
G01 X15.0671 Y11.8238
G01 X15.0530 Y11.8387
G01 X15.0396 Y11.8542
G01 X15.0332 Y11.8622
G01 X15.0209 Y11.8787
G01 X15.0095 Y11.8958
G01 X14.9990 Y11.9134
G01 X14.9893 Y11.9315
G01 X14.9805 Y11.9500
G01 X14.9765 Y11.9594
G01 X14.9691 Y11.9786
G01 X14.9627 Y11.9981
G01 X14.9572 Y12.0178
G01 X14.9527 Y12.0379
G01 X14.9508 Y12.0479
G01 X14.9478 Y12.0682
G01 X14.9458 Y12.0887
G01 X14.9448 Y12.1092
G01 X14.9447 Y12.6645
G01 X14.5465 Y13.0627
G01 X14.4821 Y13.0627
G00 Z1.2000
G00 X14.1103 Y13.2167
G01 F120.00
G01 Z-0.0800
G01 F240.00
G01 X14.4318 Y12.8953
G01 X14.4407 Y12.8859
G01 X14.4492 Y12.8761
G01 X14.4571 Y12.8658
G01 X14.4646 Y12.8553
G01 X14.4715 Y12.8443
G01 X14.4779 Y12.8330
G01 X14.4837 Y12.8215
G01 X14.4890 Y12.8096
G01 X14.4936 Y12.7975
G01 X14.4995 Y12.7790
G01 X14.5027 Y12.7664
G01 X14.5052 Y12.7537
G01 X14.5078 Y12.7345
G01 X14.5090 Y12.7151
G01 X14.5091 Y12.1194
G01 X14.5084 Y12.1004
G01 X14.9974 Y11.6113
G01 X15.4974 Y11.6113
G01 X15.1760 Y11.9327
G01 X15.1671 Y11.9421
G01 X15.1586 Y11.9519
G01 X15.1506 Y11.9621
G01 X15.1432 Y11.9727
G01 X15.1362 Y11.9837
G01 X15.1299 Y11.9950
G01 X15.1240 Y12.0065
G01 X15.1188 Y12.0184
G01 X15.1141 Y12.0305
G01 X15.1082 Y12.0490
G01 X15.1051 Y12.0616
G01 X15.1026 Y12.0743
G01 X15.1000 Y12.0935
G01 X15.0988 Y12.1129
G01 X15.0987 Y12.7086
G01 X15.0994 Y12.7276
G01 X14.6103 Y13.2167
G01 X14.1103 Y13.2167
G00 Z1.2000
G00 X12.5470 Y13.0240
G01 F120.00
G01 Z-0.0800
G01 F240.00
G01 X12.5857 Y13.0627
G01 X12.5207 Y13.0627
G01 X12.5361 Y13.0411
G01 X12.5470 Y13.0240
G00 Z1.2000
G00 X12.2639 Y13.3707
G01 F120.00
G01 Z-0.0800
G01 F240.00
G01 X14.6741 Y13.3707
G01 X15.2728 Y12.7720
G01 X15.2683 Y12.7651
G01 X15.2644 Y12.7580
G01 X15.2611 Y12.7507
G01 X15.2582 Y12.7431
G01 X15.2560 Y12.7353
G01 X15.2543 Y12.7274
G01 X15.2532 Y12.7194
G01 X15.2527 Y12.7113
G01 X15.2527 Y12.1167
G01 X15.2535 Y12.1059
G01 X15.2548 Y12.0979
G01 X15.2574 Y12.0875
G01 X15.2611 Y12.0773
G01 X15.2657 Y12.0676
G01 X15.2712 Y12.0583
G01 X15.2777 Y12.0496
G01 X15.2830 Y12.0436
G01 X15.7015 Y11.6250
G01 X15.7116 Y11.6161
G01 X15.7227 Y11.6084
G01 X15.7298 Y11.6045
G01 X15.7372 Y11.6012
G01 X15.7500 Y11.5968
G01 X15.7578 Y11.5949
G01 X15.7658 Y11.5936
G01 X15.7793 Y11.5928
G01 X16.3685 Y11.5928
G01 X16.3793 Y11.5933
G01 X16.3926 Y11.5955
G01 X16.4030 Y11.5984
G01 X16.4130 Y11.6022
G01 X16.4227 Y11.6071
G01 X16.4318 Y11.6129
G01 X16.4403 Y11.6195
G01 X16.4463 Y11.6250
G01 X16.8629 Y12.0416
G01 X16.8718 Y12.0517
G01 X16.8794 Y12.0629
G01 X16.8856 Y12.0748
G01 X16.8886 Y12.0824
G01 X16.8911 Y12.0901
G01 X16.8939 Y12.1033
G01 X16.8948 Y12.1113
G01 X16.8951 Y12.1194
G01 X16.8951 Y12.7086
G01 X16.8945 Y12.7194
G01 X16.8930 Y12.7300
G01 X16.8903 Y12.7405
G01 X16.8867 Y12.7507
G01 X16.8821 Y12.7604
G01 X16.8765 Y12.7697
G01 X16.8701 Y12.7784
G01 X16.8629 Y12.7864
G01 X16.4463 Y13.2030
G01 X16.4403 Y13.2085
G01 X16.4340 Y13.2135
G01 X16.4273 Y13.2181
G01 X16.4203 Y13.2222
G01 X16.4081 Y13.2278
G01 X16.3978 Y13.2312
G01 X16.3846 Y13.2340
G01 X16.3712 Y13.2352
G01 X15.7793 Y13.2352
G01 X15.7712 Y13.2349
G01 X15.7605 Y13.2336
G01 X15.7526 Y13.2319
G01 X15.7448 Y13.2296
G01 X15.7372 Y13.2268
G01 X15.7298 Y13.2234
G01 X15.7227 Y13.2195
G01 X15.7159 Y13.2151
G01 X15.0215 Y13.9093
G01 X15.0026 Y13.9262
G01 X14.9824 Y13.9414
G01 X14.9734 Y13.9474
G01 X14.9516 Y13.9603
G01 X14.9238 Y13.9734
G01 X14.9000 Y13.9821
G01 X14.8896 Y13.9852
G01 X14.8650 Y13.9913
G01 X14.8346 Y13.9958
G01 X14.8039 Y13.9973
G01 X12.3937 Y13.9973
G01 X11.3072 Y15.0838
G01 X11.3072 Y21.1742
G01 X13.7554 Y23.6225
G01 X13.7761 Y23.6452
G01 X13.7913 Y23.6655
G01 X13.7973 Y23.6745
G01 X13.8089 Y23.6939
G01 X13.8126 Y23.7011
G01 X13.8233 Y23.7241
G01 X13.8320 Y23.7479
G01 X13.8351 Y23.7583
G01 X13.8406 Y23.7802
G01 X13.8421 Y23.7882
G01 X13.8457 Y23.8133
G01 X13.8472 Y23.8440
G01 X13.8472 Y30.0642
G01 X15.0254 Y31.2425
G01 X15.0425 Y31.2612
G01 X15.0494 Y31.2695
G01 X15.0644 Y31.2899
G01 X15.0802 Y31.3163
G01 X15.0933 Y31.3441
G01 X15.1020 Y31.3679
G01 X15.1051 Y31.3783
G01 X15.1112 Y31.4029
G01 X15.1150 Y31.4279
G01 X15.1159 Y31.4360
G01 X15.1171 Y31.4613
G01 X15.1172 Y32.6401
G01 X15.1672 Y32.6639
G01 X15.2275 Y32.6999
G01 X15.2365 Y32.7059
G01 X15.2907 Y32.7461
G01 X15.2969 Y32.7513
G01 X15.3489 Y32.7986
G01 X15.3961 Y32.8506
G01 X15.4013 Y32.8568
G01 X15.4416 Y32.9110
G01 X15.4476 Y32.9200
G01 X15.4836 Y32.9803
G01 X15.5138 Y33.0437
G01 X15.5179 Y33.0537
G01 X15.5414 Y33.1199
G01 X15.5586 Y33.1880
G01 X15.5603 Y33.1959
G01 X15.5709 Y33.2681
G01 X15.5746 Y33.3436
G01 X15.5746 Y34.6644
G01 X15.5713 Y34.7346
G01 X15.5702 Y34.7453
G01 X15.5598 Y34.8148
G01 X15.5414 Y34.8881
G01 X15.5159 Y34.9593
G01 X15.4860 Y35.0229
G01 X15.4809 Y35.0324
G01 X15.4447 Y35.0926
G01 X15.4030 Y35.1491
G01 X15.3961 Y35.1574
G01 X15.3489 Y35.2094
G01 X15.2928 Y35.2602
G01 X15.2321 Y35.3052
G01 X15.1719 Y35.3415
G01 X15.1624 Y35.3465
G01 X15.0988 Y35.3765
G01 X15.0327 Y35.4002
G01 X15.0224 Y35.4034
G01 X14.9542 Y35.4203
G01 X14.8821 Y35.4311
G01 X14.8740 Y35.4318
G01 X14.8039 Y35.4351
G01 X14.7283 Y35.4314
G01 X14.6535 Y35.4203
G01 X14.5802 Y35.4019
G01 X14.5089 Y35.3765
G01 X14.4406 Y35.3441
G01 X14.3757 Y35.3052
G01 X14.3149 Y35.2602
G01 X14.2589 Y35.2094
G01 X14.2081 Y35.1533
G01 X14.1630 Y35.0926
G01 X14.1242 Y35.0277
G01 X14.0918 Y34.9593
G01 X14.0663 Y34.8881
G01 X14.0480 Y34.8148
G01 X14.0369 Y34.7399
G01 X14.0332 Y34.6644
G01 X14.0332 Y33.3436
G01 X14.0365 Y33.2734
G01 X14.0375 Y33.2627
G01 X14.0470 Y33.1986
G01 X14.0491 Y33.1880
G01 X14.0663 Y33.1199
G01 X14.0899 Y33.0537
G01 X14.0940 Y33.0437
G01 X14.1242 Y32.9803
G01 X14.1602 Y32.9200
G01 X14.1662 Y32.9110
G01 X14.2081 Y32.8547
G01 X14.2552 Y32.8025
G01 X14.2628 Y32.7949
G01 X14.3149 Y32.7478
G01 X14.3713 Y32.7059
G01 X14.3802 Y32.6999
G01 X14.4406 Y32.6639
G01 X14.4906 Y32.6401
G01 X14.4906 Y31.5938
G01 X13.3105 Y30.4136
G01 X13.2917 Y30.3928
G01 X13.2749 Y30.3703
G01 X13.2602 Y30.3464
G01 X13.2551 Y30.3369
G01 X13.2444 Y30.3139
G01 X13.2341 Y30.2849
G01 X13.2266 Y30.2551
G01 X13.2228 Y30.2301
G01 X13.2217 Y30.2193
G01 X13.2206 Y30.1940
G01 X13.2206 Y23.9738
G01 X10.7705 Y21.5236
G01 X10.7517 Y21.5028
G01 X10.7349 Y21.4803
G01 X10.7202 Y21.4564
G01 X10.7151 Y21.4469
G01 X10.7044 Y21.4239
G01 X10.6941 Y21.3949
G01 X10.6866 Y21.3651
G01 X10.6824 Y21.3374
G01 X10.6817 Y21.3293
G01 X10.6806 Y21.3040
G01 X10.6806 Y14.9540
G01 X10.6821 Y14.9233
G01 X10.6866 Y14.8929
G01 X10.6941 Y14.8631
G01 X10.7025 Y14.8391
G01 X10.7066 Y14.8292
G01 X10.7176 Y14.8063
G01 X10.7305 Y14.7845
G01 X10.7365 Y14.7755
G01 X10.7517 Y14.7552
G01 X10.7705 Y14.7344
G01 X12.0443 Y13.4606
G01 X12.0651 Y13.4418
G01 X12.0898 Y13.4235
G01 X12.1162 Y13.4077
G01 X12.1440 Y13.3945
G01 X12.1729 Y13.3842
G01 X12.2028 Y13.3767
G01 X12.2332 Y13.3722
G01 X12.2639 Y13.3707
G00 Z1.2000
G00 X12.7449 Y14.5816
G01 F120.00
G01 Z-0.0800
G01 F240.00
G01 X13.1634 Y14.1631
G01 X13.1716 Y14.1561
G01 X13.1804 Y14.1499
G01 X13.1898 Y14.1445
G01 X13.1997 Y14.1402
G01 X13.2100 Y14.1368
G01 X13.2205 Y14.1344
G01 X13.2285 Y14.1333
G01 X13.2393 Y14.1328
G01 X13.8285 Y14.1328
G01 X13.8366 Y14.1331
G01 X13.8446 Y14.1340
G01 X13.8578 Y14.1368
G01 X13.8655 Y14.1392
G01 X13.8730 Y14.1422
G01 X13.8850 Y14.1484
G01 X13.8961 Y14.1561
G01 X13.9063 Y14.1650
G01 X14.3229 Y14.5816
G01 X14.3301 Y14.5896
G01 X14.3365 Y14.5983
G01 X14.3433 Y14.6100
G01 X14.3477 Y14.6198
G01 X14.3511 Y14.6301
G01 X14.3535 Y14.6406
G01 X14.3545 Y14.6486
G01 X14.3551 Y14.6594
G01 X14.3550 Y15.2513
G01 X14.3545 Y15.2594
G01 X14.3535 Y15.2674
G01 X14.3518 Y15.2753
G01 X14.3495 Y15.2831
G01 X14.3467 Y15.2907
G01 X14.3433 Y15.2980
G01 X14.3394 Y15.3051
G01 X14.3350 Y15.3120
G01 X14.9337 Y15.9107
G01 X43.8841 Y15.9107
G01 X44.4828 Y15.3120
G01 X44.4783 Y15.3051
G01 X44.4744 Y15.2980
G01 X44.4711 Y15.2907
G01 X44.4682 Y15.2831
G01 X44.4660 Y15.2753
G01 X44.4643 Y15.2674
G01 X44.4632 Y15.2594
G01 X44.4627 Y15.2513
G01 X44.4627 Y14.6567
G01 X44.4635 Y14.6459
G01 X44.4654 Y14.6353
G01 X44.4682 Y14.6249
G01 X44.4711 Y14.6173
G01 X44.4757 Y14.6076
G01 X44.4798 Y14.6006
G01 X44.4860 Y14.5917
G01 X44.4930 Y14.5836
G01 X44.9134 Y14.1631
G01 X44.9195 Y14.1578
G01 X44.9282 Y14.1513
G01 X44.9374 Y14.1458
G01 X44.9472 Y14.1412
G01 X44.9548 Y14.1384
G01 X44.9652 Y14.1355
G01 X44.9758 Y14.1336
G01 X44.9866 Y14.1328
G01 X45.5839 Y14.1329
G01 X45.5946 Y14.1340
G01 X45.6026 Y14.1355
G01 X45.6130 Y14.1384
G01 X45.6230 Y14.1422
G01 X45.6327 Y14.1471
G01 X45.6396 Y14.1513
G01 X45.6483 Y14.1578
G01 X45.6563 Y14.1650
G01 X46.0747 Y14.5836
G01 X46.0818 Y14.5917
G01 X46.0865 Y14.5983
G01 X46.0921 Y14.6076
G01 X46.0967 Y14.6173
G01 X46.0995 Y14.6249
G01 X46.1024 Y14.6353
G01 X46.1043 Y14.6459
G01 X46.1050 Y14.6567
G01 X46.1050 Y15.2513
G01 X46.1043 Y15.2620
G01 X46.1024 Y15.2727
G01 X46.0995 Y15.2831
G01 X46.0967 Y15.2907
G01 X46.0921 Y15.3004
G01 X46.0880 Y15.3074
G01 X46.0818 Y15.3163
G01 X46.0747 Y15.3244
G01 X45.6543 Y15.7449
G01 X45.6483 Y15.7502
G01 X45.6396 Y15.7567
G01 X45.6303 Y15.7622
G01 X45.6206 Y15.7668
G01 X45.6130 Y15.7696
G01 X45.6026 Y15.7725
G01 X45.5919 Y15.7744
G01 X45.5812 Y15.7752
G01 X44.9866 Y15.7752
G01 X44.9785 Y15.7747
G01 X44.9705 Y15.7736
G01 X44.9626 Y15.7719
G01 X44.9548 Y15.7696
G01 X44.9472 Y15.7668
G01 X44.9398 Y15.7634
G01 X44.9327 Y15.7595
G01 X44.9259 Y15.7551
G01 X44.2354 Y16.4455
G01 X44.2147 Y16.4644
G01 X44.2084 Y16.4695
G01 X44.1879 Y16.4845
G01 X44.1663 Y16.4976
G01 X44.1567 Y16.5027
G01 X44.1313 Y16.5144
G01 X44.1048 Y16.5238
G01 X44.0750 Y16.5313
G01 X44.0446 Y16.5358
G01 X44.0193 Y16.5372
G01 X14.8012 Y16.5373
G01 X14.7732 Y16.5358
G01 X14.7428 Y16.5313
G01 X14.7129 Y16.5238
G01 X14.6890 Y16.5154
G01 X14.6791 Y16.5113
G01 X14.6586 Y16.5015
G01 X14.6515 Y16.4976
G01 X14.6298 Y16.4845
G01 X14.6094 Y16.4695
G01 X14.6031 Y16.4644
G01 X14.5823 Y16.4455
G01 X13.8919 Y15.7551
G01 X13.8850 Y15.7595
G01 X13.8779 Y15.7634
G01 X13.8706 Y15.7668
G01 X13.8630 Y15.7696
G01 X13.8552 Y15.7719
G01 X13.8473 Y15.7736
G01 X13.8393 Y15.7747
G01 X13.8312 Y15.7752
G01 X13.2366 Y15.7752
G01 X13.2258 Y15.7744
G01 X13.2152 Y15.7725
G01 X13.2074 Y15.7705
G01 X13.1972 Y15.7668
G01 X13.1898 Y15.7634
G01 X13.1804 Y15.7581
G01 X13.1716 Y15.7519
G01 X13.1634 Y15.7449
G01 X12.7430 Y15.3244
G01 X12.7343 Y15.3141
G01 X12.7283 Y15.3051
G01 X12.7232 Y15.2956
G01 X12.7191 Y15.2856
G01 X12.7160 Y15.2753
G01 X12.7143 Y15.2674
G01 X12.7130 Y15.2567
G01 X12.7127 Y15.2486
G01 X12.7127 Y14.6567
G01 X12.7135 Y14.6459
G01 X12.7154 Y14.6353
G01 X12.7182 Y14.6249
G01 X12.7221 Y14.6148
G01 X12.7270 Y14.6052
G01 X12.7328 Y14.5961
G01 X12.7377 Y14.5896
G01 X12.7449 Y14.5816
G00 Z1.2000
G00 X15.2849 Y14.5816
G01 F120.00
G01 Z-0.0800
G01 F240.00
G01 X15.7034 Y14.1631
G01 X15.7095 Y14.1578
G01 X15.7182 Y14.1513
G01 X15.7274 Y14.1458
G01 X15.7372 Y14.1412
G01 X15.7474 Y14.1375
G01 X15.7578 Y14.1349
G01 X15.7658 Y14.1336
G01 X15.7766 Y14.1328
G01 X16.3685 Y14.1328
G01 X16.3793 Y14.1333
G01 X16.3899 Y14.1349
G01 X16.4004 Y14.1375
G01 X16.4106 Y14.1412
G01 X16.4203 Y14.1458
G01 X16.4296 Y14.1513
G01 X16.4361 Y14.1561
G01 X16.4443 Y14.1631
G01 X16.8647 Y14.5836
G01 X16.8701 Y14.5896
G01 X16.8750 Y14.5961
G01 X16.8794 Y14.6029
G01 X16.8833 Y14.6100
G01 X16.8867 Y14.6173
G01 X16.8895 Y14.6249
G01 X16.8918 Y14.6327
G01 X16.8935 Y14.6407
G01 X30.3489 Y14.6407
G01 X30.2930 Y14.5788
G01 X30.2429 Y14.5115
G01 X30.2369 Y14.5025
G01 X30.1939 Y14.4305
G01 X30.1579 Y14.3547
G01 X30.1537 Y14.3447
G01 X30.1256 Y14.2656
G01 X30.1039 Y14.1790
G01 X30.0915 Y14.0960
G01 X30.0904 Y14.0853
G01 X30.0864 Y14.0015
G01 X30.0908 Y13.9123
G01 X30.1030 Y13.8293
G01 X30.1051 Y13.8187
G01 X30.1256 Y13.7373
G01 X30.1557 Y13.6533
G01 X30.1914 Y13.5774
G01 X30.1965 Y13.5678
G01 X30.2398 Y13.4959
G01 X30.2930 Y13.4242
G01 X30.3492 Y13.3620
G01 X30.3568 Y13.3543
G01 X30.4191 Y13.2981
G01 X30.4908 Y13.2449
G01 X30.5627 Y13.2016
G01 X30.5722 Y13.1965
G01 X30.6482 Y13.1608
G01 X30.7322 Y13.1307
G01 X30.8189 Y13.1090
G01 X30.9018 Y13.0966
G01 X30.9126 Y13.0955
G01 X30.9964 Y13.0915
G01 X31.0802 Y13.0955
G01 X31.0909 Y13.0966
G01 X31.1739 Y13.1090
G01 X31.2605 Y13.1307
G01 X31.3396 Y13.1588
G01 X31.3495 Y13.1630
G01 X31.4253 Y13.1990
G01 X31.5019 Y13.2449
G01 X31.5694 Y13.2948
G01 X31.5777 Y13.3016
G01 X31.6398 Y13.3580
G01 X31.6998 Y13.4242
G01 X31.7499 Y13.4915
G01 X31.7559 Y13.5005
G01 X31.7989 Y13.5725
G01 X31.8371 Y13.6533
G01 X31.8655 Y13.7322
G01 X31.8686 Y13.7425
G01 X31.8889 Y13.8240
G01 X31.9020 Y13.9123
G01 X31.9062 Y13.9961
G01 X31.9062 Y14.0069
G01 X31.9020 Y14.0907
G01 X31.8889 Y14.1790
G01 X31.8686 Y14.2604
G01 X31.8655 Y14.2708
G01 X31.8371 Y14.3497
G01 X31.7989 Y14.4305
G01 X31.7559 Y14.5025
G01 X31.7499 Y14.5115
G01 X31.6998 Y14.5788
G01 X31.6439 Y14.6407
G01 X42.6141 Y14.6407
G01 X43.7943 Y13.4606
G01 X43.8172 Y13.4401
G01 X43.8376 Y13.4250
G01 X43.8444 Y13.4206
G01 X43.8662 Y13.4077
G01 X43.8891 Y13.3967
G01 X43.8965 Y13.3935
G01 X43.9204 Y13.3850
G01 X43.9475 Y13.3779
G01 X43.9581 Y13.3758
G01 X43.9832 Y13.3722
G01 X44.0139 Y13.3707
G01 X46.5539 Y13.3707
G01 X46.5846 Y13.3722
G01 X46.6150 Y13.3767
G01 X46.6448 Y13.3842
G01 X46.6687 Y13.3926
G01 X46.6763 Y13.3956
G01 X46.6967 Y13.4053
G01 X46.7063 Y13.4104
G01 X46.7279 Y13.4235
G01 X46.7484 Y13.4385
G01 X46.7547 Y13.4436
G01 X46.7754 Y13.4625
G01 X47.4659 Y14.1529
G01 X47.4727 Y14.1484
G01 X47.4798 Y14.1445
G01 X47.4872 Y14.1412
G01 X47.4948 Y14.1384
G01 X47.5026 Y14.1361
G01 X47.5105 Y14.1344
G01 X47.5185 Y14.1333
G01 X47.5266 Y14.1328
G01 X48.1212 Y14.1328
G01 X48.1319 Y14.1336
G01 X48.1426 Y14.1355
G01 X48.1530 Y14.1384
G01 X48.1606 Y14.1412
G01 X48.1703 Y14.1458
G01 X48.1796 Y14.1513
G01 X48.1861 Y14.1561
G01 X48.1943 Y14.1631
G01 X48.6147 Y14.5836
G01 X48.6201 Y14.5896
G01 X48.6250 Y14.5961
G01 X48.6294 Y14.6029
G01 X48.6333 Y14.6100
G01 X48.6367 Y14.6173
G01 X48.6395 Y14.6249
G01 X48.6418 Y14.6327
G01 X48.6435 Y14.6407
G01 X51.3164 Y14.6407
G01 X51.3471 Y14.6422
G01 X51.3722 Y14.6458
G01 X51.3828 Y14.6479
G01 X51.4099 Y14.6550
G01 X51.4338 Y14.6635
G01 X51.4412 Y14.6667
G01 X51.4641 Y14.6777
G01 X51.4859 Y14.6906
G01 X51.4949 Y14.6966
G01 X51.5151 Y14.7118
G01 X51.5379 Y14.7325
G01 X54.3954 Y17.5900
G01 X54.4125 Y17.6087
G01 X54.4194 Y17.6170
G01 X54.4344 Y17.6374
G01 X54.4475 Y17.6591
G01 X54.4526 Y17.6686
G01 X54.4633 Y17.6916
G01 X54.4720 Y17.7154
G01 X54.4744 Y17.7231
G01 X54.4812 Y17.7504
G01 X54.4850 Y17.7754
G01 X54.4861 Y17.7862
G01 X54.4872 Y17.8115
G01 X54.4872 Y25.0201
G01 X54.5372 Y25.0439
G01 X54.5975 Y25.0799
G01 X54.6065 Y25.0859
G01 X54.6607 Y25.1261
G01 X54.6669 Y25.1313
G01 X54.7189 Y25.1786
G01 X54.7661 Y25.2306
G01 X54.7713 Y25.2368
G01 X54.8116 Y25.2910
G01 X54.8176 Y25.3000
G01 X54.8536 Y25.3603
G01 X54.8838 Y25.4237
G01 X54.8879 Y25.4337
G01 X54.9114 Y25.4999
G01 X54.9298 Y25.5732
G01 X54.9409 Y25.6481
G01 X54.9446 Y25.7236
G01 X54.9446 Y27.0444
G01 X54.9409 Y27.1199
G01 X54.9307 Y27.1894
G01 X54.9286 Y27.2000
G01 X54.9129 Y27.2629
G01 X54.9106 Y27.2707
G01 X54.8859 Y27.3393
G01 X54.8536 Y27.4077
G01 X54.8147 Y27.4726
G01 X54.7730 Y27.5291
G01 X54.7661 Y27.5374
G01 X54.7226 Y27.5855
G01 X54.7150 Y27.5931
G01 X54.6628 Y27.6402
G01 X54.6021 Y27.6852
G01 X54.5372 Y27.7241
G01 X54.4688 Y27.7565
G01 X54.3976 Y27.7819
G01 X54.3295 Y27.7991
G01 X54.3189 Y27.8012
G01 X54.2548 Y27.8108
G01 X54.2440 Y27.8118
G01 X54.1739 Y27.8151
G01 X54.0983 Y27.8114
G01 X54.0235 Y27.8003
G01 X53.9502 Y27.7819
G01 X53.8789 Y27.7565
G01 X53.8154 Y27.7265
G01 X53.8059 Y27.7215
G01 X53.7502 Y27.6881
G01 X53.7413 Y27.6821
G01 X53.6849 Y27.6402
G01 X53.6289 Y27.5894
G01 X53.5781 Y27.5333
G01 X53.5362 Y27.4770
G01 X53.5302 Y27.4680
G01 X53.4968 Y27.4124
G01 X53.4917 Y27.4029
G01 X53.4618 Y27.3393
G01 X53.4363 Y27.2681
G01 X53.4180 Y27.1948
G01 X53.4072 Y27.1226
G01 X53.4065 Y27.1146
G01 X53.4032 Y27.0444
G01 X53.4032 Y25.7236
G01 X53.4069 Y25.6481
G01 X53.4170 Y25.5786
G01 X53.4185 Y25.5706
G01 X53.4349 Y25.5051
G01 X53.4380 Y25.4947
G01 X53.4618 Y25.4287
G01 X53.4917 Y25.3651
G01 X53.4968 Y25.3556
G01 X53.5330 Y25.2954
G01 X53.5781 Y25.2347
G01 X53.6289 Y25.1786
G01 X53.6808 Y25.1313
G01 X53.6892 Y25.1245
G01 X53.7413 Y25.0859
G01 X53.7502 Y25.0799
G01 X53.8106 Y25.0439
G01 X53.8606 Y25.0201
G01 X53.8606 Y17.9413
G01 X51.1866 Y15.2673
G01 X48.6435 Y15.2673
G01 X48.6418 Y15.2753
G01 X48.6395 Y15.2831
G01 X48.6367 Y15.2907
G01 X48.6333 Y15.2980
G01 X48.6294 Y15.3051
G01 X48.6250 Y15.3119
G01 X48.6201 Y15.3184
G01 X48.6147 Y15.3244
G01 X48.1963 Y15.7430
G01 X48.1883 Y15.7502
G01 X48.1796 Y15.7567
G01 X48.1727 Y15.7609
G01 X48.1630 Y15.7658
G01 X48.1530 Y15.7696
G01 X48.1426 Y15.7725
G01 X48.1293 Y15.7747
G01 X48.1185 Y15.7752
G01 X47.5293 Y15.7752
G01 X47.5185 Y15.7747
G01 X47.5105 Y15.7736
G01 X47.5026 Y15.7719
G01 X47.4948 Y15.7696
G01 X47.4872 Y15.7668
G01 X47.4798 Y15.7634
G01 X47.4727 Y15.7595
G01 X47.4660 Y15.7551
G01 X47.4595 Y15.7502
G01 X47.4534 Y15.7449
G01 X47.0330 Y15.3244
G01 X47.0260 Y15.3163
G01 X47.0212 Y15.3097
G01 X47.0157 Y15.3004
G01 X47.0111 Y15.2907
G01 X47.0082 Y15.2831
G01 X47.0054 Y15.2727
G01 X47.0035 Y15.2620
G01 X47.0027 Y15.2513
G01 X47.0027 Y14.6567
G01 X47.0032 Y14.6486
G01 X47.0043 Y14.6406
G01 X47.0060 Y14.6327
G01 X47.0082 Y14.6249
G01 X47.0111 Y14.6173
G01 X47.0144 Y14.6100
G01 X47.0183 Y14.6029
G01 X47.0228 Y14.5960
G01 X46.4241 Y13.9973
G01 X44.1437 Y13.9973
G01 X42.9615 Y15.1793
G01 X42.9426 Y15.1962
G01 X42.9179 Y15.2145
G01 X42.8916 Y15.2303
G01 X42.8663 Y15.2424
G01 X42.8400 Y15.2521
G01 X42.8296 Y15.2552
G01 X42.8050 Y15.2613
G01 X42.7799 Y15.2651
G01 X42.7719 Y15.2660
G01 X42.7439 Y15.2673
G01 X16.8935 Y15.2673
G01 X16.8918 Y15.2753
G01 X16.8895 Y15.2831
G01 X16.8867 Y15.2907
G01 X16.8833 Y15.2980
G01 X16.8794 Y15.3051
G01 X16.8750 Y15.3119
G01 X16.8701 Y15.3184
G01 X16.8647 Y15.3244
G01 X16.4463 Y15.7430
G01 X16.4383 Y15.7502
G01 X16.4296 Y15.7567
G01 X16.4203 Y15.7622
G01 X16.4130 Y15.7658
G01 X16.4030 Y15.7696
G01 X16.3926 Y15.7725
G01 X16.3819 Y15.7744
G01 X16.3712 Y15.7752
G01 X15.7766 Y15.7752
G01 X15.7658 Y15.7744
G01 X15.7552 Y15.7725
G01 X15.7474 Y15.7705
G01 X15.7372 Y15.7668
G01 X15.7298 Y15.7634
G01 X15.7204 Y15.7581
G01 X15.7116 Y15.7519
G01 X15.7034 Y15.7449
G01 X15.2830 Y15.3244
G01 X15.2777 Y15.3184
G01 X15.2712 Y15.3097
G01 X15.2657 Y15.3004
G01 X15.2611 Y15.2907
G01 X15.2574 Y15.2805
G01 X15.2554 Y15.2727
G01 X15.2535 Y15.2620
G01 X15.2527 Y15.2513
G01 X15.2527 Y14.6567
G01 X15.2535 Y14.6459
G01 X15.2554 Y14.6353
G01 X15.2582 Y14.6249
G01 X15.2621 Y14.6148
G01 X15.2670 Y14.6052
G01 X15.2728 Y14.5961
G01 X15.2777 Y14.5896
G01 X15.2849 Y14.5816
G00 Z1.2000
G00 X15.2849 Y17.1216
G01 F120.00
G01 Z-0.0800
G01 F240.00
G01 X15.7034 Y16.7031
G01 X15.7116 Y16.6961
G01 X15.7204 Y16.6899
G01 X15.7298 Y16.6845
G01 X15.7397 Y16.6802
G01 X15.7500 Y16.6768
G01 X15.7605 Y16.6744
G01 X15.7712 Y16.6731
G01 X15.7793 Y16.6728
G01 X16.3685 Y16.6728
G01 X16.3793 Y16.6733
G01 X16.3899 Y16.6749
G01 X16.4030 Y16.6784
G01 X16.4130 Y16.6822
G01 X16.4203 Y16.6858
G01 X16.4296 Y16.6913
G01 X16.4383 Y16.6978
G01 X16.4463 Y16.7050
G01 X16.8629 Y17.1216
G01 X16.8701 Y17.1296
G01 X16.8765 Y17.1383
G01 X16.8821 Y17.1476
G01 X16.8867 Y17.1573
G01 X16.8903 Y17.1675
G01 X16.8930 Y17.1779
G01 X16.8945 Y17.1886
G01 X16.8950 Y17.1967
G01 X16.8951 Y17.7886
G01 X16.8945 Y17.7994
G01 X16.8930 Y17.8100
G01 X16.8895 Y17.8231
G01 X16.8856 Y17.8332
G01 X16.8821 Y17.8404
G01 X16.8765 Y17.8497
G01 X16.8701 Y17.8584
G01 X16.8629 Y17.8664
G01 X16.4463 Y18.2830
G01 X16.4383 Y18.2902
G01 X16.4296 Y18.2967
G01 X16.4203 Y18.3022
G01 X16.4106 Y18.3068
G01 X16.4004 Y18.3105
G01 X16.3899 Y18.3131
G01 X16.3793 Y18.3147
G01 X16.3712 Y18.3152
G01 X15.7793 Y18.3152
G01 X15.7685 Y18.3147
G01 X15.7578 Y18.3131
G01 X15.7448 Y18.3096
G01 X15.7347 Y18.3058
G01 X15.7274 Y18.3022
G01 X15.7182 Y18.2967
G01 X15.7095 Y18.2902
G01 X15.7015 Y18.2830
G01 X15.2849 Y17.8664
G01 X15.2777 Y17.8584
G01 X15.2712 Y17.8497
G01 X15.2644 Y17.8380
G01 X15.2601 Y17.8282
G01 X15.2567 Y17.8179
G01 X15.2543 Y17.8074
G01 X15.2530 Y17.7967
G01 X15.2527 Y17.7886
G01 X15.2527 Y17.1967
G01 X15.2535 Y17.1859
G01 X15.2554 Y17.1753
G01 X15.2582 Y17.1649
G01 X15.2621 Y17.1548
G01 X15.2670 Y17.1452
G01 X15.2728 Y17.1361
G01 X15.2777 Y17.1296
G01 X15.2849 Y17.1216
G00 Z1.2000
G00 X12.7449 Y17.1216
G01 F120.00
G01 Z-0.0800
G01 F240.00
G01 X13.1634 Y16.7031
G01 X13.1716 Y16.6961
G01 X13.1804 Y16.6899
G01 X13.1898 Y16.6845
G01 X13.1997 Y16.6802
G01 X13.2100 Y16.6768
G01 X13.2205 Y16.6744
G01 X13.2312 Y16.6731
G01 X13.2393 Y16.6728
G01 X13.8285 Y16.6728
G01 X13.8393 Y16.6733
G01 X13.8499 Y16.6749
G01 X13.8630 Y16.6784
G01 X13.8730 Y16.6822
G01 X13.8803 Y16.6858
G01 X13.8896 Y16.6913
G01 X13.8983 Y16.6978
G01 X13.9063 Y16.7050
G01 X14.3229 Y17.1216
G01 X14.3318 Y17.1317
G01 X14.3380 Y17.1406
G01 X14.3433 Y17.1500
G01 X14.3477 Y17.1598
G01 X14.3511 Y17.1701
G01 X14.3535 Y17.1806
G01 X14.3548 Y17.1913
G01 X14.3551 Y17.1994
G01 X14.3550 Y17.7913
G01 X14.3545 Y17.7994
G01 X14.3535 Y17.8074
G01 X14.3518 Y17.8153
G01 X14.3495 Y17.8231
G01 X14.3467 Y17.8307
G01 X14.3433 Y17.8380
G01 X14.3394 Y17.8451
G01 X14.3350 Y17.8520
G01 X15.2512 Y18.7682
G01 X16.5791 Y18.7682
G01 X18.0768 Y17.2706
G01 X18.0976 Y17.2518
G01 X18.1223 Y17.2335
G01 X18.1487 Y17.2177
G01 X18.1716 Y17.2067
G01 X18.1790 Y17.2035
G01 X18.2003 Y17.1959
G01 X18.2106 Y17.1927
G01 X18.2353 Y17.1867
G01 X18.2603 Y17.1829
G01 X18.2684 Y17.1820
G01 X18.2964 Y17.1807
G01 X44.4643 Y17.1807
G01 X44.4660 Y17.1727
G01 X44.4682 Y17.1649
G01 X44.4711 Y17.1573
G01 X44.4744 Y17.1500
G01 X44.4783 Y17.1429
G01 X44.4828 Y17.1361
G01 X44.4877 Y17.1296
G01 X44.4930 Y17.1236
G01 X44.9115 Y16.7050
G01 X44.9195 Y16.6978
G01 X44.9282 Y16.6913
G01 X44.9351 Y16.6871
G01 X44.9447 Y16.6822
G01 X44.9548 Y16.6784
G01 X44.9652 Y16.6755
G01 X44.9785 Y16.6733
G01 X44.9893 Y16.6728
G01 X45.5785 Y16.6728
G01 X45.5919 Y16.6736
G01 X45.6052 Y16.6761
G01 X45.6181 Y16.6802
G01 X45.6255 Y16.6834
G01 X45.6327 Y16.6871
G01 X45.6440 Y16.6944
G01 X45.6503 Y16.6995
G01 X45.6563 Y16.7050
G01 X46.0747 Y17.1236
G01 X46.0818 Y17.1317
G01 X46.0865 Y17.1383
G01 X46.0921 Y17.1476
G01 X46.0967 Y17.1573
G01 X46.1003 Y17.1675
G01 X46.1030 Y17.1779
G01 X46.1045 Y17.1886
G01 X46.1050 Y17.1967
G01 X46.1050 Y17.7913
G01 X46.1045 Y17.7994
G01 X46.1035 Y17.8074
G01 X46.1018 Y17.8153
G01 X46.0995 Y17.8231
G01 X46.0967 Y17.8307
G01 X46.0933 Y17.8380
G01 X46.0865 Y17.8497
G01 X46.0801 Y17.8584
G01 X46.0729 Y17.8664
G01 X45.6563 Y18.2830
G01 X45.6483 Y18.2902
G01 X45.6396 Y18.2967
G01 X45.6303 Y18.3022
G01 X45.6206 Y18.3068
G01 X45.6130 Y18.3096
G01 X45.6026 Y18.3125
G01 X45.5919 Y18.3144
G01 X45.5812 Y18.3152
G01 X44.9866 Y18.3152
G01 X44.9758 Y18.3144
G01 X44.9678 Y18.3131
G01 X44.9574 Y18.3105
G01 X44.9472 Y18.3068
G01 X44.9374 Y18.3022
G01 X44.9282 Y18.2967
G01 X44.9216 Y18.2919
G01 X44.9134 Y18.2849
G01 X44.4930 Y17.8644
G01 X44.4877 Y17.8584
G01 X44.4828 Y17.8519
G01 X44.4783 Y17.8451
G01 X44.4744 Y17.8380
G01 X44.4711 Y17.8307
G01 X44.4682 Y17.8231
G01 X44.4660 Y17.8153
G01 X44.4643 Y17.8073
G01 X44.3272 Y17.8073
G01 X44.3272 Y18.6342
G01 X46.6837 Y20.9907
G01 X49.0966 Y20.9907
G01 X49.1246 Y20.9922
G01 X49.1497 Y20.9958
G01 X49.1603 Y20.9979
G01 X49.1848 Y21.0042
G01 X49.2087 Y21.0126
G01 X49.2187 Y21.0167
G01 X49.2416 Y21.0277
G01 X49.2679 Y21.0435
G01 X49.2926 Y21.0618
G01 X49.3154 Y21.0825
G01 X51.8573 Y23.6244
G01 X51.8761 Y23.6452
G01 X51.8944 Y23.6699
G01 X51.9102 Y23.6963
G01 X51.9211 Y23.7192
G01 X51.9253 Y23.7291
G01 X51.9329 Y23.7505
G01 X51.9351 Y23.7583
G01 X51.9412 Y23.7829
G01 X51.9450 Y23.8079
G01 X51.9459 Y23.8160
G01 X51.9472 Y23.8440
G01 X51.9472 Y25.0201
G01 X51.9972 Y25.0439
G01 X52.0575 Y25.0799
G01 X52.0665 Y25.0859
G01 X52.1228 Y25.1278
G01 X52.1750 Y25.1749
G01 X52.1826 Y25.1825
G01 X52.2297 Y25.2347
G01 X52.2716 Y25.2910
G01 X52.2776 Y25.3000
G01 X52.3136 Y25.3603
G01 X52.3438 Y25.4237
G01 X52.3479 Y25.4337
G01 X52.3697 Y25.4947
G01 X52.3729 Y25.5051
G01 X52.3898 Y25.5732
G01 X52.4002 Y25.6427
G01 X52.4013 Y25.6534
G01 X52.4046 Y25.7236
G01 X52.4046 Y27.0471
G01 X52.4013 Y27.1146
G01 X52.4002 Y27.1253
G01 X52.3898 Y27.1948
G01 X52.3729 Y27.2629
G01 X52.3697 Y27.2733
G01 X52.3479 Y27.3343
G01 X52.3438 Y27.3443
G01 X52.3136 Y27.4077
G01 X52.2747 Y27.4726
G01 X52.2297 Y27.5333
G01 X52.1826 Y27.5855
G01 X52.1750 Y27.5931
G01 X52.1269 Y27.6367
G01 X52.1186 Y27.6435
G01 X52.0621 Y27.6852
G01 X51.9972 Y27.7241
G01 X51.9288 Y27.7565
G01 X51.8627 Y27.7802
G01 X51.8524 Y27.7834
G01 X51.7895 Y27.7991
G01 X51.7789 Y27.8012
G01 X51.7094 Y27.8114
G01 X51.6339 Y27.8151
G01 X51.5583 Y27.8114
G01 X51.4888 Y27.8012
G01 X51.4783 Y27.7991
G01 X51.4102 Y27.7819
G01 X51.3389 Y27.7565
G01 X51.2754 Y27.7265
G01 X51.2659 Y27.7215
G01 X51.2102 Y27.6881
G01 X51.2013 Y27.6821
G01 X51.1449 Y27.6402
G01 X51.0889 Y27.5894
G01 X51.0381 Y27.5333
G01 X50.9962 Y27.4770
G01 X50.9902 Y27.4680
G01 X50.9568 Y27.4124
G01 X50.9517 Y27.4029
G01 X50.9218 Y27.3393
G01 X50.8972 Y27.2707
G01 X50.8949 Y27.2629
G01 X50.8791 Y27.2000
G01 X50.8770 Y27.1894
G01 X50.8669 Y27.1199
G01 X50.8632 Y27.0471
G01 X50.8632 Y25.7236
G01 X50.8665 Y25.6534
G01 X50.8672 Y25.6454
G01 X50.8770 Y25.5786
G01 X50.8791 Y25.5680
G01 X50.8963 Y25.4999
G01 X50.9199 Y25.4337
G01 X50.9240 Y25.4237
G01 X50.9542 Y25.3603
G01 X50.9902 Y25.3000
G01 X50.9962 Y25.2910
G01 X51.0381 Y25.2347
G01 X51.0852 Y25.1825
G01 X51.0928 Y25.1749
G01 X51.1449 Y25.1278
G01 X51.2013 Y25.0859
G01 X51.2102 Y25.0799
G01 X51.2706 Y25.0439
G01 X51.3206 Y25.0201
G01 X51.3206 Y23.9738
G01 X48.9641 Y21.6173
G01 X46.5512 Y21.6173
G01 X46.5232 Y21.6158
G01 X46.4928 Y21.6113
G01 X46.4629 Y21.6038
G01 X46.4390 Y21.5954
G01 X46.4291 Y21.5913
G01 X46.4086 Y21.5815
G01 X46.4015 Y21.5776
G01 X46.3798 Y21.5645
G01 X46.3551 Y21.5462
G01 X46.3323 Y21.5255
G01 X43.7923 Y18.9855
G01 X43.7717 Y18.9628
G01 X43.7549 Y18.9403
G01 X43.7402 Y18.9164
G01 X43.7351 Y18.9069
G01 X43.7244 Y18.8839
G01 X43.7149 Y18.8575
G01 X43.7078 Y18.8304
G01 X43.7057 Y18.8198
G01 X43.7021 Y18.7947
G01 X43.7007 Y18.7694
G01 X43.7006 Y17.8073
G01 X27.8172 Y17.8073
G01 X27.8172 Y25.0201
G01 X27.8672 Y25.0439
G01 X27.9275 Y25.0799
G01 X27.9365 Y25.0859
G01 X27.9886 Y25.1245
G01 X27.9969 Y25.1313
G01 X28.0489 Y25.1786
G01 X28.0997 Y25.2347
G01 X28.1447 Y25.2954
G01 X28.1809 Y25.3556
G01 X28.1860 Y25.3651
G01 X28.2159 Y25.4287
G01 X28.2397 Y25.4947
G01 X28.2429 Y25.5051
G01 X28.2592 Y25.5706
G01 X28.2607 Y25.5786
G01 X28.2709 Y25.6481
G01 X28.2746 Y25.7236
G01 X28.2746 Y27.0471
G01 X28.2709 Y27.1199
G01 X28.2598 Y27.1948
G01 X28.2414 Y27.2681
G01 X28.2159 Y27.3393
G01 X28.1836 Y27.4077
G01 X28.1447 Y27.4726
G01 X28.0997 Y27.5333
G01 X28.0489 Y27.5894
G01 X27.9928 Y27.6402
G01 X27.9321 Y27.6852
G01 X27.8672 Y27.7241
G01 X27.7988 Y27.7565
G01 X27.7276 Y27.7819
G01 X27.6542 Y27.8003
G01 X27.5794 Y27.8114
G01 X27.5093 Y27.8150
G01 X27.5012 Y27.8151
G01 X27.4283 Y27.8114
G01 X27.3535 Y27.8003
G01 X27.2802 Y27.7819
G01 X27.2089 Y27.7565
G01 X27.1406 Y27.7241
G01 X27.0757 Y27.6852
G01 X27.0149 Y27.6402
G01 X26.9589 Y27.5894
G01 X26.9081 Y27.5333
G01 X26.8630 Y27.4726
G01 X26.8242 Y27.4077
G01 X26.7918 Y27.3393
G01 X26.7663 Y27.2681
G01 X26.7480 Y27.1948
G01 X26.7369 Y27.1199
G01 X26.7332 Y27.0471
G01 X26.7332 Y25.7236
G01 X26.7369 Y25.6481
G01 X26.7470 Y25.5786
G01 X26.7485 Y25.5706
G01 X26.7649 Y25.5051
G01 X26.7680 Y25.4947
G01 X26.7918 Y25.4287
G01 X26.8217 Y25.3651
G01 X26.8268 Y25.3556
G01 X26.8630 Y25.2954
G01 X26.9081 Y25.2347
G01 X26.9589 Y25.1786
G01 X27.0108 Y25.1313
G01 X27.0192 Y25.1245
G01 X27.0713 Y25.0859
G01 X27.0802 Y25.0799
G01 X27.1406 Y25.0439
G01 X27.1906 Y25.0201
G01 X27.1906 Y17.8073
G01 X18.4262 Y17.8073
G01 X16.9304 Y19.3030
G01 X16.9076 Y19.3237
G01 X16.8874 Y19.3389
G01 X16.8807 Y19.3435
G01 X16.8613 Y19.3551
G01 X16.8517 Y19.3602
G01 X16.8313 Y19.3699
G01 X16.8237 Y19.3729
G01 X16.7998 Y19.3813
G01 X16.7753 Y19.3876
G01 X16.7673 Y19.3893
G01 X16.7423 Y19.3930
G01 X16.7116 Y19.3948
G01 X15.1160 Y19.3947
G01 X15.0907 Y19.3933
G01 X15.0603 Y19.3888
G01 X15.0304 Y19.3813
G01 X15.0040 Y19.3719
G01 X14.9966 Y19.3688
G01 X14.9737 Y19.3578
G01 X14.9519 Y19.3449
G01 X14.9429 Y19.3389
G01 X14.9247 Y19.3254
G01 X14.9185 Y19.3202
G01 X14.8998 Y19.3030
G01 X13.8919 Y18.2951
G01 X13.8850 Y18.2995
G01 X13.8779 Y18.3034
G01 X13.8706 Y18.3068
G01 X13.8630 Y18.3096
G01 X13.8552 Y18.3119
G01 X13.8473 Y18.3136
G01 X13.8393 Y18.3147
G01 X13.8312 Y18.3152
G01 X13.2366 Y18.3152
G01 X13.2258 Y18.3144
G01 X13.2178 Y18.3131
G01 X13.2074 Y18.3105
G01 X13.1972 Y18.3068
G01 X13.1874 Y18.3022
G01 X13.1782 Y18.2967
G01 X13.1695 Y18.2902
G01 X13.1634 Y18.2849
G01 X12.7430 Y17.8644
G01 X12.7360 Y17.8563
G01 X12.7298 Y17.8474
G01 X12.7244 Y17.8380
G01 X12.7191 Y17.8256
G01 X12.7160 Y17.8153
G01 X12.7143 Y17.8074
G01 X12.7130 Y17.7967
G01 X12.7127 Y17.7886
G01 X12.7127 Y17.1967
G01 X12.7135 Y17.1859
G01 X12.7154 Y17.1753
G01 X12.7182 Y17.1649
G01 X12.7221 Y17.1548
G01 X12.7270 Y17.1452
G01 X12.7328 Y17.1361
G01 X12.7377 Y17.1296
G01 X12.7449 Y17.1216
G00 Z1.2000
G00 X12.7449 Y12.0416
G01 F120.00
G01 Z-0.0800
G01 F240.00
G01 X13.1634 Y11.6231
G01 X13.1716 Y11.6161
G01 X13.1804 Y11.6099
G01 X13.1898 Y11.6045
G01 X13.1997 Y11.6002
G01 X13.2100 Y11.5968
G01 X13.2205 Y11.5944
G01 X13.2285 Y11.5933
G01 X13.2393 Y11.5928
G01 X13.8312 Y11.5928
G01 X13.8393 Y11.5933
G01 X13.8473 Y11.5944
G01 X13.8552 Y11.5961
G01 X13.8630 Y11.5984
G01 X13.8706 Y11.6012
G01 X13.8779 Y11.6045
G01 X13.8850 Y11.6084
G01 X13.8919 Y11.6129
G01 X14.5823 Y10.9225
G01 X14.6031 Y10.9036
G01 X14.6254 Y10.8866
G01 X14.6344 Y10.8806
G01 X14.6562 Y10.8677
G01 X14.6840 Y10.8545
G01 X14.7129 Y10.8442
G01 X14.7375 Y10.8379
G01 X14.7481 Y10.8358
G01 X14.7705 Y10.8325
G01 X14.7786 Y10.8318
G01 X14.8039 Y10.8307
G01 X32.5866 Y10.8307
G01 X32.6146 Y10.8322
G01 X32.6450 Y10.8367
G01 X32.6748 Y10.8442
G01 X32.7038 Y10.8545
G01 X32.7316 Y10.8677
G01 X32.7579 Y10.8835
G01 X32.7826 Y10.9018
G01 X32.8035 Y10.9206
G01 X35.2537 Y13.3707
G01 X42.2966 Y13.3707
G01 X43.4748 Y12.1925
G01 X43.4976 Y12.1718
G01 X43.5223 Y12.1535
G01 X43.5440 Y12.1404
G01 X43.5535 Y12.1353
G01 X43.5765 Y12.1245
G01 X43.6003 Y12.1159
G01 X43.6106 Y12.1127
G01 X43.6353 Y12.1067
G01 X43.6603 Y12.1029
G01 X43.6711 Y12.1018
G01 X43.6964 Y12.1007
G01 X44.4643 Y12.1007
G01 X44.4660 Y12.0927
G01 X44.4682 Y12.0849
G01 X44.4711 Y12.0773
G01 X44.4744 Y12.0700
G01 X44.4783 Y12.0629
G01 X44.4828 Y12.0561
G01 X44.4877 Y12.0496
G01 X44.4930 Y12.0436
G01 X44.9115 Y11.6250
G01 X44.9195 Y11.6178
G01 X44.9260 Y11.6129
G01 X44.9351 Y11.6071
G01 X44.9447 Y11.6022
G01 X44.9522 Y11.5992
G01 X44.9626 Y11.5961
G01 X44.9732 Y11.5940
G01 X44.9839 Y11.5929
G01 X45.5839 Y11.5929
G01 X45.5946 Y11.5940
G01 X45.6026 Y11.5955
G01 X45.6130 Y11.5984
G01 X45.6230 Y11.6022
G01 X45.6303 Y11.6058
G01 X45.6396 Y11.6113
G01 X45.6483 Y11.6178
G01 X45.6563 Y11.6250
G01 X46.0747 Y12.0436
G01 X46.0818 Y12.0517
G01 X46.0865 Y12.0583
G01 X46.0921 Y12.0676
G01 X46.0967 Y12.0773
G01 X46.0995 Y12.0849
G01 X46.1024 Y12.0953
G01 X46.1043 Y12.1059
G01 X46.1050 Y12.1167
G01 X46.1050 Y12.7113
G01 X46.1045 Y12.7194
G01 X46.1030 Y12.7300
G01 X46.1011 Y12.7379
G01 X46.0977 Y12.7482
G01 X46.0933 Y12.7580
G01 X46.0880 Y12.7674
G01 X46.0834 Y12.7741
G01 X46.0766 Y12.7825
G01 X45.6563 Y13.2030
G01 X45.6483 Y13.2102
G01 X45.6396 Y13.2167
G01 X45.6303 Y13.2222
G01 X45.6206 Y13.2268
G01 X45.6104 Y13.2305
G01 X45.5999 Y13.2331
G01 X45.5893 Y13.2347
G01 X45.5785 Y13.2352
G01 X44.9866 Y13.2352
G01 X44.9758 Y13.2344
G01 X44.9652 Y13.2325
G01 X44.9548 Y13.2296
G01 X44.9447 Y13.2258
G01 X44.9351 Y13.2209
G01 X44.9282 Y13.2167
G01 X44.9195 Y13.2102
G01 X44.9115 Y13.2030
G01 X44.4930 Y12.7844
G01 X44.4877 Y12.7784
G01 X44.4828 Y12.7719
G01 X44.4783 Y12.7651
G01 X44.4744 Y12.7580
G01 X44.4711 Y12.7507
G01 X44.4682 Y12.7431
G01 X44.4660 Y12.7353
G01 X44.4643 Y12.7273
G01 X43.8262 Y12.7273
G01 X42.6440 Y13.9093
G01 X42.6251 Y13.9262
G01 X42.6004 Y13.9445
G01 X42.5741 Y13.9603
G01 X42.5512 Y13.9713
G01 X42.5412 Y13.9754
G01 X42.5147 Y13.9846
G01 X42.4875 Y13.9913
G01 X42.4598 Y13.9955
G01 X42.4517 Y13.9962
G01 X42.4264 Y13.9973
G01 X35.1212 Y13.9973
G01 X35.0932 Y13.9958
G01 X35.0628 Y13.9913
G01 X35.0329 Y13.9838
G01 X35.0040 Y13.9734
G01 X34.9762 Y13.9603
G01 X34.9498 Y13.9445
G01 X34.9251 Y13.9262
G01 X34.9043 Y13.9074
G01 X32.4541 Y11.4573
G01 X14.9337 Y11.4573
G01 X14.3350 Y12.0560
G01 X14.3394 Y12.0629
G01 X14.3433 Y12.0700
G01 X14.3467 Y12.0773
G01 X14.3495 Y12.0849
G01 X14.3518 Y12.0927
G01 X14.3535 Y12.1006
G01 X14.3545 Y12.1086
G01 X14.3550 Y12.1167
G01 X14.3550 Y12.7113
G01 X14.3543 Y12.7220
G01 X14.3524 Y12.7327
G01 X14.3503 Y12.7405
G01 X14.3467 Y12.7507
G01 X14.3421 Y12.7604
G01 X14.3365 Y12.7697
G01 X14.3301 Y12.7784
G01 X14.3247 Y12.7844
G01 X13.9043 Y13.2049
G01 X13.8983 Y13.2102
G01 X13.8896 Y13.2167
G01 X13.8803 Y13.2222
G01 X13.8706 Y13.2268
G01 X13.8604 Y13.2305
G01 X13.8526 Y13.2325
G01 X13.8419 Y13.2344
G01 X13.8312 Y13.2352
G01 X13.2366 Y13.2352
G01 X13.2258 Y13.2344
G01 X13.2152 Y13.2325
G01 X13.2074 Y13.2305
G01 X13.1972 Y13.2268
G01 X13.1898 Y13.2234
G01 X13.1804 Y13.2181
G01 X13.1716 Y13.2119
G01 X13.1634 Y13.2049
G01 X12.7412 Y12.7825
G01 X12.7343 Y12.7741
G01 X12.7298 Y12.7674
G01 X12.7257 Y12.7604
G01 X12.7211 Y12.7507
G01 X12.7174 Y12.7405
G01 X12.7154 Y12.7327
G01 X12.7139 Y12.7247
G01 X12.7128 Y12.7140
G01 X12.7127 Y12.1194
G01 X12.7132 Y12.1086
G01 X12.7148 Y12.0979
G01 X12.7174 Y12.0875
G01 X12.7211 Y12.0773
G01 X12.7257 Y12.0676
G01 X12.7312 Y12.0583
G01 X12.7377 Y12.0496
G01 X12.7449 Y12.0416
G00 Z1.2000
G00 X13.6733 Y8.7448
G01 F120.00
G01 Z-0.0800
G01 F240.00
G01 X13.3947 Y8.7448
G01 X13.4119 Y8.7218
G01 X13.4237 Y8.7050
G01 X13.4293 Y8.6964
G01 X13.4450 Y8.6706
G01 X13.4501 Y8.6617
G01 X13.4598 Y8.6436
G01 X13.4771 Y8.6071
G01 X13.4850 Y8.5881
G01 X13.4886 Y8.5785
G01 X13.4986 Y8.5500
G01 X13.5017 Y8.5402
G01 X13.5072 Y8.5204
G01 X13.5145 Y8.4911
G01 X13.5197 Y8.4632
G01 X13.5483 Y8.4632
G01 X13.5535 Y8.4910
G01 X13.5608 Y8.5203
G01 X13.5662 Y8.5401
G01 X13.5794 Y8.5783
G01 X13.5868 Y8.5975
G01 X13.5908 Y8.6069
G01 X13.6081 Y8.6435
G01 X13.6128 Y8.6526
G01 X13.6230 Y8.6704
G01 X13.6442 Y8.7049
G01 X13.6560 Y8.7216
G01 X13.6733 Y8.7448
G00 Z1.2000
G00 X26.1408 Y6.1025
G01 F120.00
G01 Z-0.0800
G01 F240.00
G01 X26.1408 Y6.0255
G01 X26.1954 Y5.9709
G01 X29.0629 Y5.9709
G01 X29.0936 Y5.9694
G01 X29.1187 Y5.9658
G01 X29.1293 Y5.9637
G01 X29.1539 Y5.9574
G01 X29.1778 Y5.9490
G01 X29.1878 Y5.9449
G01 X29.2106 Y5.9339
G01 X29.2370 Y5.9181
G01 X29.2617 Y5.8998
G01 X29.2845 Y5.8791
G01 X29.3016 Y5.8604
G01 X29.3068 Y5.8542
G01 X29.3219 Y5.8339
G01 X29.3366 Y5.8100
G01 X29.3405 Y5.8029
G01 X29.3502 Y5.7824
G01 X29.3543 Y5.7724
G01 X29.3628 Y5.7485
G01 X29.3702 Y5.7187
G01 X29.3747 Y5.6883
G01 X29.3762 Y5.6576
G01 X29.3747 Y5.6268
G01 X29.3702 Y5.5964
G01 X29.3627 Y5.5666
G01 X29.3534 Y5.5402
G01 X29.3502 Y5.5327
G01 X29.3392 Y5.5099
G01 X29.3234 Y5.4835
G01 X29.3051 Y5.4588
G01 X29.2863 Y5.4380
G01 X28.6808 Y4.8326
G01 X28.6808 Y4.7555
G01 X28.7354 Y4.7009
G01 X28.8125 Y4.7009
G01 X30.1370 Y6.0254
G01 X30.1370 Y6.1026
G01 X28.8125 Y7.4271
G01 X28.7354 Y7.4271
G01 X28.6808 Y7.3725
G01 X28.6808 Y7.2954
G01 X29.2863 Y6.6900
G01 X29.3068 Y6.6671
G01 X29.3219 Y6.6467
G01 X29.3263 Y6.6399
G01 X29.3392 Y6.6181
G01 X29.3502 Y6.5953
G01 X29.3534 Y6.5878
G01 X29.3619 Y6.5640
G01 X29.3642 Y6.5562
G01 X29.3702 Y6.5316
G01 X29.3741 Y6.5065
G01 X29.3750 Y6.4985
G01 X29.3761 Y6.4758
G01 X29.3761 Y6.4650
G01 X29.3747 Y6.4397
G01 X29.3702 Y6.4093
G01 X29.3628 Y6.3795
G01 X29.3524 Y6.3505
G01 X29.3393 Y6.3227
G01 X29.3234 Y6.2964
G01 X29.3051 Y6.2717
G01 X29.2882 Y6.2528
G01 X29.2826 Y6.2470
G01 X29.2658 Y6.2318
G01 X29.2574 Y6.2249
G01 X29.2370 Y6.2099
G01 X29.2153 Y6.1968
G01 X29.2082 Y6.1929
G01 X29.1853 Y6.1820
G01 X29.1778 Y6.1790
G01 X29.1539 Y6.1706
G01 X29.1293 Y6.1643
G01 X29.1187 Y6.1622
G01 X29.0936 Y6.1586
G01 X29.0629 Y6.1571
G01 X26.1954 Y6.1571
G01 X26.1408 Y6.1025
G00 Z1.2000
G00 X29.2933 Y6.0640
G01 F120.00
G01 Z-0.0800
G01 F240.00
G01 X29.3226 Y6.0461
G01 X29.3492 Y6.0268
G01 X29.3644 Y6.0146
G01 X29.3934 Y5.9880
G01 X29.4200 Y5.9590
G01 X29.4322 Y5.9438
G01 X29.4515 Y5.9172
G01 X29.4719 Y5.8835
G01 X29.4781 Y5.8721
G01 X29.4894 Y5.8482
G01 X29.4971 Y5.8304
G01 X29.5101 Y5.7932
G01 X29.5199 Y5.7551
G01 X29.5235 Y5.7359
G01 X29.5273 Y5.7098
G01 X29.5285 Y5.6969
G01 X29.5302 Y5.6640
G01 X29.5302 Y5.6511
G01 X29.5295 Y5.6356
G01 X29.9578 Y6.0640
G01 X29.5295 Y6.4923
G01 X29.5302 Y6.4769
G01 X29.5302 Y6.4640
G01 X29.5285 Y6.4311
G01 X29.5264 Y6.4118
G01 X29.5224 Y6.3856
G01 X29.5199 Y6.3729
G01 X29.5101 Y6.3348
G01 X29.4971 Y6.2976
G01 X29.4921 Y6.2857
G01 X29.4809 Y6.2617
G01 X29.4719 Y6.2445
G01 X29.4515 Y6.2108
G01 X29.4322 Y6.1842
G01 X29.4200 Y6.1690
G01 X29.3934 Y6.1400
G01 X29.3644 Y6.1134
G01 X29.3492 Y6.1012
G01 X29.3226 Y6.0819
G01 X29.2933 Y6.0640
G00 Z1.2000
G00 X29.5327 Y6.0640
G01 F120.00
G01 Z-0.0800
G01 F240.00
G01 X29.5496 Y6.0437
G01 X29.5677 Y6.0195
G01 X29.5796 Y6.0027
G01 X29.5851 Y5.9941
G01 X29.6008 Y5.9683
G01 X29.6109 Y5.9504
G01 X29.6162 Y5.9402
G01 X29.7400 Y6.0640
G01 X29.6162 Y6.1878
G01 X29.6109 Y6.1776
G01 X29.6008 Y6.1597
G01 X29.5851 Y6.1339
G01 X29.5796 Y6.1253
G01 X29.5677 Y6.1085
G01 X29.5496 Y6.0843
G01 X29.5327 Y6.0640
G00 Z1.2000
G00 X38.0239 Y6.0164
G01 F120.00
G01 Z-0.0800
G01 F240.00
G01 X38.0244 Y6.0272
G01 X38.0255 Y6.0352
G01 X38.0272 Y6.0431
G01 X38.0295 Y6.0509
G01 X38.0323 Y6.0585
G01 X38.0369 Y6.0682
G01 X38.0425 Y6.0775
G01 X38.0472 Y6.0840
G01 X38.0542 Y6.0922
G01 X38.0600 Y6.0979
G01 X38.0684 Y6.1047
G01 X38.0751 Y6.1093
G01 X38.0845 Y6.1146
G01 X38.0918 Y6.1180
G01 X38.0994 Y6.1208
G01 X38.1072 Y6.1231
G01 X38.1204 Y6.1255
G01 X38.1339 Y6.1264
G01 X38.5990 Y6.1264
G01 X38.5990 Y6.1604
G01 X38.1152 Y6.1604
G01 X38.0786 Y6.1506
G01 X38.0458 Y6.1316
G01 X38.0189 Y6.1047
G01 X38.0000 Y6.0719
G01 X37.9901 Y6.0354
G01 X37.9901 Y5.9016
G01 X38.0239 Y5.9016
G01 X38.0239 Y6.0164
G00 Z1.2000
G00 X38.1339 Y5.0065
G01 F120.00
G01 Z-0.0800
G01 F240.00
G01 X38.1204 Y5.0073
G01 X38.1072 Y5.0097
G01 X38.0943 Y5.0138
G01 X38.0821 Y5.0194
G01 X38.0706 Y5.0265
G01 X38.0600 Y5.0349
G01 X38.0542 Y5.0406
G01 X38.0489 Y5.0467
G01 X38.0410 Y5.0576
G01 X38.0345 Y5.0694
G01 X38.0303 Y5.0794
G01 X38.0266 Y5.0924
G01 X38.0244 Y5.1057
G01 X38.0239 Y5.1165
G01 X38.0239 Y5.2315
G01 X37.9901 Y5.2315
G01 X37.9901 Y5.0977
G01 X38.0000 Y5.0610
G01 X38.0190 Y5.0280
G01 X38.0458 Y5.0012
G01 X38.0783 Y4.9824
G01 X38.1149 Y4.9727
G01 X38.5990 Y4.9727
G01 X38.5990 Y5.0064
G01 X38.1339 Y5.0065
G00 Z1.2000
G00 X39.2690 Y5.0065
G01 F120.00
G01 Z-0.0800
G01 F240.00
G01 X39.2690 Y4.9727
G01 X39.7532 Y4.9727
G01 X39.7897 Y4.9824
G01 X39.8222 Y5.0012
G01 X39.8490 Y5.0280
G01 X39.8680 Y5.0610
G01 X39.8779 Y5.0977
G01 X39.8779 Y5.2315
G01 X39.8439 Y5.2315
G01 X39.8439 Y5.1165
G01 X39.8436 Y5.1084
G01 X39.8422 Y5.0976
G01 X39.8399 Y5.0871
G01 X39.8365 Y5.0769
G01 X39.8321 Y5.0670
G01 X39.8268 Y5.0576
G01 X39.8206 Y5.0488
G01 X39.8135 Y5.0406
G01 X39.8057 Y5.0332
G01 X39.7972 Y5.0265
G01 X39.7881 Y5.0207
G01 X39.7809 Y5.0170
G01 X39.7709 Y5.0129
G01 X39.7632 Y5.0104
G01 X39.7527 Y5.0081
G01 X39.7446 Y5.0070
G01 X39.7366 Y5.0065
G01 X39.2690 Y5.0065
G00 Z1.2000
G00 X39.7339 Y6.1264
G01 F120.00
G01 Z-0.0800
G01 F240.00
G01 X39.7473 Y6.1255
G01 X39.7606 Y6.1231
G01 X39.7734 Y6.1190
G01 X39.7857 Y6.1134
G01 X39.7972 Y6.1063
G01 X39.8077 Y6.0979
G01 X39.8135 Y6.0922
G01 X39.8189 Y6.0862
G01 X39.8268 Y6.0752
G01 X39.8333 Y6.0634
G01 X39.8383 Y6.0509
G01 X39.8412 Y6.0405
G01 X39.8433 Y6.0272
G01 X39.8439 Y6.0164
G01 X39.8439 Y5.9016
G01 X39.8779 Y5.9016
G01 X39.8779 Y6.0354
G01 X39.8681 Y6.0719
G01 X39.8491 Y6.1047
G01 X39.8222 Y6.1316
G01 X39.7894 Y6.1506
G01 X39.7528 Y6.1604
G01 X39.2690 Y6.1604
G01 X39.2690 Y6.1264
G01 X39.7339 Y6.1264
G00 Z1.2000
G00 X40.0496 Y9.2527
G01 F120.00
G01 Z-0.0800
G01 F240.00
G01 X39.9823 Y9.2527
G01 X39.9910 Y9.2461
G01 X40.0069 Y9.2331
G01 X40.0238 Y9.2176
G01 X40.0496 Y9.2527
G00 Z1.2000
G00 X39.7098 Y10.5227
G01 F120.00
G01 Z-0.0800
G01 F240.00
G01 X39.6985 Y10.5136
G01 X39.6741 Y10.4953
G01 X44.3083 Y10.4953
G01 X44.3357 Y10.5227
G01 X39.7098 Y10.5227
G00 Z1.2000
G00 X39.6509 Y10.6767
G01 F120.00
G01 Z-0.0800
G01 F240.00
G01 X39.6187 Y10.6475
G01 X39.6038 Y10.6350
G01 X39.5356 Y10.5843
G01 X39.5196 Y10.5733
G01 X39.4467 Y10.5295
G01 X39.4354 Y10.5232
G01 X39.4239 Y10.5173
G01 X39.3529 Y10.4838
G01 X39.3350 Y10.4761
G01 X39.2550 Y10.4474
G01 X39.2427 Y10.4433
G01 X39.2302 Y10.4399
G01 X39.1541 Y10.4208
G01 X39.1415 Y10.4180
G01 X39.1287 Y10.4158
G01 X39.0510 Y10.4042
G01 X39.0382 Y10.4026
G01 X39.0252 Y10.4017
G01 X38.9468 Y10.3978
G01 X38.9274 Y10.3976
G01 X38.8425 Y10.4017
G01 X38.8296 Y10.4026
G01 X38.8167 Y10.4042
G01 X38.7391 Y10.4158
G01 X38.7263 Y10.4180
G01 X38.7137 Y10.4208
G01 X38.6375 Y10.4399
G01 X38.6250 Y10.4433
G01 X38.6127 Y10.4474
G01 X38.5388 Y10.4739
G01 X38.5267 Y10.4785
G01 X38.5149 Y10.4838
G01 X38.4439 Y10.5173
G01 X38.4323 Y10.5232
G01 X38.4211 Y10.5295
G01 X38.3537 Y10.5699
G01 X38.3428 Y10.5768
G01 X38.3322 Y10.5843
G01 X38.2691 Y10.6311
G01 X38.2589 Y10.6390
G01 X38.2491 Y10.6475
G01 X38.1909 Y10.7002
G01 X38.1770 Y10.7138
G01 X38.1199 Y10.7767
G01 X38.1114 Y10.7865
G01 X38.1034 Y10.7967
G01 X38.0567 Y10.8598
G01 X38.0492 Y10.8704
G01 X38.0423 Y10.8813
G01 X38.0019 Y10.9487
G01 X37.9955 Y10.9599
G01 X37.9897 Y10.9715
G01 X37.9562 Y11.0425
G01 X37.9509 Y11.0543
G01 X37.9462 Y11.0664
G01 X37.9198 Y11.1403
G01 X37.9157 Y11.1526
G01 X37.9123 Y11.1651
G01 X37.8932 Y11.2413
G01 X37.8904 Y11.2539
G01 X37.8881 Y11.2667
G01 X37.8766 Y11.3443
G01 X37.8750 Y11.3572
G01 X37.8741 Y11.3701
G01 X37.8702 Y11.4485
G01 X37.8699 Y11.4615
G01 X37.8702 Y11.4744
G01 X37.8741 Y11.5529
G01 X37.8750 Y11.5658
G01 X37.8766 Y11.5786
G01 X37.8881 Y11.6563
G01 X37.8904 Y11.6691
G01 X37.8932 Y11.6817
G01 X37.9123 Y11.7579
G01 X37.9157 Y11.7704
G01 X37.9198 Y11.7827
G01 X37.9462 Y11.8566
G01 X37.9509 Y11.8687
G01 X37.9562 Y11.8805
G01 X37.9897 Y11.9515
G01 X37.9955 Y11.9630
G01 X38.0019 Y11.9743
G01 X38.0423 Y12.0417
G01 X38.0492 Y12.0526
G01 X38.0567 Y12.0632
G01 X38.1034 Y12.1263
G01 X38.1114 Y12.1365
G01 X38.1199 Y12.1463
G01 X38.1726 Y12.2045
G01 X38.1862 Y12.2184
G01 X38.2491 Y12.2755
G01 X38.2589 Y12.2840
G01 X38.2691 Y12.2919
G01 X38.3322 Y12.3387
G01 X38.3428 Y12.3462
G01 X38.3537 Y12.3531
G01 X38.4211 Y12.3934
G01 X38.4323 Y12.3998
G01 X38.4439 Y12.4057
G01 X38.5149 Y12.4392
G01 X38.5267 Y12.4445
G01 X38.5388 Y12.4491
G01 X38.6127 Y12.4756
G01 X38.6250 Y12.4797
G01 X38.6375 Y12.4831
G01 X38.7137 Y12.5022
G01 X38.7263 Y12.5050
G01 X38.7391 Y12.5072
G01 X38.8167 Y12.5188
G01 X38.8296 Y12.5203
G01 X38.8425 Y12.5213
G01 X38.9209 Y12.5251
G01 X38.9339 Y12.5255
G01 X38.9468 Y12.5251
G01 X39.0252 Y12.5213
G01 X39.0382 Y12.5203
G01 X39.0510 Y12.5188
G01 X39.1287 Y12.5072
G01 X39.1415 Y12.5050
G01 X39.1541 Y12.5022
G01 X39.2302 Y12.4831
G01 X39.2489 Y12.4777
G01 X39.3290 Y12.4491
G01 X39.3410 Y12.4445
G01 X39.3529 Y12.4392
G01 X39.4239 Y12.4057
G01 X39.4354 Y12.3998
G01 X39.4467 Y12.3934
G01 X39.5140 Y12.3531
G01 X39.5250 Y12.3462
G01 X39.5356 Y12.3387
G01 X39.5986 Y12.2919
G01 X39.6089 Y12.2840
G01 X39.6187 Y12.2755
G01 X39.6768 Y12.2228
G01 X39.6862 Y12.2138
G01 X39.6952 Y12.2045
G01 X39.7522 Y12.1414
G01 X39.7643 Y12.1263
G01 X39.8111 Y12.0632
G01 X39.8185 Y12.0526
G01 X39.8255 Y12.0417
G01 X39.8658 Y11.9743
G01 X39.8722 Y11.9630
G01 X39.8780 Y11.9515
G01 X39.9143 Y11.8746
G01 X39.9215 Y11.8566
G01 X39.9480 Y11.7827
G01 X39.9538 Y11.7641
G01 X39.9761 Y11.6754
G01 X39.9796 Y11.6563
G01 X39.9863 Y11.6113
G01 X44.7074 Y11.6113
G01 X44.3860 Y11.9327
G01 X44.3730 Y11.9467
G01 X43.6964 Y11.9467
G01 X43.6570 Y11.9484
G01 X43.6377 Y11.9505
G01 X43.6052 Y11.9557
G01 X43.5732 Y11.9634
G01 X43.5546 Y11.9688
G01 X43.5176 Y11.9823
G01 X43.4877 Y11.9960
G01 X43.4704 Y12.0050
G01 X43.4422 Y12.0219
G01 X43.4262 Y12.0329
G01 X43.3999 Y12.0528
G01 X43.3753 Y12.0746
G01 X43.3660 Y12.0836
G01 X42.2328 Y13.2167
G01 X35.3174 Y13.2167
G01 X32.9097 Y10.8090
G01 X32.8803 Y10.7828
G01 X32.8488 Y10.7591
G01 X32.8381 Y10.7519
G01 X32.8154 Y10.7383
G01 X32.8042 Y10.7319
G01 X32.7926 Y10.7260
G01 X32.7627 Y10.7123
G01 X32.7506 Y10.7076
G01 X32.7195 Y10.6968
G01 X32.7070 Y10.6934
G01 X32.6750 Y10.6857
G01 X32.6425 Y10.6805
G01 X32.6232 Y10.6784
G01 X32.5839 Y10.6767
G01 X16.6503 Y10.6767
G01 X16.9718 Y10.3553
G01 X16.9847 Y10.3413
G01 X44.3730 Y10.3413
G01 X44.3860 Y10.3553
G01 X44.7074 Y10.6767
G01 X39.6509 Y10.6767
G00 Z1.2000
G00 X39.8438 Y11.4573
G01 F120.00
G01 Z-0.0800
G01 F240.00
G01 X39.8437 Y11.4669
G01 X39.8395 Y11.5507
G01 X39.8264 Y11.6390
G01 X39.8047 Y11.7256
G01 X39.7746 Y11.8097
G01 X39.7364 Y11.8905
G01 X39.6905 Y11.9670
G01 X39.6373 Y12.0388
G01 X39.5773 Y12.1049
G01 X39.5112 Y12.1649
G01 X39.4394 Y12.2181
G01 X39.3628 Y12.2640
G01 X39.2821 Y12.3022
G01 X39.1980 Y12.3323
G01 X39.1114 Y12.3540
G01 X39.0231 Y12.3671
G01 X38.9339 Y12.3715
G01 X38.8447 Y12.3671
G01 X38.7564 Y12.3540
G01 X38.6697 Y12.3323
G01 X38.5857 Y12.3022
G01 X38.5049 Y12.2640
G01 X38.4283 Y12.2181
G01 X38.3566 Y12.1649
G01 X38.2904 Y12.1049
G01 X38.2305 Y12.0388
G01 X38.1773 Y11.9670
G01 X38.1314 Y11.8905
G01 X38.0932 Y11.8097
G01 X38.0631 Y11.7256
G01 X38.0414 Y11.6390
G01 X38.0283 Y11.5507
G01 X38.0239 Y11.4615
G01 X38.0283 Y11.3723
G01 X38.0414 Y11.2840
G01 X38.0631 Y11.1973
G01 X38.0932 Y11.1133
G01 X38.1314 Y11.0325
G01 X38.1773 Y10.9559
G01 X38.2305 Y10.8842
G01 X38.2867 Y10.8220
G01 X38.2943 Y10.8143
G01 X38.3566 Y10.7581
G01 X38.4239 Y10.7080
G01 X38.4329 Y10.7020
G01 X38.5002 Y10.6616
G01 X38.5097 Y10.6565
G01 X38.5857 Y10.6208
G01 X38.6697 Y10.5907
G01 X38.7564 Y10.5690
G01 X38.8393 Y10.5566
G01 X38.8474 Y10.5557
G01 X38.9339 Y10.5515
G01 X39.0177 Y10.5555
G01 X39.0284 Y10.5566
G01 X39.1061 Y10.5681
G01 X39.1167 Y10.5702
G01 X39.1980 Y10.5907
G01 X39.2771 Y10.6188
G01 X39.2870 Y10.6230
G01 X39.3628 Y10.6590
G01 X39.4394 Y10.7049
G01 X39.5112 Y10.7581
G01 X39.5754 Y10.8162
G01 X39.5890 Y10.8307
G01 X46.5539 Y10.8307
G01 X46.5792 Y10.8318
G01 X46.5873 Y10.8325
G01 X46.6150 Y10.8367
G01 X46.6396 Y10.8427
G01 X46.6500 Y10.8459
G01 X46.6763 Y10.8556
G01 X46.7016 Y10.8677
G01 X46.7257 Y10.8820
G01 X46.7484 Y10.8985
G01 X46.7567 Y10.9053
G01 X46.7754 Y10.9225
G01 X47.4659 Y11.6129
G01 X47.4727 Y11.6084
G01 X47.4798 Y11.6045
G01 X47.4872 Y11.6012
G01 X47.4948 Y11.5984
G01 X47.5026 Y11.5961
G01 X47.5105 Y11.5944
G01 X47.5185 Y11.5933
G01 X47.5266 Y11.5928
G01 X48.1185 Y11.5928
G01 X48.1293 Y11.5933
G01 X48.1399 Y11.5949
G01 X48.1504 Y11.5975
G01 X48.1581 Y11.6002
G01 X48.1655 Y11.6034
G01 X48.1750 Y11.6084
G01 X48.1840 Y11.6144
G01 X48.1923 Y11.6213
G01 X48.6147 Y12.0436
G01 X48.6218 Y12.0517
G01 X48.6265 Y12.0583
G01 X48.6321 Y12.0676
