(G-CODE GENERATED BY FLATCAM v8.994 - www.flatcam.org - Version Date: 2020/11/7)

(Name: out)
(Type: G-code from Geometry)
(Units: MM)

(Created on Sunday, 05 February 2023 at 14:08)

(This preprocessor is used with a motion controller loaded with GRBL firmware.)
(It is configured to be compatible with almost any version of GRBL firmware.)

(TOOL DIAMETER: 2.0 mm)
(Feedrate_XY: 100.0 mm/min)
(Feedrate_Z: 60.0 mm/min)
(Feedrate rapids 1500.0 mm/min)

(Z_Cut: -2.0 mm)
(DepthPerCut: 0.7 mm <=>3 passes)
(Z_Move: 1.2 mm)
(Z Start: None mm)
(Z End: 15.0 mm)
(X,Y End: 0.0000, 0.0000 mm)
(Steps per circle: 64)
(Steps per circle: 64)
(Preprocessor Geometry: grbl_11)

(X range:    1.1540 ...   60.3539  mm)
(Y range:    1.1540 ...   53.3539  mm)

(Spindle Speed: 30000 RPM)
G21
G90
G17
G94


; START
G01 F100.00
G00 Z1.2000

M03 S30000
G00 X1.1540 Y26.0039
G01 F60.00
G01 Z-0.7000
G01 F100.00
G01 X1.1540 Y1.1540 F100.00
G01 X60.3539 Y1.1540 F100.00
G01 X60.3539 Y26.0039 F100.00
G00 X60.3539 Y26.0039
G01 F60.00
G01 Z-1.4000
G01 F100.00
G01 X60.3539 Y1.1540 F100.00
G01 X1.1540 Y1.1540 F100.00
G01 X1.1540 Y26.0039 F100.00
G00 X1.1540 Y26.0039
G01 F60.00
G01 Z-2.0000
G01 F100.00
G01 X1.1540 Y1.1540 F100.00
G01 X60.3539 Y1.1540 F100.00
G01 X60.3539 Y26.0039 F100.00
G00 Z1.2000
G00 X60.3539 Y28.5039
G01 F60.00
G01 Z-0.7000
G01 F100.00
G01 X60.3539 Y53.3539 F100.00
G01 X1.1540 Y53.3539 F100.00
G01 X1.1540 Y28.5039 F100.00
G00 X1.1540 Y28.5039
G01 F60.00
G01 Z-1.4000
G01 F100.00
G01 X1.1540 Y53.3539 F100.00
G01 X60.3539 Y53.3539 F100.00
G01 X60.3539 Y28.5039 F100.00
G00 X60.3539 Y28.5039
G01 F60.00
G01 Z-2.0000
G01 F100.00
G01 X60.3539 Y53.3539 F100.00
G01 X1.1540 Y53.3539 F100.00
G01 X1.1540 Y28.5039 F100.00
G00 Z1.2000
M05
G00 Z1.2000
G00 Z15.00
G00 X0.0 Y0.0


; END
M5
