(G-CODE GENERATED BY FLATCAM v8.994 - www.flatcam.org - Version Date: 2020/11/7)

(Name: drl_mill_cnc)
(Type: G-code from Geometry)
(Units: MM)

(Created on Sunday, 05 February 2023 at 13:47)

(This preprocessor is used with a motion controller loaded with GRBL firmware.)
(It is configured to be compatible with almost any version of GRBL firmware.)

(TOOL DIAMETER: 2.0 mm)
(Feedrate_XY: 120.0 mm/min)
(Feedrate_Z: 60.0 mm/min)
(Feedrate rapids 1500.0 mm/min)

(Z_Cut: -2.0 mm)
(DepthPerCut: 0.4 mm <=>5 passes)
(Z_Move: 2.0 mm)
(Z Start: None mm)
(Z End: 15.0 mm)
(X,Y End: None mm)
(Steps per circle: 64)
(Steps per circle: 64)
(Preprocessor Geometry: grbl_11)

(X range:    5.1034 ...   56.4027  mm)
(Y range:    5.1034 ...   49.4025  mm)

(Spindle Speed: 30000.0 RPM)
G21
G90
G17
G94


; START
G01 F120.00

M5             
G00 Z15.0000
G00 X0.0000 Y0.0000                
T1
M6
(MSG, Change to Tool Dia = 2.0000)
M0
G00 Z15.0000

M03 S30000.0
G01 F120.00
G00 X6.4028 Y5.7531
G01 F60.00
G01 Z-0.4000
G01 F120.00
G01 X6.3997 Y5.6894 F120.00
G01 X6.3903 Y5.6263 F120.00
G01 X6.3749 Y5.5645 F120.00
G01 X6.3534 Y5.5045 F120.00
G01 X6.3261 Y5.4468 F120.00
G01 X6.2933 Y5.3921 F120.00
G01 X6.2553 Y5.3409 F120.00
G01 X6.2125 Y5.2937 F120.00
G01 X6.1653 Y5.2509 F120.00
G01 X6.1141 Y5.2129 F120.00
G01 X6.0594 Y5.1801 F120.00
G01 X6.0017 Y5.1528 F120.00
G01 X5.9417 Y5.1313 F120.00
G01 X5.8799 Y5.1159 F120.00
G01 X5.8168 Y5.1065 F120.00
G01 X5.7531 Y5.1034 F120.00
G01 X5.6894 Y5.1065 F120.00
G01 X5.6263 Y5.1159 F120.00
G01 X5.5645 Y5.1313 F120.00
G01 X5.5045 Y5.1528 F120.00
G01 X5.4468 Y5.1801 F120.00
G01 X5.3921 Y5.2129 F120.00
G01 X5.3409 Y5.2509 F120.00
G01 X5.2937 Y5.2937 F120.00
G01 X5.2509 Y5.3409 F120.00
G01 X5.2129 Y5.3921 F120.00
G01 X5.1801 Y5.4468 F120.00
G01 X5.1528 Y5.5045 F120.00
G01 X5.1313 Y5.5645 F120.00
G01 X5.1159 Y5.6263 F120.00
G01 X5.1065 Y5.6894 F120.00
G01 X5.1034 Y5.7531 F120.00
G01 X5.1065 Y5.8168 F120.00
G01 X5.1159 Y5.8799 F120.00
G01 X5.1313 Y5.9417 F120.00
G01 X5.1528 Y6.0017 F120.00
G01 X5.1801 Y6.0594 F120.00
G01 X5.2129 Y6.1141 F120.00
G01 X5.2509 Y6.1653 F120.00
G01 X5.2937 Y6.2125 F120.00
G01 X5.3409 Y6.2553 F120.00
G01 X5.3921 Y6.2933 F120.00
G01 X5.4468 Y6.3261 F120.00
G01 X5.5045 Y6.3534 F120.00
G01 X5.5645 Y6.3749 F120.00
G01 X5.6263 Y6.3903 F120.00
G01 X5.6894 Y6.3997 F120.00
G01 X5.7531 Y6.4028 F120.00
G01 X5.8168 Y6.3997 F120.00
G01 X5.8799 Y6.3903 F120.00
G01 X5.9417 Y6.3749 F120.00
G01 X6.0017 Y6.3534 F120.00
G01 X6.0594 Y6.3261 F120.00
G01 X6.1141 Y6.2933 F120.00
G01 X6.1653 Y6.2553 F120.00
G01 X6.2125 Y6.2125 F120.00
G01 X6.2553 Y6.1653 F120.00
G01 X6.2933 Y6.1141 F120.00
G01 X6.3261 Y6.0594 F120.00
G01 X6.3534 Y6.0017 F120.00
G01 X6.3749 Y5.9417 F120.00
G01 X6.3903 Y5.8799 F120.00
G01 X6.3997 Y5.8168 F120.00
G01 X6.4028 Y5.7531 F120.00
G00 X6.4028 Y5.7531
G01 F60.00
G01 Z-0.8000
G01 F120.00
G01 X6.3997 Y5.6894 F120.00
G01 X6.3903 Y5.6263 F120.00
G01 X6.3749 Y5.5645 F120.00
G01 X6.3534 Y5.5045 F120.00
G01 X6.3261 Y5.4468 F120.00
G01 X6.2933 Y5.3921 F120.00
G01 X6.2553 Y5.3409 F120.00
G01 X6.2125 Y5.2937 F120.00
G01 X6.1653 Y5.2509 F120.00
G01 X6.1141 Y5.2129 F120.00
G01 X6.0594 Y5.1801 F120.00
G01 X6.0017 Y5.1528 F120.00
G01 X5.9417 Y5.1313 F120.00
G01 X5.8799 Y5.1159 F120.00
G01 X5.8168 Y5.1065 F120.00
G01 X5.7531 Y5.1034 F120.00
G01 X5.6894 Y5.1065 F120.00
G01 X5.6263 Y5.1159 F120.00
G01 X5.5645 Y5.1313 F120.00
G01 X5.5045 Y5.1528 F120.00
G01 X5.4468 Y5.1801 F120.00
G01 X5.3921 Y5.2129 F120.00
G01 X5.3409 Y5.2509 F120.00
G01 X5.2937 Y5.2937 F120.00
G01 X5.2509 Y5.3409 F120.00
G01 X5.2129 Y5.3921 F120.00
G01 X5.1801 Y5.4468 F120.00
G01 X5.1528 Y5.5045 F120.00
G01 X5.1313 Y5.5645 F120.00
G01 X5.1159 Y5.6263 F120.00
G01 X5.1065 Y5.6894 F120.00
G01 X5.1034 Y5.7531 F120.00
G01 X5.1065 Y5.8168 F120.00
G01 X5.1159 Y5.8799 F120.00
G01 X5.1313 Y5.9417 F120.00
G01 X5.1528 Y6.0017 F120.00
G01 X5.1801 Y6.0594 F120.00
G01 X5.2129 Y6.1141 F120.00
G01 X5.2509 Y6.1653 F120.00
G01 X5.2937 Y6.2125 F120.00
G01 X5.3409 Y6.2553 F120.00
G01 X5.3921 Y6.2933 F120.00
G01 X5.4468 Y6.3261 F120.00
G01 X5.5045 Y6.3534 F120.00
G01 X5.5645 Y6.3749 F120.00
G01 X5.6263 Y6.3903 F120.00
G01 X5.6894 Y6.3997 F120.00
G01 X5.7531 Y6.4028 F120.00
G01 X5.8168 Y6.3997 F120.00
G01 X5.8799 Y6.3903 F120.00
G01 X5.9417 Y6.3749 F120.00
G01 X6.0017 Y6.3534 F120.00
G01 X6.0594 Y6.3261 F120.00
G01 X6.1141 Y6.2933 F120.00
G01 X6.1653 Y6.2553 F120.00
G01 X6.2125 Y6.2125 F120.00
G01 X6.2553 Y6.1653 F120.00
G01 X6.2933 Y6.1141 F120.00
G01 X6.3261 Y6.0594 F120.00
G01 X6.3534 Y6.0017 F120.00
G01 X6.3749 Y5.9417 F120.00
G01 X6.3903 Y5.8799 F120.00
G01 X6.3997 Y5.8168 F120.00
G01 X6.4028 Y5.7531 F120.00
G00 X6.4028 Y5.7531
G01 F60.00
G01 Z-1.2000
G01 F120.00
G01 X6.3997 Y5.6894 F120.00
G01 X6.3903 Y5.6263 F120.00
G01 X6.3749 Y5.5645 F120.00
G01 X6.3534 Y5.5045 F120.00
G01 X6.3261 Y5.4468 F120.00
G01 X6.2933 Y5.3921 F120.00
G01 X6.2553 Y5.3409 F120.00
G01 X6.2125 Y5.2937 F120.00
G01 X6.1653 Y5.2509 F120.00
G01 X6.1141 Y5.2129 F120.00
G01 X6.0594 Y5.1801 F120.00
G01 X6.0017 Y5.1528 F120.00
G01 X5.9417 Y5.1313 F120.00
G01 X5.8799 Y5.1159 F120.00
G01 X5.8168 Y5.1065 F120.00
G01 X5.7531 Y5.1034 F120.00
G01 X5.6894 Y5.1065 F120.00
G01 X5.6263 Y5.1159 F120.00
G01 X5.5645 Y5.1313 F120.00
G01 X5.5045 Y5.1528 F120.00
G01 X5.4468 Y5.1801 F120.00
G01 X5.3921 Y5.2129 F120.00
G01 X5.3409 Y5.2509 F120.00
G01 X5.2937 Y5.2937 F120.00
G01 X5.2509 Y5.3409 F120.00
G01 X5.2129 Y5.3921 F120.00
G01 X5.1801 Y5.4468 F120.00
G01 X5.1528 Y5.5045 F120.00
G01 X5.1313 Y5.5645 F120.00
G01 X5.1159 Y5.6263 F120.00
G01 X5.1065 Y5.6894 F120.00
G01 X5.1034 Y5.7531 F120.00
G01 X5.1065 Y5.8168 F120.00
G01 X5.1159 Y5.8799 F120.00
G01 X5.1313 Y5.9417 F120.00
G01 X5.1528 Y6.0017 F120.00
G01 X5.1801 Y6.0594 F120.00
G01 X5.2129 Y6.1141 F120.00
G01 X5.2509 Y6.1653 F120.00
G01 X5.2937 Y6.2125 F120.00
G01 X5.3409 Y6.2553 F120.00
G01 X5.3921 Y6.2933 F120.00
G01 X5.4468 Y6.3261 F120.00
G01 X5.5045 Y6.3534 F120.00
G01 X5.5645 Y6.3749 F120.00
G01 X5.6263 Y6.3903 F120.00
G01 X5.6894 Y6.3997 F120.00
G01 X5.7531 Y6.4028 F120.00
G01 X5.8168 Y6.3997 F120.00
G01 X5.8799 Y6.3903 F120.00
G01 X5.9417 Y6.3749 F120.00
G01 X6.0017 Y6.3534 F120.00
G01 X6.0594 Y6.3261 F120.00
G01 X6.1141 Y6.2933 F120.00
G01 X6.1653 Y6.2553 F120.00
G01 X6.2125 Y6.2125 F120.00
G01 X6.2553 Y6.1653 F120.00
G01 X6.2933 Y6.1141 F120.00
G01 X6.3261 Y6.0594 F120.00
G01 X6.3534 Y6.0017 F120.00
G01 X6.3749 Y5.9417 F120.00
G01 X6.3903 Y5.8799 F120.00
G01 X6.3997 Y5.8168 F120.00
G01 X6.4028 Y5.7531 F120.00
G00 X6.4028 Y5.7531
G01 F60.00
G01 Z-1.6000
G01 F120.00
G01 X6.3997 Y5.6894 F120.00
G01 X6.3903 Y5.6263 F120.00
G01 X6.3749 Y5.5645 F120.00
G01 X6.3534 Y5.5045 F120.00
G01 X6.3261 Y5.4468 F120.00
G01 X6.2933 Y5.3921 F120.00
G01 X6.2553 Y5.3409 F120.00
G01 X6.2125 Y5.2937 F120.00
G01 X6.1653 Y5.2509 F120.00
G01 X6.1141 Y5.2129 F120.00
G01 X6.0594 Y5.1801 F120.00
G01 X6.0017 Y5.1528 F120.00
G01 X5.9417 Y5.1313 F120.00
G01 X5.8799 Y5.1159 F120.00
G01 X5.8168 Y5.1065 F120.00
G01 X5.7531 Y5.1034 F120.00
G01 X5.6894 Y5.1065 F120.00
G01 X5.6263 Y5.1159 F120.00
G01 X5.5645 Y5.1313 F120.00
G01 X5.5045 Y5.1528 F120.00
G01 X5.4468 Y5.1801 F120.00
G01 X5.3921 Y5.2129 F120.00
G01 X5.3409 Y5.2509 F120.00
G01 X5.2937 Y5.2937 F120.00
G01 X5.2509 Y5.3409 F120.00
G01 X5.2129 Y5.3921 F120.00
G01 X5.1801 Y5.4468 F120.00
G01 X5.1528 Y5.5045 F120.00
G01 X5.1313 Y5.5645 F120.00
G01 X5.1159 Y5.6263 F120.00
G01 X5.1065 Y5.6894 F120.00
G01 X5.1034 Y5.7531 F120.00
G01 X5.1065 Y5.8168 F120.00
G01 X5.1159 Y5.8799 F120.00
G01 X5.1313 Y5.9417 F120.00
G01 X5.1528 Y6.0017 F120.00
G01 X5.1801 Y6.0594 F120.00
G01 X5.2129 Y6.1141 F120.00
G01 X5.2509 Y6.1653 F120.00
G01 X5.2937 Y6.2125 F120.00
G01 X5.3409 Y6.2553 F120.00
G01 X5.3921 Y6.2933 F120.00
G01 X5.4468 Y6.3261 F120.00
G01 X5.5045 Y6.3534 F120.00
G01 X5.5645 Y6.3749 F120.00
G01 X5.6263 Y6.3903 F120.00
G01 X5.6894 Y6.3997 F120.00
G01 X5.7531 Y6.4028 F120.00
G01 X5.8168 Y6.3997 F120.00
G01 X5.8799 Y6.3903 F120.00
G01 X5.9417 Y6.3749 F120.00
G01 X6.0017 Y6.3534 F120.00
G01 X6.0594 Y6.3261 F120.00
G01 X6.1141 Y6.2933 F120.00
G01 X6.1653 Y6.2553 F120.00
G01 X6.2125 Y6.2125 F120.00
G01 X6.2553 Y6.1653 F120.00
G01 X6.2933 Y6.1141 F120.00
G01 X6.3261 Y6.0594 F120.00
G01 X6.3534 Y6.0017 F120.00
G01 X6.3749 Y5.9417 F120.00
G01 X6.3903 Y5.8799 F120.00
G01 X6.3997 Y5.8168 F120.00
G01 X6.4028 Y5.7531 F120.00
G00 X6.4028 Y5.7531
G01 F60.00
G01 Z-2.0000
G01 F120.00
G01 X6.3997 Y5.6894 F120.00
G01 X6.3903 Y5.6263 F120.00
G01 X6.3749 Y5.5645 F120.00
G01 X6.3534 Y5.5045 F120.00
G01 X6.3261 Y5.4468 F120.00
G01 X6.2933 Y5.3921 F120.00
G01 X6.2553 Y5.3409 F120.00
G01 X6.2125 Y5.2937 F120.00
G01 X6.1653 Y5.2509 F120.00
G01 X6.1141 Y5.2129 F120.00
G01 X6.0594 Y5.1801 F120.00
G01 X6.0017 Y5.1528 F120.00
G01 X5.9417 Y5.1313 F120.00
G01 X5.8799 Y5.1159 F120.00
G01 X5.8168 Y5.1065 F120.00
G01 X5.7531 Y5.1034 F120.00
G01 X5.6894 Y5.1065 F120.00
G01 X5.6263 Y5.1159 F120.00
G01 X5.5645 Y5.1313 F120.00
G01 X5.5045 Y5.1528 F120.00
G01 X5.4468 Y5.1801 F120.00
G01 X5.3921 Y5.2129 F120.00
G01 X5.3409 Y5.2509 F120.00
G01 X5.2937 Y5.2937 F120.00
G01 X5.2509 Y5.3409 F120.00
G01 X5.2129 Y5.3921 F120.00
G01 X5.1801 Y5.4468 F120.00
G01 X5.1528 Y5.5045 F120.00
G01 X5.1313 Y5.5645 F120.00
G01 X5.1159 Y5.6263 F120.00
G01 X5.1065 Y5.6894 F120.00
G01 X5.1034 Y5.7531 F120.00
G01 X5.1065 Y5.8168 F120.00
G01 X5.1159 Y5.8799 F120.00
G01 X5.1313 Y5.9417 F120.00
G01 X5.1528 Y6.0017 F120.00
G01 X5.1801 Y6.0594 F120.00
G01 X5.2129 Y6.1141 F120.00
G01 X5.2509 Y6.1653 F120.00
G01 X5.2937 Y6.2125 F120.00
G01 X5.3409 Y6.2553 F120.00
G01 X5.3921 Y6.2933 F120.00
G01 X5.4468 Y6.3261 F120.00
G01 X5.5045 Y6.3534 F120.00
G01 X5.5645 Y6.3749 F120.00
G01 X5.6263 Y6.3903 F120.00
G01 X5.6894 Y6.3997 F120.00
G01 X5.7531 Y6.4028 F120.00
G01 X5.8168 Y6.3997 F120.00
G01 X5.8799 Y6.3903 F120.00
G01 X5.9417 Y6.3749 F120.00
G01 X6.0017 Y6.3534 F120.00
G01 X6.0594 Y6.3261 F120.00
G01 X6.1141 Y6.2933 F120.00
G01 X6.1653 Y6.2553 F120.00
G01 X6.2125 Y6.2125 F120.00
G01 X6.2553 Y6.1653 F120.00
G01 X6.2933 Y6.1141 F120.00
G01 X6.3261 Y6.0594 F120.00
G01 X6.3534 Y6.0017 F120.00
G01 X6.3749 Y5.9417 F120.00
G01 X6.3903 Y5.8799 F120.00
G01 X6.3997 Y5.8168 F120.00
G01 X6.4028 Y5.7531 F120.00
G00 Z2.0000
G00 X6.4028 Y48.7528
G01 F60.00
G01 Z-0.4000
G01 F120.00
G01 X6.3997 Y48.6891 F120.00
G01 X6.3903 Y48.6260 F120.00
G01 X6.3749 Y48.5642 F120.00
G01 X6.3534 Y48.5041 F120.00
G01 X6.3261 Y48.4465 F120.00
G01 X6.2933 Y48.3918 F120.00
G01 X6.2553 Y48.3406 F120.00
G01 X6.2125 Y48.2933 F120.00
G01 X6.1653 Y48.2505 F120.00
G01 X6.1141 Y48.2125 F120.00
G01 X6.0594 Y48.1797 F120.00
G01 X6.0017 Y48.1525 F120.00
G01 X5.9417 Y48.1310 F120.00
G01 X5.8799 Y48.1155 F120.00
G01 X5.8168 Y48.1062 F120.00
G01 X5.7531 Y48.1030 F120.00
G01 X5.6894 Y48.1062 F120.00
G01 X5.6263 Y48.1155 F120.00
G01 X5.5645 Y48.1310 F120.00
G01 X5.5045 Y48.1525 F120.00
G01 X5.4468 Y48.1797 F120.00
G01 X5.3921 Y48.2125 F120.00
G01 X5.3409 Y48.2505 F120.00
G01 X5.2937 Y48.2933 F120.00
G01 X5.2509 Y48.3406 F120.00
G01 X5.2129 Y48.3918 F120.00
G01 X5.1801 Y48.4465 F120.00
G01 X5.1528 Y48.5041 F120.00
G01 X5.1313 Y48.5642 F120.00
G01 X5.1159 Y48.6260 F120.00
G01 X5.1065 Y48.6891 F120.00
G01 X5.1034 Y48.7528 F120.00
G01 X5.1065 Y48.8164 F120.00
G01 X5.1159 Y48.8795 F120.00
G01 X5.1313 Y48.9414 F120.00
G01 X5.1528 Y49.0014 F120.00
G01 X5.1801 Y49.0590 F120.00
G01 X5.2129 Y49.1137 F120.00
G01 X5.2509 Y49.1649 F120.00
G01 X5.2937 Y49.2122 F120.00
G01 X5.3409 Y49.2550 F120.00
G01 X5.3921 Y49.2930 F120.00
G01 X5.4468 Y49.3258 F120.00
G01 X5.5045 Y49.3530 F120.00
G01 X5.5645 Y49.3745 F120.00
G01 X5.6263 Y49.3900 F120.00
G01 X5.6894 Y49.3994 F120.00
G01 X5.7531 Y49.4025 F120.00
G01 X5.8168 Y49.3994 F120.00
G01 X5.8799 Y49.3900 F120.00
G01 X5.9417 Y49.3745 F120.00
G01 X6.0017 Y49.3530 F120.00
G01 X6.0594 Y49.3258 F120.00
G01 X6.1141 Y49.2930 F120.00
G01 X6.1653 Y49.2550 F120.00
G01 X6.2125 Y49.2122 F120.00
G01 X6.2553 Y49.1649 F120.00
G01 X6.2933 Y49.1137 F120.00
G01 X6.3261 Y49.0590 F120.00
G01 X6.3534 Y49.0014 F120.00
G01 X6.3749 Y48.9414 F120.00
G01 X6.3903 Y48.8795 F120.00
G01 X6.3997 Y48.8164 F120.00
G01 X6.4028 Y48.7528 F120.00
G00 X6.4028 Y48.7528
G01 F60.00
G01 Z-0.8000
G01 F120.00
G01 X6.3997 Y48.6891 F120.00
G01 X6.3903 Y48.6260 F120.00
G01 X6.3749 Y48.5642 F120.00
G01 X6.3534 Y48.5041 F120.00
G01 X6.3261 Y48.4465 F120.00
G01 X6.2933 Y48.3918 F120.00
G01 X6.2553 Y48.3406 F120.00
G01 X6.2125 Y48.2933 F120.00
G01 X6.1653 Y48.2505 F120.00
G01 X6.1141 Y48.2125 F120.00
G01 X6.0594 Y48.1797 F120.00
G01 X6.0017 Y48.1525 F120.00
G01 X5.9417 Y48.1310 F120.00
G01 X5.8799 Y48.1155 F120.00
G01 X5.8168 Y48.1062 F120.00
G01 X5.7531 Y48.1030 F120.00
G01 X5.6894 Y48.1062 F120.00
G01 X5.6263 Y48.1155 F120.00
G01 X5.5645 Y48.1310 F120.00
G01 X5.5045 Y48.1525 F120.00
G01 X5.4468 Y48.1797 F120.00
G01 X5.3921 Y48.2125 F120.00
G01 X5.3409 Y48.2505 F120.00
G01 X5.2937 Y48.2933 F120.00
G01 X5.2509 Y48.3406 F120.00
G01 X5.2129 Y48.3918 F120.00
G01 X5.1801 Y48.4465 F120.00
G01 X5.1528 Y48.5041 F120.00
G01 X5.1313 Y48.5642 F120.00
G01 X5.1159 Y48.6260 F120.00
G01 X5.1065 Y48.6891 F120.00
G01 X5.1034 Y48.7528 F120.00
G01 X5.1065 Y48.8164 F120.00
G01 X5.1159 Y48.8795 F120.00
G01 X5.1313 Y48.9414 F120.00
G01 X5.1528 Y49.0014 F120.00
G01 X5.1801 Y49.0590 F120.00
G01 X5.2129 Y49.1137 F120.00
G01 X5.2509 Y49.1649 F120.00
G01 X5.2937 Y49.2122 F120.00
G01 X5.3409 Y49.2550 F120.00
G01 X5.3921 Y49.2930 F120.00
G01 X5.4468 Y49.3258 F120.00
G01 X5.5045 Y49.3530 F120.00
G01 X5.5645 Y49.3745 F120.00
G01 X5.6263 Y49.3900 F120.00
G01 X5.6894 Y49.3994 F120.00
G01 X5.7531 Y49.4025 F120.00
G01 X5.8168 Y49.3994 F120.00
G01 X5.8799 Y49.3900 F120.00
G01 X5.9417 Y49.3745 F120.00
G01 X6.0017 Y49.3530 F120.00
G01 X6.0594 Y49.3258 F120.00
G01 X6.1141 Y49.2930 F120.00
G01 X6.1653 Y49.2550 F120.00
G01 X6.2125 Y49.2122 F120.00
G01 X6.2553 Y49.1649 F120.00
G01 X6.2933 Y49.1137 F120.00
G01 X6.3261 Y49.0590 F120.00
G01 X6.3534 Y49.0014 F120.00
G01 X6.3749 Y48.9414 F120.00
G01 X6.3903 Y48.8795 F120.00
G01 X6.3997 Y48.8164 F120.00
G01 X6.4028 Y48.7528 F120.00
G00 X6.4028 Y48.7528
G01 F60.00
G01 Z-1.2000
G01 F120.00
G01 X6.3997 Y48.6891 F120.00
G01 X6.3903 Y48.6260 F120.00
G01 X6.3749 Y48.5642 F120.00
G01 X6.3534 Y48.5041 F120.00
G01 X6.3261 Y48.4465 F120.00
G01 X6.2933 Y48.3918 F120.00
G01 X6.2553 Y48.3406 F120.00
G01 X6.2125 Y48.2933 F120.00
G01 X6.1653 Y48.2505 F120.00
G01 X6.1141 Y48.2125 F120.00
G01 X6.0594 Y48.1797 F120.00
G01 X6.0017 Y48.1525 F120.00
G01 X5.9417 Y48.1310 F120.00
G01 X5.8799 Y48.1155 F120.00
G01 X5.8168 Y48.1062 F120.00
G01 X5.7531 Y48.1030 F120.00
G01 X5.6894 Y48.1062 F120.00
G01 X5.6263 Y48.1155 F120.00
G01 X5.5645 Y48.1310 F120.00
G01 X5.5045 Y48.1525 F120.00
G01 X5.4468 Y48.1797 F120.00
G01 X5.3921 Y48.2125 F120.00
G01 X5.3409 Y48.2505 F120.00
G01 X5.2937 Y48.2933 F120.00
G01 X5.2509 Y48.3406 F120.00
G01 X5.2129 Y48.3918 F120.00
G01 X5.1801 Y48.4465 F120.00
G01 X5.1528 Y48.5041 F120.00
G01 X5.1313 Y48.5642 F120.00
G01 X5.1159 Y48.6260 F120.00
G01 X5.1065 Y48.6891 F120.00
G01 X5.1034 Y48.7528 F120.00
G01 X5.1065 Y48.8164 F120.00
G01 X5.1159 Y48.8795 F120.00
G01 X5.1313 Y48.9414 F120.00
G01 X5.1528 Y49.0014 F120.00
G01 X5.1801 Y49.0590 F120.00
G01 X5.2129 Y49.1137 F120.00
G01 X5.2509 Y49.1649 F120.00
G01 X5.2937 Y49.2122 F120.00
G01 X5.3409 Y49.2550 F120.00
G01 X5.3921 Y49.2930 F120.00
G01 X5.4468 Y49.3258 F120.00
G01 X5.5045 Y49.3530 F120.00
G01 X5.5645 Y49.3745 F120.00
G01 X5.6263 Y49.3900 F120.00
G01 X5.6894 Y49.3994 F120.00
G01 X5.7531 Y49.4025 F120.00
G01 X5.8168 Y49.3994 F120.00
G01 X5.8799 Y49.3900 F120.00
G01 X5.9417 Y49.3745 F120.00
G01 X6.0017 Y49.3530 F120.00
G01 X6.0594 Y49.3258 F120.00
G01 X6.1141 Y49.2930 F120.00
G01 X6.1653 Y49.2550 F120.00
G01 X6.2125 Y49.2122 F120.00
G01 X6.2553 Y49.1649 F120.00
G01 X6.2933 Y49.1137 F120.00
G01 X6.3261 Y49.0590 F120.00
G01 X6.3534 Y49.0014 F120.00
G01 X6.3749 Y48.9414 F120.00
G01 X6.3903 Y48.8795 F120.00
G01 X6.3997 Y48.8164 F120.00
G01 X6.4028 Y48.7528 F120.00
G00 X6.4028 Y48.7528
G01 F60.00
G01 Z-1.6000
G01 F120.00
G01 X6.3997 Y48.6891 F120.00
G01 X6.3903 Y48.6260 F120.00
G01 X6.3749 Y48.5642 F120.00
G01 X6.3534 Y48.5041 F120.00
G01 X6.3261 Y48.4465 F120.00
G01 X6.2933 Y48.3918 F120.00
G01 X6.2553 Y48.3406 F120.00
G01 X6.2125 Y48.2933 F120.00
G01 X6.1653 Y48.2505 F120.00
G01 X6.1141 Y48.2125 F120.00
G01 X6.0594 Y48.1797 F120.00
G01 X6.0017 Y48.1525 F120.00
G01 X5.9417 Y48.1310 F120.00
G01 X5.8799 Y48.1155 F120.00
G01 X5.8168 Y48.1062 F120.00
G01 X5.7531 Y48.1030 F120.00
G01 X5.6894 Y48.1062 F120.00
G01 X5.6263 Y48.1155 F120.00
G01 X5.5645 Y48.1310 F120.00
G01 X5.5045 Y48.1525 F120.00
G01 X5.4468 Y48.1797 F120.00
G01 X5.3921 Y48.2125 F120.00
G01 X5.3409 Y48.2505 F120.00
G01 X5.2937 Y48.2933 F120.00
G01 X5.2509 Y48.3406 F120.00
G01 X5.2129 Y48.3918 F120.00
G01 X5.1801 Y48.4465 F120.00
G01 X5.1528 Y48.5041 F120.00
G01 X5.1313 Y48.5642 F120.00
G01 X5.1159 Y48.6260 F120.00
G01 X5.1065 Y48.6891 F120.00
G01 X5.1034 Y48.7528 F120.00
G01 X5.1065 Y48.8164 F120.00
G01 X5.1159 Y48.8795 F120.00
G01 X5.1313 Y48.9414 F120.00
G01 X5.1528 Y49.0014 F120.00
G01 X5.1801 Y49.0590 F120.00
G01 X5.2129 Y49.1137 F120.00
G01 X5.2509 Y49.1649 F120.00
G01 X5.2937 Y49.2122 F120.00
G01 X5.3409 Y49.2550 F120.00
G01 X5.3921 Y49.2930 F120.00
G01 X5.4468 Y49.3258 F120.00
G01 X5.5045 Y49.3530 F120.00
G01 X5.5645 Y49.3745 F120.00
G01 X5.6263 Y49.3900 F120.00
G01 X5.6894 Y49.3994 F120.00
G01 X5.7531 Y49.4025 F120.00
G01 X5.8168 Y49.3994 F120.00
G01 X5.8799 Y49.3900 F120.00
G01 X5.9417 Y49.3745 F120.00
G01 X6.0017 Y49.3530 F120.00
G01 X6.0594 Y49.3258 F120.00
G01 X6.1141 Y49.2930 F120.00
G01 X6.1653 Y49.2550 F120.00
G01 X6.2125 Y49.2122 F120.00
G01 X6.2553 Y49.1649 F120.00
G01 X6.2933 Y49.1137 F120.00
G01 X6.3261 Y49.0590 F120.00
G01 X6.3534 Y49.0014 F120.00
G01 X6.3749 Y48.9414 F120.00
G01 X6.3903 Y48.8795 F120.00
G01 X6.3997 Y48.8164 F120.00
G01 X6.4028 Y48.7528 F120.00
G00 X6.4028 Y48.7528
G01 F60.00
G01 Z-2.0000
G01 F120.00
G01 X6.3997 Y48.6891 F120.00
G01 X6.3903 Y48.6260 F120.00
G01 X6.3749 Y48.5642 F120.00
G01 X6.3534 Y48.5041 F120.00
G01 X6.3261 Y48.4465 F120.00
G01 X6.2933 Y48.3918 F120.00
G01 X6.2553 Y48.3406 F120.00
G01 X6.2125 Y48.2933 F120.00
G01 X6.1653 Y48.2505 F120.00
G01 X6.1141 Y48.2125 F120.00
G01 X6.0594 Y48.1797 F120.00
G01 X6.0017 Y48.1525 F120.00
G01 X5.9417 Y48.1310 F120.00
G01 X5.8799 Y48.1155 F120.00
G01 X5.8168 Y48.1062 F120.00
G01 X5.7531 Y48.1030 F120.00
G01 X5.6894 Y48.1062 F120.00
G01 X5.6263 Y48.1155 F120.00
G01 X5.5645 Y48.1310 F120.00
G01 X5.5045 Y48.1525 F120.00
G01 X5.4468 Y48.1797 F120.00
G01 X5.3921 Y48.2125 F120.00
G01 X5.3409 Y48.2505 F120.00
G01 X5.2937 Y48.2933 F120.00
G01 X5.2509 Y48.3406 F120.00
G01 X5.2129 Y48.3918 F120.00
G01 X5.1801 Y48.4465 F120.00
G01 X5.1528 Y48.5041 F120.00
G01 X5.1313 Y48.5642 F120.00
G01 X5.1159 Y48.6260 F120.00
G01 X5.1065 Y48.6891 F120.00
G01 X5.1034 Y48.7528 F120.00
G01 X5.1065 Y48.8164 F120.00
G01 X5.1159 Y48.8795 F120.00
G01 X5.1313 Y48.9414 F120.00
G01 X5.1528 Y49.0014 F120.00
G01 X5.1801 Y49.0590 F120.00
G01 X5.2129 Y49.1137 F120.00
G01 X5.2509 Y49.1649 F120.00
G01 X5.2937 Y49.2122 F120.00
G01 X5.3409 Y49.2550 F120.00
G01 X5.3921 Y49.2930 F120.00
G01 X5.4468 Y49.3258 F120.00
G01 X5.5045 Y49.3530 F120.00
G01 X5.5645 Y49.3745 F120.00
G01 X5.6263 Y49.3900 F120.00
G01 X5.6894 Y49.3994 F120.00
G01 X5.7531 Y49.4025 F120.00
G01 X5.8168 Y49.3994 F120.00
G01 X5.8799 Y49.3900 F120.00
G01 X5.9417 Y49.3745 F120.00
G01 X6.0017 Y49.3530 F120.00
G01 X6.0594 Y49.3258 F120.00
G01 X6.1141 Y49.2930 F120.00
G01 X6.1653 Y49.2550 F120.00
G01 X6.2125 Y49.2122 F120.00
G01 X6.2553 Y49.1649 F120.00
G01 X6.2933 Y49.1137 F120.00
G01 X6.3261 Y49.0590 F120.00
G01 X6.3534 Y49.0014 F120.00
G01 X6.3749 Y48.9414 F120.00
G01 X6.3903 Y48.8795 F120.00
G01 X6.3997 Y48.8164 F120.00
G01 X6.4028 Y48.7528 F120.00
G00 Z2.0000
G00 X56.4027 Y48.7528
G01 F60.00
G01 Z-0.4000
G01 F120.00
G01 X56.3996 Y48.6891 F120.00
G01 X56.3902 Y48.6260 F120.00
G01 X56.3748 Y48.5642 F120.00
G01 X56.3533 Y48.5041 F120.00
G01 X56.3260 Y48.4465 F120.00
G01 X56.2932 Y48.3918 F120.00
G01 X56.2552 Y48.3406 F120.00
G01 X56.2124 Y48.2933 F120.00
G01 X56.1652 Y48.2505 F120.00
G01 X56.1140 Y48.2125 F120.00
G01 X56.0593 Y48.1797 F120.00
G01 X56.0016 Y48.1525 F120.00
G01 X55.9416 Y48.1310 F120.00
G01 X55.8798 Y48.1155 F120.00
G01 X55.8167 Y48.1062 F120.00
G01 X55.7530 Y48.1030 F120.00
G01 X55.6893 Y48.1062 F120.00
G01 X55.6262 Y48.1155 F120.00
G01 X55.5644 Y48.1310 F120.00
G01 X55.5044 Y48.1525 F120.00
G01 X55.4467 Y48.1797 F120.00
G01 X55.3920 Y48.2125 F120.00
G01 X55.3408 Y48.2505 F120.00
G01 X55.2936 Y48.2933 F120.00
G01 X55.2508 Y48.3406 F120.00
G01 X55.2128 Y48.3918 F120.00
G01 X55.1800 Y48.4465 F120.00
G01 X55.1527 Y48.5041 F120.00
G01 X55.1312 Y48.5642 F120.00
G01 X55.1158 Y48.6260 F120.00
G01 X55.1064 Y48.6891 F120.00
G01 X55.1033 Y48.7528 F120.00
G01 X55.1064 Y48.8164 F120.00
G01 X55.1158 Y48.8795 F120.00
G01 X55.1312 Y48.9414 F120.00
G01 X55.1527 Y49.0014 F120.00
G01 X55.1800 Y49.0590 F120.00
G01 X55.2128 Y49.1137 F120.00
G01 X55.2508 Y49.1649 F120.00
G01 X55.2936 Y49.2122 F120.00
G01 X55.3408 Y49.2550 F120.00
G01 X55.3920 Y49.2930 F120.00
G01 X55.4467 Y49.3258 F120.00
G01 X55.5044 Y49.3530 F120.00
G01 X55.5644 Y49.3745 F120.00
G01 X55.6262 Y49.3900 F120.00
G01 X55.6893 Y49.3994 F120.00
G01 X55.7530 Y49.4025 F120.00
G01 X55.8167 Y49.3994 F120.00
G01 X55.8798 Y49.3900 F120.00
G01 X55.9416 Y49.3745 F120.00
G01 X56.0016 Y49.3530 F120.00
G01 X56.0593 Y49.3258 F120.00
G01 X56.1140 Y49.2930 F120.00
G01 X56.1652 Y49.2550 F120.00
G01 X56.2124 Y49.2122 F120.00
G01 X56.2552 Y49.1649 F120.00
G01 X56.2932 Y49.1137 F120.00
G01 X56.3260 Y49.0590 F120.00
G01 X56.3533 Y49.0014 F120.00
G01 X56.3748 Y48.9414 F120.00
G01 X56.3902 Y48.8795 F120.00
G01 X56.3996 Y48.8164 F120.00
G01 X56.4027 Y48.7528 F120.00
G00 X56.4027 Y48.7528
G01 F60.00
G01 Z-0.8000
G01 F120.00
G01 X56.3996 Y48.6891 F120.00
G01 X56.3902 Y48.6260 F120.00
G01 X56.3748 Y48.5642 F120.00
G01 X56.3533 Y48.5041 F120.00
G01 X56.3260 Y48.4465 F120.00
G01 X56.2932 Y48.3918 F120.00
G01 X56.2552 Y48.3406 F120.00
G01 X56.2124 Y48.2933 F120.00
G01 X56.1652 Y48.2505 F120.00
G01 X56.1140 Y48.2125 F120.00
G01 X56.0593 Y48.1797 F120.00
G01 X56.0016 Y48.1525 F120.00
G01 X55.9416 Y48.1310 F120.00
G01 X55.8798 Y48.1155 F120.00
G01 X55.8167 Y48.1062 F120.00
G01 X55.7530 Y48.1030 F120.00
G01 X55.6893 Y48.1062 F120.00
G01 X55.6262 Y48.1155 F120.00
G01 X55.5644 Y48.1310 F120.00
G01 X55.5044 Y48.1525 F120.00
G01 X55.4467 Y48.1797 F120.00
G01 X55.3920 Y48.2125 F120.00
G01 X55.3408 Y48.2505 F120.00
G01 X55.2936 Y48.2933 F120.00
G01 X55.2508 Y48.3406 F120.00
G01 X55.2128 Y48.3918 F120.00
G01 X55.1800 Y48.4465 F120.00
G01 X55.1527 Y48.5041 F120.00
G01 X55.1312 Y48.5642 F120.00
G01 X55.1158 Y48.6260 F120.00
G01 X55.1064 Y48.6891 F120.00
G01 X55.1033 Y48.7528 F120.00
G01 X55.1064 Y48.8164 F120.00
G01 X55.1158 Y48.8795 F120.00
G01 X55.1312 Y48.9414 F120.00
G01 X55.1527 Y49.0014 F120.00
G01 X55.1800 Y49.0590 F120.00
G01 X55.2128 Y49.1137 F120.00
G01 X55.2508 Y49.1649 F120.00
G01 X55.2936 Y49.2122 F120.00
G01 X55.3408 Y49.2550 F120.00
G01 X55.3920 Y49.2930 F120.00
G01 X55.4467 Y49.3258 F120.00
G01 X55.5044 Y49.3530 F120.00
G01 X55.5644 Y49.3745 F120.00
G01 X55.6262 Y49.3900 F120.00
G01 X55.6893 Y49.3994 F120.00
G01 X55.7530 Y49.4025 F120.00
G01 X55.8167 Y49.3994 F120.00
G01 X55.8798 Y49.3900 F120.00
G01 X55.9416 Y49.3745 F120.00
G01 X56.0016 Y49.3530 F120.00
G01 X56.0593 Y49.3258 F120.00
G01 X56.1140 Y49.2930 F120.00
G01 X56.1652 Y49.2550 F120.00
G01 X56.2124 Y49.2122 F120.00
G01 X56.2552 Y49.1649 F120.00
G01 X56.2932 Y49.1137 F120.00
G01 X56.3260 Y49.0590 F120.00
G01 X56.3533 Y49.0014 F120.00
G01 X56.3748 Y48.9414 F120.00
G01 X56.3902 Y48.8795 F120.00
G01 X56.3996 Y48.8164 F120.00
G01 X56.4027 Y48.7528 F120.00
G00 X56.4027 Y48.7528
G01 F60.00
G01 Z-1.2000
G01 F120.00
G01 X56.3996 Y48.6891 F120.00
G01 X56.3902 Y48.6260 F120.00
G01 X56.3748 Y48.5642 F120.00
G01 X56.3533 Y48.5041 F120.00
G01 X56.3260 Y48.4465 F120.00
G01 X56.2932 Y48.3918 F120.00
G01 X56.2552 Y48.3406 F120.00
G01 X56.2124 Y48.2933 F120.00
G01 X56.1652 Y48.2505 F120.00
G01 X56.1140 Y48.2125 F120.00
G01 X56.0593 Y48.1797 F120.00
G01 X56.0016 Y48.1525 F120.00
G01 X55.9416 Y48.1310 F120.00
G01 X55.8798 Y48.1155 F120.00
G01 X55.8167 Y48.1062 F120.00
G01 X55.7530 Y48.1030 F120.00
G01 X55.6893 Y48.1062 F120.00
G01 X55.6262 Y48.1155 F120.00
G01 X55.5644 Y48.1310 F120.00
G01 X55.5044 Y48.1525 F120.00
G01 X55.4467 Y48.1797 F120.00
G01 X55.3920 Y48.2125 F120.00
G01 X55.3408 Y48.2505 F120.00
G01 X55.2936 Y48.2933 F120.00
G01 X55.2508 Y48.3406 F120.00
G01 X55.2128 Y48.3918 F120.00
G01 X55.1800 Y48.4465 F120.00
G01 X55.1527 Y48.5041 F120.00
G01 X55.1312 Y48.5642 F120.00
G01 X55.1158 Y48.6260 F120.00
G01 X55.1064 Y48.6891 F120.00
G01 X55.1033 Y48.7528 F120.00
G01 X55.1064 Y48.8164 F120.00
G01 X55.1158 Y48.8795 F120.00
G01 X55.1312 Y48.9414 F120.00
G01 X55.1527 Y49.0014 F120.00
G01 X55.1800 Y49.0590 F120.00
G01 X55.2128 Y49.1137 F120.00
G01 X55.2508 Y49.1649 F120.00
G01 X55.2936 Y49.2122 F120.00
G01 X55.3408 Y49.2550 F120.00
G01 X55.3920 Y49.2930 F120.00
G01 X55.4467 Y49.3258 F120.00
G01 X55.5044 Y49.3530 F120.00
G01 X55.5644 Y49.3745 F120.00
G01 X55.6262 Y49.3900 F120.00
G01 X55.6893 Y49.3994 F120.00
G01 X55.7530 Y49.4025 F120.00
G01 X55.8167 Y49.3994 F120.00
G01 X55.8798 Y49.3900 F120.00
G01 X55.9416 Y49.3745 F120.00
G01 X56.0016 Y49.3530 F120.00
G01 X56.0593 Y49.3258 F120.00
G01 X56.1140 Y49.2930 F120.00
G01 X56.1652 Y49.2550 F120.00
G01 X56.2124 Y49.2122 F120.00
G01 X56.2552 Y49.1649 F120.00
G01 X56.2932 Y49.1137 F120.00
G01 X56.3260 Y49.0590 F120.00
G01 X56.3533 Y49.0014 F120.00
G01 X56.3748 Y48.9414 F120.00
G01 X56.3902 Y48.8795 F120.00
G01 X56.3996 Y48.8164 F120.00
G01 X56.4027 Y48.7528 F120.00
G00 X56.4027 Y48.7528
G01 F60.00
G01 Z-1.6000
G01 F120.00
G01 X56.3996 Y48.6891 F120.00
G01 X56.3902 Y48.6260 F120.00
G01 X56.3748 Y48.5642 F120.00
G01 X56.3533 Y48.5041 F120.00
G01 X56.3260 Y48.4465 F120.00
G01 X56.2932 Y48.3918 F120.00
G01 X56.2552 Y48.3406 F120.00
G01 X56.2124 Y48.2933 F120.00
G01 X56.1652 Y48.2505 F120.00
G01 X56.1140 Y48.2125 F120.00
G01 X56.0593 Y48.1797 F120.00
G01 X56.0016 Y48.1525 F120.00
G01 X55.9416 Y48.1310 F120.00
G01 X55.8798 Y48.1155 F120.00
G01 X55.8167 Y48.1062 F120.00
G01 X55.7530 Y48.1030 F120.00
G01 X55.6893 Y48.1062 F120.00
G01 X55.6262 Y48.1155 F120.00
G01 X55.5644 Y48.1310 F120.00
G01 X55.5044 Y48.1525 F120.00
G01 X55.4467 Y48.1797 F120.00
G01 X55.3920 Y48.2125 F120.00
G01 X55.3408 Y48.2505 F120.00
G01 X55.2936 Y48.2933 F120.00
G01 X55.2508 Y48.3406 F120.00
G01 X55.2128 Y48.3918 F120.00
G01 X55.1800 Y48.4465 F120.00
G01 X55.1527 Y48.5041 F120.00
G01 X55.1312 Y48.5642 F120.00
G01 X55.1158 Y48.6260 F120.00
G01 X55.1064 Y48.6891 F120.00
G01 X55.1033 Y48.7528 F120.00
G01 X55.1064 Y48.8164 F120.00
G01 X55.1158 Y48.8795 F120.00
G01 X55.1312 Y48.9414 F120.00
G01 X55.1527 Y49.0014 F120.00
G01 X55.1800 Y49.0590 F120.00
G01 X55.2128 Y49.1137 F120.00
G01 X55.2508 Y49.1649 F120.00
G01 X55.2936 Y49.2122 F120.00
G01 X55.3408 Y49.2550 F120.00
G01 X55.3920 Y49.2930 F120.00
G01 X55.4467 Y49.3258 F120.00
G01 X55.5044 Y49.3530 F120.00
G01 X55.5644 Y49.3745 F120.00
G01 X55.6262 Y49.3900 F120.00
G01 X55.6893 Y49.3994 F120.00
G01 X55.7530 Y49.4025 F120.00
G01 X55.8167 Y49.3994 F120.00
G01 X55.8798 Y49.3900 F120.00
G01 X55.9416 Y49.3745 F120.00
G01 X56.0016 Y49.3530 F120.00
G01 X56.0593 Y49.3258 F120.00
G01 X56.1140 Y49.2930 F120.00
G01 X56.1652 Y49.2550 F120.00
G01 X56.2124 Y49.2122 F120.00
G01 X56.2552 Y49.1649 F120.00
G01 X56.2932 Y49.1137 F120.00
G01 X56.3260 Y49.0590 F120.00
G01 X56.3533 Y49.0014 F120.00
G01 X56.3748 Y48.9414 F120.00
G01 X56.3902 Y48.8795 F120.00
G01 X56.3996 Y48.8164 F120.00
G01 X56.4027 Y48.7528 F120.00
G00 X56.4027 Y48.7528
G01 F60.00
G01 Z-2.0000
G01 F120.00
G01 X56.3996 Y48.6891 F120.00
G01 X56.3902 Y48.6260 F120.00
G01 X56.3748 Y48.5642 F120.00
G01 X56.3533 Y48.5041 F120.00
G01 X56.3260 Y48.4465 F120.00
G01 X56.2932 Y48.3918 F120.00
G01 X56.2552 Y48.3406 F120.00
G01 X56.2124 Y48.2933 F120.00
G01 X56.1652 Y48.2505 F120.00
G01 X56.1140 Y48.2125 F120.00
G01 X56.0593 Y48.1797 F120.00
G01 X56.0016 Y48.1525 F120.00
G01 X55.9416 Y48.1310 F120.00
G01 X55.8798 Y48.1155 F120.00
G01 X55.8167 Y48.1062 F120.00
G01 X55.7530 Y48.1030 F120.00
G01 X55.6893 Y48.1062 F120.00
G01 X55.6262 Y48.1155 F120.00
G01 X55.5644 Y48.1310 F120.00
G01 X55.5044 Y48.1525 F120.00
G01 X55.4467 Y48.1797 F120.00
G01 X55.3920 Y48.2125 F120.00
G01 X55.3408 Y48.2505 F120.00
G01 X55.2936 Y48.2933 F120.00
G01 X55.2508 Y48.3406 F120.00
G01 X55.2128 Y48.3918 F120.00
G01 X55.1800 Y48.4465 F120.00
G01 X55.1527 Y48.5041 F120.00
G01 X55.1312 Y48.5642 F120.00
G01 X55.1158 Y48.6260 F120.00
G01 X55.1064 Y48.6891 F120.00
G01 X55.1033 Y48.7528 F120.00
G01 X55.1064 Y48.8164 F120.00
G01 X55.1158 Y48.8795 F120.00
G01 X55.1312 Y48.9414 F120.00
G01 X55.1527 Y49.0014 F120.00
G01 X55.1800 Y49.0590 F120.00
G01 X55.2128 Y49.1137 F120.00
G01 X55.2508 Y49.1649 F120.00
G01 X55.2936 Y49.2122 F120.00
G01 X55.3408 Y49.2550 F120.00
G01 X55.3920 Y49.2930 F120.00
G01 X55.4467 Y49.3258 F120.00
G01 X55.5044 Y49.3530 F120.00
G01 X55.5644 Y49.3745 F120.00
G01 X55.6262 Y49.3900 F120.00
G01 X55.6893 Y49.3994 F120.00
G01 X55.7530 Y49.4025 F120.00
G01 X55.8167 Y49.3994 F120.00
G01 X55.8798 Y49.3900 F120.00
G01 X55.9416 Y49.3745 F120.00
G01 X56.0016 Y49.3530 F120.00
G01 X56.0593 Y49.3258 F120.00
G01 X56.1140 Y49.2930 F120.00
G01 X56.1652 Y49.2550 F120.00
G01 X56.2124 Y49.2122 F120.00
G01 X56.2552 Y49.1649 F120.00
G01 X56.2932 Y49.1137 F120.00
G01 X56.3260 Y49.0590 F120.00
G01 X56.3533 Y49.0014 F120.00
G01 X56.3748 Y48.9414 F120.00
G01 X56.3902 Y48.8795 F120.00
G01 X56.3996 Y48.8164 F120.00
G01 X56.4027 Y48.7528 F120.00
G00 Z2.0000
G00 X56.4027 Y5.7531
G01 F60.00
G01 Z-0.4000
G01 F120.00
G01 X56.3996 Y5.6894 F120.00
G01 X56.3902 Y5.6263 F120.00
G01 X56.3748 Y5.5645 F120.00
G01 X56.3533 Y5.5045 F120.00
G01 X56.3260 Y5.4468 F120.00
G01 X56.2932 Y5.3921 F120.00
G01 X56.2552 Y5.3409 F120.00
G01 X56.2124 Y5.2937 F120.00
G01 X56.1652 Y5.2509 F120.00
G01 X56.1140 Y5.2129 F120.00
G01 X56.0593 Y5.1801 F120.00
G01 X56.0016 Y5.1528 F120.00
G01 X55.9416 Y5.1313 F120.00
G01 X55.8798 Y5.1159 F120.00
G01 X55.8167 Y5.1065 F120.00
G01 X55.7530 Y5.1034 F120.00
G01 X55.6893 Y5.1065 F120.00
G01 X55.6262 Y5.1159 F120.00
G01 X55.5644 Y5.1313 F120.00
G01 X55.5044 Y5.1528 F120.00
G01 X55.4467 Y5.1801 F120.00
G01 X55.3920 Y5.2129 F120.00
G01 X55.3408 Y5.2509 F120.00
G01 X55.2936 Y5.2937 F120.00
G01 X55.2508 Y5.3409 F120.00
G01 X55.2128 Y5.3921 F120.00
G01 X55.1800 Y5.4468 F120.00
G01 X55.1527 Y5.5045 F120.00
G01 X55.1312 Y5.5645 F120.00
G01 X55.1158 Y5.6263 F120.00
G01 X55.1064 Y5.6894 F120.00
G01 X55.1033 Y5.7531 F120.00
G01 X55.1064 Y5.8168 F120.00
G01 X55.1158 Y5.8799 F120.00
G01 X55.1312 Y5.9417 F120.00
G01 X55.1527 Y6.0017 F120.00
G01 X55.1800 Y6.0594 F120.00
G01 X55.2128 Y6.1141 F120.00
G01 X55.2508 Y6.1653 F120.00
G01 X55.2936 Y6.2125 F120.00
G01 X55.3408 Y6.2553 F120.00
G01 X55.3920 Y6.2933 F120.00
G01 X55.4467 Y6.3261 F120.00
G01 X55.5044 Y6.3534 F120.00
G01 X55.5644 Y6.3749 F120.00
G01 X55.6262 Y6.3903 F120.00
G01 X55.6893 Y6.3997 F120.00
G01 X55.7530 Y6.4028 F120.00
G01 X55.8167 Y6.3997 F120.00
G01 X55.8798 Y6.3903 F120.00
G01 X55.9416 Y6.3749 F120.00
G01 X56.0016 Y6.3534 F120.00
G01 X56.0593 Y6.3261 F120.00
G01 X56.1140 Y6.2933 F120.00
G01 X56.1652 Y6.2553 F120.00
G01 X56.2124 Y6.2125 F120.00
G01 X56.2552 Y6.1653 F120.00
G01 X56.2932 Y6.1141 F120.00
G01 X56.3260 Y6.0594 F120.00
G01 X56.3533 Y6.0017 F120.00
G01 X56.3748 Y5.9417 F120.00
G01 X56.3902 Y5.8799 F120.00
G01 X56.3996 Y5.8168 F120.00
G01 X56.4027 Y5.7531 F120.00
G00 X56.4027 Y5.7531
G01 F60.00
G01 Z-0.8000
G01 F120.00
G01 X56.3996 Y5.6894 F120.00
G01 X56.3902 Y5.6263 F120.00
G01 X56.3748 Y5.5645 F120.00
G01 X56.3533 Y5.5045 F120.00
G01 X56.3260 Y5.4468 F120.00
G01 X56.2932 Y5.3921 F120.00
G01 X56.2552 Y5.3409 F120.00
G01 X56.2124 Y5.2937 F120.00
G01 X56.1652 Y5.2509 F120.00
G01 X56.1140 Y5.2129 F120.00
G01 X56.0593 Y5.1801 F120.00
G01 X56.0016 Y5.1528 F120.00
G01 X55.9416 Y5.1313 F120.00
G01 X55.8798 Y5.1159 F120.00
G01 X55.8167 Y5.1065 F120.00
G01 X55.7530 Y5.1034 F120.00
G01 X55.6893 Y5.1065 F120.00
G01 X55.6262 Y5.1159 F120.00
G01 X55.5644 Y5.1313 F120.00
G01 X55.5044 Y5.1528 F120.00
G01 X55.4467 Y5.1801 F120.00
G01 X55.3920 Y5.2129 F120.00
G01 X55.3408 Y5.2509 F120.00
G01 X55.2936 Y5.2937 F120.00
G01 X55.2508 Y5.3409 F120.00
G01 X55.2128 Y5.3921 F120.00
G01 X55.1800 Y5.4468 F120.00
G01 X55.1527 Y5.5045 F120.00
G01 X55.1312 Y5.5645 F120.00
G01 X55.1158 Y5.6263 F120.00
G01 X55.1064 Y5.6894 F120.00
G01 X55.1033 Y5.7531 F120.00
G01 X55.1064 Y5.8168 F120.00
G01 X55.1158 Y5.8799 F120.00
G01 X55.1312 Y5.9417 F120.00
G01 X55.1527 Y6.0017 F120.00
G01 X55.1800 Y6.0594 F120.00
G01 X55.2128 Y6.1141 F120.00
G01 X55.2508 Y6.1653 F120.00
G01 X55.2936 Y6.2125 F120.00
G01 X55.3408 Y6.2553 F120.00
G01 X55.3920 Y6.2933 F120.00
G01 X55.4467 Y6.3261 F120.00
G01 X55.5044 Y6.3534 F120.00
G01 X55.5644 Y6.3749 F120.00
G01 X55.6262 Y6.3903 F120.00
G01 X55.6893 Y6.3997 F120.00
G01 X55.7530 Y6.4028 F120.00
G01 X55.8167 Y6.3997 F120.00
G01 X55.8798 Y6.3903 F120.00
G01 X55.9416 Y6.3749 F120.00
G01 X56.0016 Y6.3534 F120.00
G01 X56.0593 Y6.3261 F120.00
G01 X56.1140 Y6.2933 F120.00
G01 X56.1652 Y6.2553 F120.00
G01 X56.2124 Y6.2125 F120.00
G01 X56.2552 Y6.1653 F120.00
G01 X56.2932 Y6.1141 F120.00
G01 X56.3260 Y6.0594 F120.00
G01 X56.3533 Y6.0017 F120.00
G01 X56.3748 Y5.9417 F120.00
G01 X56.3902 Y5.8799 F120.00
G01 X56.3996 Y5.8168 F120.00
G01 X56.4027 Y5.7531 F120.00
G00 X56.4027 Y5.7531
G01 F60.00
G01 Z-1.2000
G01 F120.00
G01 X56.3996 Y5.6894 F120.00
G01 X56.3902 Y5.6263 F120.00
G01 X56.3748 Y5.5645 F120.00
G01 X56.3533 Y5.5045 F120.00
G01 X56.3260 Y5.4468 F120.00
G01 X56.2932 Y5.3921 F120.00
G01 X56.2552 Y5.3409 F120.00
G01 X56.2124 Y5.2937 F120.00
G01 X56.1652 Y5.2509 F120.00
G01 X56.1140 Y5.2129 F120.00
G01 X56.0593 Y5.1801 F120.00
G01 X56.0016 Y5.1528 F120.00
G01 X55.9416 Y5.1313 F120.00
G01 X55.8798 Y5.1159 F120.00
G01 X55.8167 Y5.1065 F120.00
G01 X55.7530 Y5.1034 F120.00
G01 X55.6893 Y5.1065 F120.00
G01 X55.6262 Y5.1159 F120.00
G01 X55.5644 Y5.1313 F120.00
G01 X55.5044 Y5.1528 F120.00
G01 X55.4467 Y5.1801 F120.00
G01 X55.3920 Y5.2129 F120.00
G01 X55.3408 Y5.2509 F120.00
G01 X55.2936 Y5.2937 F120.00
G01 X55.2508 Y5.3409 F120.00
G01 X55.2128 Y5.3921 F120.00
G01 X55.1800 Y5.4468 F120.00
G01 X55.1527 Y5.5045 F120.00
G01 X55.1312 Y5.5645 F120.00
G01 X55.1158 Y5.6263 F120.00
G01 X55.1064 Y5.6894 F120.00
G01 X55.1033 Y5.7531 F120.00
G01 X55.1064 Y5.8168 F120.00
G01 X55.1158 Y5.8799 F120.00
G01 X55.1312 Y5.9417 F120.00
G01 X55.1527 Y6.0017 F120.00
G01 X55.1800 Y6.0594 F120.00
G01 X55.2128 Y6.1141 F120.00
G01 X55.2508 Y6.1653 F120.00
G01 X55.2936 Y6.2125 F120.00
G01 X55.3408 Y6.2553 F120.00
G01 X55.3920 Y6.2933 F120.00
G01 X55.4467 Y6.3261 F120.00
G01 X55.5044 Y6.3534 F120.00
G01 X55.5644 Y6.3749 F120.00
G01 X55.6262 Y6.3903 F120.00
G01 X55.6893 Y6.3997 F120.00
G01 X55.7530 Y6.4028 F120.00
G01 X55.8167 Y6.3997 F120.00
G01 X55.8798 Y6.3903 F120.00
G01 X55.9416 Y6.3749 F120.00
G01 X56.0016 Y6.3534 F120.00
G01 X56.0593 Y6.3261 F120.00
G01 X56.1140 Y6.2933 F120.00
G01 X56.1652 Y6.2553 F120.00
G01 X56.2124 Y6.2125 F120.00
G01 X56.2552 Y6.1653 F120.00
G01 X56.2932 Y6.1141 F120.00
G01 X56.3260 Y6.0594 F120.00
G01 X56.3533 Y6.0017 F120.00
G01 X56.3748 Y5.9417 F120.00
G01 X56.3902 Y5.8799 F120.00
G01 X56.3996 Y5.8168 F120.00
G01 X56.4027 Y5.7531 F120.00
G00 X56.4027 Y5.7531
G01 F60.00
G01 Z-1.6000
G01 F120.00
G01 X56.3996 Y5.6894 F120.00
G01 X56.3902 Y5.6263 F120.00
G01 X56.3748 Y5.5645 F120.00
G01 X56.3533 Y5.5045 F120.00
G01 X56.3260 Y5.4468 F120.00
G01 X56.2932 Y5.3921 F120.00
G01 X56.2552 Y5.3409 F120.00
G01 X56.2124 Y5.2937 F120.00
G01 X56.1652 Y5.2509 F120.00
G01 X56.1140 Y5.2129 F120.00
G01 X56.0593 Y5.1801 F120.00
G01 X56.0016 Y5.1528 F120.00
G01 X55.9416 Y5.1313 F120.00
G01 X55.8798 Y5.1159 F120.00
G01 X55.8167 Y5.1065 F120.00
G01 X55.7530 Y5.1034 F120.00
G01 X55.6893 Y5.1065 F120.00
G01 X55.6262 Y5.1159 F120.00
G01 X55.5644 Y5.1313 F120.00
G01 X55.5044 Y5.1528 F120.00
G01 X55.4467 Y5.1801 F120.00
G01 X55.3920 Y5.2129 F120.00
G01 X55.3408 Y5.2509 F120.00
G01 X55.2936 Y5.2937 F120.00
G01 X55.2508 Y5.3409 F120.00
G01 X55.2128 Y5.3921 F120.00
G01 X55.1800 Y5.4468 F120.00
G01 X55.1527 Y5.5045 F120.00
G01 X55.1312 Y5.5645 F120.00
G01 X55.1158 Y5.6263 F120.00
G01 X55.1064 Y5.6894 F120.00
G01 X55.1033 Y5.7531 F120.00
G01 X55.1064 Y5.8168 F120.00
G01 X55.1158 Y5.8799 F120.00
G01 X55.1312 Y5.9417 F120.00
G01 X55.1527 Y6.0017 F120.00
G01 X55.1800 Y6.0594 F120.00
G01 X55.2128 Y6.1141 F120.00
G01 X55.2508 Y6.1653 F120.00
G01 X55.2936 Y6.2125 F120.00
G01 X55.3408 Y6.2553 F120.00
G01 X55.3920 Y6.2933 F120.00
G01 X55.4467 Y6.3261 F120.00
G01 X55.5044 Y6.3534 F120.00
G01 X55.5644 Y6.3749 F120.00
G01 X55.6262 Y6.3903 F120.00
G01 X55.6893 Y6.3997 F120.00
G01 X55.7530 Y6.4028 F120.00
G01 X55.8167 Y6.3997 F120.00
G01 X55.8798 Y6.3903 F120.00
G01 X55.9416 Y6.3749 F120.00
G01 X56.0016 Y6.3534 F120.00
G01 X56.0593 Y6.3261 F120.00
G01 X56.1140 Y6.2933 F120.00
G01 X56.1652 Y6.2553 F120.00
G01 X56.2124 Y6.2125 F120.00
G01 X56.2552 Y6.1653 F120.00
G01 X56.2932 Y6.1141 F120.00
G01 X56.3260 Y6.0594 F120.00
G01 X56.3533 Y6.0017 F120.00
G01 X56.3748 Y5.9417 F120.00
G01 X56.3902 Y5.8799 F120.00
G01 X56.3996 Y5.8168 F120.00
G01 X56.4027 Y5.7531 F120.00
G00 X56.4027 Y5.7531
G01 F60.00
G01 Z-2.0000
G01 F120.00
G01 X56.3996 Y5.6894 F120.00
G01 X56.3902 Y5.6263 F120.00
G01 X56.3748 Y5.5645 F120.00
G01 X56.3533 Y5.5045 F120.00
G01 X56.3260 Y5.4468 F120.00
G01 X56.2932 Y5.3921 F120.00
G01 X56.2552 Y5.3409 F120.00
G01 X56.2124 Y5.2937 F120.00
G01 X56.1652 Y5.2509 F120.00
G01 X56.1140 Y5.2129 F120.00
G01 X56.0593 Y5.1801 F120.00
G01 X56.0016 Y5.1528 F120.00
G01 X55.9416 Y5.1313 F120.00
G01 X55.8798 Y5.1159 F120.00
G01 X55.8167 Y5.1065 F120.00
G01 X55.7530 Y5.1034 F120.00
G01 X55.6893 Y5.1065 F120.00
G01 X55.6262 Y5.1159 F120.00
G01 X55.5644 Y5.1313 F120.00
G01 X55.5044 Y5.1528 F120.00
G01 X55.4467 Y5.1801 F120.00
G01 X55.3920 Y5.2129 F120.00
G01 X55.3408 Y5.2509 F120.00
G01 X55.2936 Y5.2937 F120.00
G01 X55.2508 Y5.3409 F120.00
G01 X55.2128 Y5.3921 F120.00
G01 X55.1800 Y5.4468 F120.00
G01 X55.1527 Y5.5045 F120.00
G01 X55.1312 Y5.5645 F120.00
G01 X55.1158 Y5.6263 F120.00
G01 X55.1064 Y5.6894 F120.00
G01 X55.1033 Y5.7531 F120.00
G01 X55.1064 Y5.8168 F120.00
G01 X55.1158 Y5.8799 F120.00
G01 X55.1312 Y5.9417 F120.00
G01 X55.1527 Y6.0017 F120.00
G01 X55.1800 Y6.0594 F120.00
G01 X55.2128 Y6.1141 F120.00
G01 X55.2508 Y6.1653 F120.00
G01 X55.2936 Y6.2125 F120.00
G01 X55.3408 Y6.2553 F120.00
G01 X55.3920 Y6.2933 F120.00
G01 X55.4467 Y6.3261 F120.00
G01 X55.5044 Y6.3534 F120.00
G01 X55.5644 Y6.3749 F120.00
G01 X55.6262 Y6.3903 F120.00
G01 X55.6893 Y6.3997 F120.00
G01 X55.7530 Y6.4028 F120.00
G01 X55.8167 Y6.3997 F120.00
G01 X55.8798 Y6.3903 F120.00
G01 X55.9416 Y6.3749 F120.00
G01 X56.0016 Y6.3534 F120.00
G01 X56.0593 Y6.3261 F120.00
G01 X56.1140 Y6.2933 F120.00
G01 X56.1652 Y6.2553 F120.00
G01 X56.2124 Y6.2125 F120.00
G01 X56.2552 Y6.1653 F120.00
G01 X56.2932 Y6.1141 F120.00
G01 X56.3260 Y6.0594 F120.00
G01 X56.3533 Y6.0017 F120.00
G01 X56.3748 Y5.9417 F120.00
G01 X56.3902 Y5.8799 F120.00
G01 X56.3996 Y5.8168 F120.00
G01 X56.4027 Y5.7531 F120.00
G00 Z2.0000
M05
G00 Z2.0000
G00 Z15.00


; END
M5
