(.../Eagle_ulp/mill_new/pcb-gcode.ulp)
(Copyright 2005 - 2012 by John Johnson)
(See readme.txt for licensing terms.)
(This file generated from the board:)
(.../IO_SPI/DPS/RPi_SPI_inputs_v03.brd)
(Current profile is .../Eagle_ulp/mill_new/profiles/GRBL.pp  )
(This file generated 19.01.2023 13:59:42)
(Settings from pcb-machine.h)
(  Tool Size)
(0.1900 )
(Z Axis Settings)
(  High     Up        Down     Drill)
(3.0000 	0.8000 	-0.0800 	-4.0000 )
(spindle on time = 2.0000)
(milling depth = -3.0000)
(text depth = -0.1000)
(tool change at 0.0000 20.0000 14.0000 )
(feed rate xy = F240.00 )
(feed rate z  = F100.00 )
( Tool|   Size   |  Min Sub |  Max Sub |   Count )
( T02     0.800mm 0.0315in 0.0236in 0.0320in 0061)
( T03     0.900mm 0.0354in 0.0354in 0.0360in 0040)
G21
(Absolute Coordinates)
G90
M05
G00 Z14.0000 
G00 X20.0000 Y20.0000 
T02  ; 0.8000 
M00
G00 X31.7500 Y-31.7500 
M03
G04 P2.00
G00 Z1.2000 
G00 Z1.200000
G00 X31.7500 Y-31.7500 
G01 Z-4.0000 F200.00 
G04 P0.300000 ; wait at bottom of hole
G00 Z1.2000 ; wait 0.30
G00 X31.7500 Y-24.1300 
G01 Z-4.000000
G04 P0.300000
G00 Z1.200000
G00 X33.0200 Y-39.3700 
G01 Z-4.000000
G04 P0.300000
G00 Z1.200000
G00 X34.2900 Y-31.7500 
G01 Z-4.000000
G04 P0.300000
G00 Z1.200000
G00 X34.2900 Y-24.1300 
G01 Z-4.000000
G04 P0.300000
G00 Z1.200000
G00 X3.5000 Y-3.5000 
G01 Z-4.000000
G04 P0.300000
G00 Z1.200000
G00 X3.5000 Y-46.5000 
G01 Z-4.000000
G04 P0.300000
G00 Z1.200000
G00 X35.5600 Y-39.3700 
G01 Z-4.000000
G04 P0.300000
G00 Z1.200000
G00 X36.8300 Y-31.7500 
G01 Z-4.000000
G04 P0.300000
G00 Z1.200000
G00 X36.8300 Y-24.1300 
G01 Z-4.000000
G04 P0.300000
G00 Z1.200000
G00 X3.8100 Y-39.3700 
G01 Z-4.000000
G04 P0.300000
G00 Z1.200000
G00 X38.1000 Y-39.3700 
G01 Z-4.000000
G04 P0.300000
G00 Z1.200000
G00 X38.1000 Y-13.0175 
G01 Z-4.000000
G04 P0.300000
G00 Z1.200000
G00 X38.1000 Y-18.0975 
G01 Z-4.000000
G04 P0.300000
G00 Z1.200000
G00 X39.3700 Y-31.7500 
G01 Z-4.000000
G04 P0.300000
G00 Z1.200000
G00 X39.3700 Y-24.1300 
G01 Z-4.000000
G04 P0.300000
G00 Z1.200000
G00 X40.6400 Y-39.3700 
G01 Z-4.000000
G04 P0.300000
G00 Z1.200000
G00 X41.9100 Y-31.7500 
G01 Z-4.000000
G04 P0.300000
G00 Z1.200000
G00 X41.9100 Y-24.1300 
G01 Z-4.000000
G04 P0.300000
G00 Z1.200000
G00 X43.1800 Y-39.3700 
G01 Z-4.000000
G04 P0.300000
G00 Z1.200000
G00 X44.4500 Y-31.7500 
G01 Z-4.000000
G04 P0.300000
G00 Z1.200000
G00 X44.4500 Y-24.1300 
G01 Z-4.000000
G04 P0.300000
G00 Z1.200000
G00 X45.7200 Y-39.3700 
G01 Z-4.000000
G04 P0.300000
G00 Z1.200000
G00 X46.9900 Y-31.7500 
G01 Z-4.000000
G04 P0.300000
G00 Z1.200000
G00 X46.9900 Y-24.1300 
G01 Z-4.000000
G04 P0.300000
G00 Z1.200000
G00 X48.2600 Y-39.3700 
G01 Z-4.000000
G04 P0.300000
G00 Z1.200000
G00 X5.0800 Y-31.7500 
G01 Z-4.000000
G04 P0.300000
G00 Z1.200000
G00 X5.0800 Y-24.1300 
G01 Z-4.000000
G04 P0.300000
G00 Z1.200000
G00 X53.5000 Y-3.5000 
G01 Z-4.000000
G04 P0.300000
G00 Z1.200000
G00 X53.5000 Y-46.5000 
G01 Z-4.000000
G04 P0.300000
G00 Z1.200000
G00 X6.3500 Y-35.5600 
G01 Z-4.000000
G04 P0.300000
G00 Z1.200000
G00 X6.3500 Y-39.3700 
G01 Z-4.000000
G04 P0.300000
G00 Z1.200000
G00 X7.6200 Y-31.7500 
G01 Z-4.000000
G04 P0.300000
G00 Z1.200000
G00 X7.6200 Y-24.1300 
G01 Z-4.000000
G04 P0.300000
G00 Z1.200000
G00 X8.8900 Y-39.3700 
G01 Z-4.000000
G04 P0.300000
G00 Z1.200000
G00 X10.1600 Y-31.7500 
G01 Z-4.000000
G04 P0.300000
G00 Z1.200000
G00 X10.1600 Y-24.1300 
G01 Z-4.000000
G04 P0.300000
G00 Z1.200000
G00 X11.4300 Y-39.3700 
G01 Z-4.000000
G04 P0.300000
G00 Z1.200000
G00 X12.7000 Y-31.7500 
G01 Z-4.000000
G04 P0.300000
G00 Z1.200000
G00 X12.7000 Y-24.1300 
G01 Z-4.000000
G04 P0.300000
G00 Z1.200000
G00 X13.9700 Y-39.3700 
G01 Z-4.000000
G04 P0.300000
G00 Z1.200000
G00 X15.2400 Y-31.7500 
G01 Z-4.000000
G04 P0.300000
G00 Z1.200000
G00 X15.2400 Y-24.1300 
G01 Z-4.000000
G04 P0.300000
G00 Z1.200000
G00 X16.5100 Y-39.3700 
G01 Z-4.000000
G04 P0.300000
G00 Z1.200000
G00 X17.7800 Y-31.7500 
G01 Z-4.000000
G04 P0.300000
G00 Z1.200000
G00 X17.7800 Y-24.1300 
G01 Z-4.000000
G04 P0.300000
G00 Z1.200000
G00 X19.0500 Y-39.3700 
G01 Z-4.000000
G04 P0.300000
G00 Z1.200000
G00 X20.3200 Y-31.7500 
G01 Z-4.000000
G04 P0.300000
G00 Z1.200000
G00 X20.3200 Y-24.1300 
G01 Z-4.000000
G04 P0.300000
G00 Z1.200000
G00 X21.5900 Y-39.3700 
G01 Z-4.000000
G04 P0.300000
G00 Z1.200000
G00 X22.8600 Y-31.7500 
G01 Z-4.000000
G04 P0.300000
G00 Z1.200000
G00 X22.8600 Y-13.0175 
G01 Z-4.000000
G04 P0.300000
G00 Z1.200000
G00 X22.8600 Y-18.0975 
G01 Z-4.000000
G04 P0.300000
G00 Z1.200000
G00 X22.8600 Y-24.1300 
G01 Z-4.000000
G04 P0.300000
G00 Z1.200000
G00 X24.1300 Y-39.3700 
G01 Z-4.000000
G04 P0.300000
G00 Z1.200000
G00 X25.4000 Y-35.5600 
G01 Z-4.000000
G04 P0.300000
G00 Z1.200000
G00 X26.6700 Y-6.6675 
G01 Z-4.000000
G04 P0.300000
G00 Z1.200000
G00 X26.6700 Y-18.0975 
G01 Z-4.000000
G04 P0.300000
G00 Z1.200000
G00 X27.9400 Y-39.3700 
G01 Z-4.000000
G04 P0.300000
G00 Z1.200000
G00 X29.2100 Y-31.7500 
G01 Z-4.000000
G04 P0.300000
G00 Z1.200000
G00 X29.2100 Y-24.1300 
G01 Z-4.000000
G04 P0.300000
G00 Z1.200000
G00 X30.4800 Y-39.3700 
G01 Z-4.000000
G04 P0.300000
G00 Z1.200000
G00 X30.4800 Y-10.4775 
G01 Z-4.000000
G04 P0.300000
G00 Z1.200000
G00 X30.4800 Y-18.0975 
G01 Z-4.000000
G04 P0.300000
G00 Z1.200000
M05
G00 Z14.0000 
G00 X20.0000 Y20.0000 
T03  ; 0.9000 
M00
G00 X33.0200 Y-47.6250 
M03
G04 P2.00
G00 Z1.2000 
G00 Z1.200000
G00 X33.0200 Y-47.6250 
G01 Z-4.0000 F200.00 
G04 P0.300000 ; wait at bottom of hole
G00 Z1.2000 ; wait 0.30
G00 X35.5600 Y-47.6250 
G01 Z-4.000000
G04 P0.300000
G00 Z1.200000
G00 X38.1000 Y-47.6250 
G01 Z-4.000000
G04 P0.300000
G00 Z1.200000
G00 X40.6400 Y-47.6250 
G01 Z-4.000000
G04 P0.300000
G00 Z1.200000
G00 X43.1800 Y-47.6250 
G01 Z-4.000000
G04 P0.300000
G00 Z1.200000
G00 X43.1800 Y-5.0800 
G01 Z-4.000000
G04 P0.300000
G00 Z1.200000
G00 X43.1800 Y-7.6200 
G01 Z-4.000000
G04 P0.300000
G00 Z1.200000
G00 X43.1800 Y-10.1600 
G01 Z-4.000000
G04 P0.300000
G00 Z1.200000
G00 X43.1800 Y-12.7000 
G01 Z-4.000000
G04 P0.300000
G00 Z1.200000
G00 X43.1800 Y-15.2400 
G01 Z-4.000000
G04 P0.300000
G00 Z1.200000
G00 X45.7200 Y-47.6250 
G01 Z-4.000000
G04 P0.300000
G00 Z1.200000
G00 X45.7200 Y-5.0800 
G01 Z-4.000000
G04 P0.300000
G00 Z1.200000
G00 X45.7200 Y-7.6200 
G01 Z-4.000000
G04 P0.300000
G00 Z1.200000
G00 X45.7200 Y-10.1600 
G01 Z-4.000000
G04 P0.300000
G00 Z1.200000
G00 X45.7200 Y-12.7000 
G01 Z-4.000000
G04 P0.300000
G00 Z1.200000
G00 X45.7200 Y-15.2400 
G01 Z-4.000000
G04 P0.300000
G00 Z1.200000
G00 X48.2600 Y-47.6250 
G01 Z-4.000000
G04 P0.300000
G00 Z1.200000
G00 X53.3400 Y-25.4000 
G01 Z-4.000000
G04 P0.300000
G00 Z1.200000
G00 X53.3400 Y-27.9400 
G01 Z-4.000000
G04 P0.300000
G00 Z1.200000
G00 X53.3400 Y-30.4800 
G01 Z-4.000000
G04 P0.300000
G00 Z1.200000
G00 X8.8900 Y-47.6250 
G01 Z-4.000000
G04 P0.300000
G00 Z1.200000
G00 X11.4300 Y-47.6250 
G01 Z-4.000000
G04 P0.300000
G00 Z1.200000
G00 X11.4300 Y-5.0800 
G01 Z-4.000000
G04 P0.300000
G00 Z1.200000
G00 X11.4300 Y-7.6200 
G01 Z-4.000000
G04 P0.300000
G00 Z1.200000
G00 X11.4300 Y-10.1600 
G01 Z-4.000000
G04 P0.300000
G00 Z1.200000
G00 X11.4300 Y-12.7000 
G01 Z-4.000000
G04 P0.300000
G00 Z1.200000
G00 X11.4300 Y-15.2400 
G01 Z-4.000000
G04 P0.300000
G00 Z1.200000
G00 X13.9700 Y-47.6250 
G01 Z-4.000000
G04 P0.300000
G00 Z1.200000
G00 X13.9700 Y-5.0800 
G01 Z-4.000000
G04 P0.300000
G00 Z1.200000
G00 X13.9700 Y-7.6200 
G01 Z-4.000000
G04 P0.300000
G00 Z1.200000
G00 X13.9700 Y-10.1600 
G01 Z-4.000000
G04 P0.300000
G00 Z1.200000
G00 X13.9700 Y-12.7000 
G01 Z-4.000000
G04 P0.300000
G00 Z1.200000
G00 X13.9700 Y-15.2400 
G01 Z-4.000000
G04 P0.300000
G00 Z1.200000
G00 X16.5100 Y-47.6250 
G01 Z-4.000000
G04 P0.300000
G00 Z1.200000
G00 X19.0500 Y-47.6250 
G01 Z-4.000000
G04 P0.300000
G00 Z1.200000
G00 X21.5900 Y-47.6250 
G01 Z-4.000000
G04 P0.300000
G00 Z1.200000
G00 X24.1300 Y-47.6250 
G01 Z-4.000000
G04 P0.300000
G00 Z1.200000
G00 X26.6700 Y-47.6250 
G01 Z-4.000000
G04 P0.300000
G00 Z1.200000
G00 X30.4800 Y-47.6250 
G01 Z-4.000000
G04 P0.300000
G00 Z1.200000
T01 
G00 Z3.0000 
M05
M02
