(.../Eagle_ulp/mill_new/pcb-gcode.ulp)
(Copyright 2005 - 2012 by John Johnson)
(See readme.txt for licensing terms.)
(This file generated from the board:)
(.../IO_SPI/DPS/RPi_SPI_inputs_v03.brd)
(Current profile is .../Eagle_ulp/mill_new/profiles/GRBL.pp  )
(This file generated 19.01.2023 13:59:26)
(Settings from pcb-machine.h)
(  Tool Size)
(0.1900 )
(Z Axis Settings)
(  High     Up        Down     Drill)
(3.0000 	0.8000 	-0.0800 	-4.0000 )
(spindle on time = 2.0000)
(milling depth = -3.0000)
(text depth = -0.1000)
(tool change at 0.0000 20.0000 14.0000 )
(feed rate xy = F240.00 )
(feed rate z  = F100.00 )
G21
(Absolute Coordinates)
G90
G00 X0.0000 Y0.0000 
M03
G04 P2.00
G00 Z0.8000 
G00 X28.4006 Y-24.8541 
G01 Z-0.0800 F100.00 
G01 X28.4205 Y-24.9799 F240.00 
G01 X28.4599 Y-25.1011 
G01 X28.5177 Y-25.2146 
G01 X28.5926 Y-25.3177 
G01 X28.6827 Y-25.4078 
G01 X28.7858 Y-25.4827 
G01 X28.8993 Y-25.5405 
G01 X28.9018 Y-25.4912 
G01 X28.8474 Y-25.4687 
G01 X28.7221 Y-25.3849 
G01 X28.6155 Y-25.2783 
G01 X28.5317 Y-25.1530 
G01 X28.4740 Y-25.0137 
G01 X28.4446 Y-24.8658 
G01 X28.4446 Y-24.4382 
G01 X28.4006 Y-24.4382 
G01 X28.4006 Y-24.8541 
G00 Z0.8000 
G00 X28.8993 Y-22.7195 
G01 Z-0.0800 F100.00 
G01 X28.7858 Y-22.7773 F240.00 
G01 X28.6827 Y-22.8522 
G01 X28.5926 Y-22.9423 
G01 X28.5177 Y-23.0454 
G01 X28.4599 Y-23.1589 
G01 X28.4205 Y-23.2801 
G01 X28.4006 Y-23.4059 
G01 X28.4006 Y-23.8218 
G01 X28.4446 Y-23.8218 
G01 X28.4446 Y-23.3942 
G01 X28.4740 Y-23.2463 
G01 X28.5317 Y-23.1070 
G01 X28.6155 Y-22.9817 
G01 X28.7221 Y-22.8751 
G01 X28.8474 Y-22.7913 
G01 X28.9018 Y-22.7688 
G01 X28.9018 Y-22.7187 
G00 Z0.8000 
G00 X33.0607 Y-3.7118 
G01 Z-0.0800 F100.00 
G01 X30.1506 Y-3.7118 F240.00 
G01 X30.0722 Y-3.6908 
G01 X30.0019 Y-3.6502 
G01 X29.9445 Y-3.5928 
G01 X29.9039 Y-3.5226 
G01 X29.8829 Y-3.4442 
G01 X29.8829 Y-3.3630 
G01 X29.9039 Y-3.2846 
G01 X29.9445 Y-3.2144 
G01 X30.0019 Y-3.1570 
G01 X30.5782 Y-2.5807 
G01 X30.5782 Y-2.4993 
G01 X30.5207 Y-2.4418 
G01 X30.4393 Y-2.4418 
G01 X29.1118 Y-3.7693 
G01 X29.1118 Y-3.8507 
G01 X29.2883 Y-4.0272 
G01 X30.4393 Y-5.1782 
G01 X30.5207 Y-5.1782 
G01 X30.5782 Y-5.1207 
G01 X30.5782 Y-5.0393 
G01 X30.0019 Y-4.4630 
G01 X29.9562 Y-4.4174 
G01 X29.9445 Y-4.4056 
G01 X29.9039 Y-4.3354 
G01 X29.8829 Y-4.2570 
G01 X29.8829 Y-4.1758 
G01 X29.9039 Y-4.0974 
G01 X29.9445 Y-4.0272 
G01 X30.0019 Y-3.9698 
G01 X30.0722 Y-3.9292 
G01 X30.1506 Y-3.9082 
G01 X33.0607 Y-3.9082 
G01 X33.1182 Y-3.8507 
G01 X33.1182 Y-3.7693 
G01 X33.0607 Y-3.7118 
G00 Z0.8000 
G00 X11.0737 Y-4.2198 
G01 Z-0.0800 F100.00 
G01 X10.5698 Y-4.7237 F240.00 
G01 X10.5698 Y-4.7464 
G01 X10.6138 Y-4.7464 
G01 X10.6138 Y-4.7419 
G01 X11.0919 Y-4.2638 
G01 X11.0964 Y-4.2638 
G01 X11.0964 Y-4.2198 
G01 X11.0737 Y-4.2198 
G00 Z0.8000 
G00 X12.2902 Y-4.7237 
G01 Z-0.0800 F100.00 
G01 X11.7863 Y-4.2198 F240.00 
G01 X11.7636 Y-4.2198 
G01 X11.7636 Y-4.2638 
G01 X11.7681 Y-4.2638 
G01 X12.2462 Y-4.7419 
G01 X12.2462 Y-4.7464 
G01 X12.2902 Y-4.7464 
G01 X12.2902 Y-4.7237 
G00 Z0.8000 
G00 X21.1396 Y-3.9115 
G01 Z-0.0800 F100.00 
G01 X21.1775 Y-3.9013 F240.00 
G01 X21.2115 Y-3.8817 
G01 X21.2392 Y-3.8540 
G01 X21.2588 Y-3.8200 
G01 X21.2690 Y-3.7821 
G01 X21.2690 Y-3.6425 
G01 X21.2250 Y-3.6425 
G01 X21.2250 Y-3.7834 
G01 X21.2090 Y-3.8220 
G01 X21.1795 Y-3.8515 
G01 X21.1409 Y-3.8675 
G01 X20.6500 Y-3.8675 
G01 X20.6500 Y-3.9115 
G01 X21.1396 Y-3.9115 
G00 Z0.8000 
G00 X21.1409 Y-2.7575 
G01 Z-0.0800 F100.00 
G01 X21.1795 Y-2.7735 F240.00 
G01 X21.2090 Y-2.8030 
G01 X21.2250 Y-2.8416 
G01 X21.2250 Y-2.9825 
G01 X21.2690 Y-2.9825 
G01 X21.2690 Y-2.8429 
G01 X21.2588 Y-2.8050 
G01 X21.2392 Y-2.7710 
G01 X21.2115 Y-2.7433 
G01 X21.1775 Y-2.7237 
G01 X21.1396 Y-2.7135 
G01 X20.6500 Y-2.7135 
G01 X20.6500 Y-2.7575 
G01 X21.1409 Y-2.7575 
G00 Z0.8000 
G00 X19.4991 Y-2.7575 
G01 Z-0.0800 F100.00 
G01 X19.9900 Y-2.7575 F240.00 
G01 X19.9900 Y-2.7135 
G01 X19.5004 Y-2.7135 
G01 X19.4625 Y-2.7237 
G01 X19.4285 Y-2.7433 
G01 X19.4008 Y-2.7710 
G01 X19.3812 Y-2.8050 
G01 X19.3710 Y-2.8429 
G01 X19.3710 Y-2.9825 
G01 X19.4150 Y-2.9825 
G01 X19.4150 Y-2.8416 
G01 X19.4310 Y-2.8030 
G01 X19.4605 Y-2.7735 
G01 X19.4991 Y-2.7575 
G00 Z0.8000 
G00 X19.3710 Y-3.7821 
G01 Z-0.0800 F100.00 
G01 X19.3811 Y-3.8200 F240.00 
G01 X19.4008 Y-3.8540 
G01 X19.4285 Y-3.8817 
G01 X19.4625 Y-3.9013 
G01 X19.5004 Y-3.9115 
G01 X19.9900 Y-3.9115 
G01 X19.9900 Y-3.8675 
G01 X19.4991 Y-3.8675 
G01 X19.4605 Y-3.8515 
G01 X19.4310 Y-3.8220 
G01 X19.4150 Y-3.7834 
G01 X19.4150 Y-3.6425 
G01 X19.3710 Y-3.6425 
G01 X19.3710 Y-3.7821 
G00 Z0.8000 
G00 X4.3146 Y-24.8658 
G01 Z-0.0800 F100.00 
G01 X4.3146 Y-24.4382 F240.00 
G01 X4.2706 Y-24.4382 
G01 X4.2706 Y-24.8541 
G01 X4.2905 Y-24.9799 
G01 X4.3299 Y-25.1011 
G01 X4.3877 Y-25.2146 
G01 X4.4626 Y-25.3177 
G01 X4.5527 Y-25.4078 
G01 X4.6558 Y-25.4827 
G01 X4.7693 Y-25.5405 
G01 X4.7718 Y-25.4912 
G01 X4.7174 Y-25.4687 
G01 X4.5921 Y-25.3849 
G01 X4.4855 Y-25.2783 
G01 X4.4017 Y-25.1530 
G01 X4.3440 Y-25.0137 
G01 X4.3146 Y-24.8658 
G00 Z0.8000 
G00 X4.3146 Y-23.3942 
G01 Z-0.0800 F100.00 
G01 X4.3440 Y-23.2463 F240.00 
G01 X4.4017 Y-23.1070 
G01 X4.4855 Y-22.9817 
G01 X4.5921 Y-22.8751 
G01 X4.7174 Y-22.7913 
G01 X4.7718 Y-22.7688 
G01 X4.7718 Y-22.7187 
G01 X4.6558 Y-22.7773 
G01 X4.5527 Y-22.8522 
G01 X4.4626 Y-22.9423 
G01 X4.3877 Y-23.0454 
G01 X4.3299 Y-23.1589 
G01 X4.2905 Y-23.2801 
G01 X4.2706 Y-23.4059 
G01 X4.2706 Y-23.8218 
G01 X4.3146 Y-23.8218 
G01 X4.3146 Y-23.3942 
G00 Z0.8000 
G00 X54.7582 Y-29.7561 
G01 Z-0.0800 F100.00 
G01 X54.6374 Y-29.6683 F240.00 
G01 X54.5043 Y-29.6005 
G01 X54.3622 Y-29.5544 
G01 X54.2147 Y-29.5310 
G01 X53.6700 Y-29.5310 
G01 X53.6700 Y-29.5750 
G01 X54.2291 Y-29.5750 
G01 X54.4040 Y-29.6098 
G01 X54.5687 Y-29.6780 
G01 X54.7169 Y-29.7770 
G01 X54.8430 Y-29.9031 
G01 X54.9420 Y-30.0513 
G01 X54.9829 Y-30.1500 
G01 X55.0306 Y-30.1500 
G01 X55.0195 Y-30.1157 
G01 X54.9517 Y-29.9826 
G01 X54.8639 Y-29.8618 
G01 X54.7582 Y-29.7561 
G00 Z0.8000 
G00 X52.4653 Y-29.5310 
G01 Z-0.0800 F100.00 
G01 X52.3178 Y-29.5544 F240.00 
G01 X52.1757 Y-29.6005 
G01 X52.0426 Y-29.6683 
G01 X51.9218 Y-29.7561 
G01 X51.8161 Y-29.8618 
G01 X51.7283 Y-29.9826 
G01 X51.6605 Y-30.1157 
G01 X51.6494 Y-30.1500 
G01 X51.6971 Y-30.1500 
G01 X51.7380 Y-30.0513 
G01 X51.8370 Y-29.9031 
G01 X51.9631 Y-29.7770 
G01 X52.1113 Y-29.6780 
G01 X52.2760 Y-29.6098 
G01 X52.4509 Y-29.5750 
G01 X53.0100 Y-29.5750 
G01 X53.0100 Y-29.5310 
G01 X52.4653 Y-29.5310 
G00 Z0.8000 
G00 X42.8237 Y-4.2198 
G01 Z-0.0800 F100.00 
G01 X42.3198 Y-4.7237 F240.00 
G01 X42.3198 Y-4.7464 
G01 X42.3638 Y-4.7464 
G01 X42.3638 Y-4.7419 
G01 X42.8419 Y-4.2638 
G01 X42.8464 Y-4.2638 
G01 X42.8464 Y-4.2198 
G01 X42.8237 Y-4.2198 
G00 Z0.8000 
G00 X44.0402 Y-4.7237 
G01 Z-0.0800 F100.00 
G01 X43.5363 Y-4.2198 F240.00 
G01 X43.5136 Y-4.2198 
G01 X43.5136 Y-4.2638 
G01 X43.5181 Y-4.2638 
G01 X43.9962 Y-4.7419 
G01 X43.9962 Y-4.7464 
G01 X44.0402 Y-4.7464 
G01 X44.0402 Y-4.7237 
G00 Z0.8000 
G00 X14.7862 Y-4.7419 
G01 Z-0.0800 F100.00 
G01 X14.7862 Y-4.7464 F240.00 
G01 X14.8302 Y-4.7464 
G01 X14.8302 Y-4.7237 
G01 X14.3263 Y-4.2198 
G01 X14.3036 Y-4.2198 
G01 X14.3036 Y-4.2638 
G01 X14.3081 Y-4.2638 
G01 X14.7862 Y-4.7419 
G00 Z0.8000 
G00 X13.6137 Y-4.2198 
G01 Z-0.0800 F100.00 
G01 X13.1098 Y-4.7237 F240.00 
G01 X13.1098 Y-4.7464 
G01 X13.1538 Y-4.7464 
G01 X13.1538 Y-4.7419 
G01 X13.6319 Y-4.2638 
G01 X13.6364 Y-4.2638 
G01 X13.6364 Y-4.2198 
G01 X13.6137 Y-4.2198 
G00 Z0.8000 
G00 X51.6605 Y-28.3043 
G01 Z-0.0800 F100.00 
G01 X51.7283 Y-28.4374 F240.00 
G01 X51.8161 Y-28.5582 
G01 X51.9218 Y-28.6639 
G01 X52.0426 Y-28.7517 
G01 X52.1757 Y-28.8195 
G01 X52.3178 Y-28.8656 
G01 X52.4653 Y-28.8890 
G01 X53.0100 Y-28.8890 
G01 X53.0100 Y-28.8450 
G01 X52.4509 Y-28.8450 
G01 X52.2760 Y-28.8102 
G01 X52.1113 Y-28.7420 
G01 X51.9631 Y-28.6430 
G01 X51.8370 Y-28.5169 
G01 X51.7380 Y-28.3687 
G01 X51.6971 Y-28.2700 
G01 X51.6494 Y-28.2700 
G01 X51.6605 Y-28.3043 
G00 Z0.8000 
G00 X54.2147 Y-28.8890 
G01 Z-0.0800 F100.00 
G01 X54.3622 Y-28.8656 F240.00 
G01 X54.5043 Y-28.8195 
G01 X54.6374 Y-28.7517 
G01 X54.7582 Y-28.6639 
G01 X54.8639 Y-28.5582 
G01 X54.9517 Y-28.4374 
G01 X55.0195 Y-28.3043 
G01 X55.0306 Y-28.2700 
G01 X54.9829 Y-28.2700 
G01 X54.9420 Y-28.3687 
G01 X54.8430 Y-28.5169 
G01 X54.7169 Y-28.6430 
G01 X54.5687 Y-28.7420 
G01 X54.4040 Y-28.8102 
G01 X54.2291 Y-28.8450 
G01 X53.6700 Y-28.8450 
G01 X53.6700 Y-28.8890 
G01 X54.2147 Y-28.8890 
G00 Z0.8000 
G00 X46.5362 Y-4.7419 
G01 Z-0.0800 F100.00 
G01 X46.5362 Y-4.7464 F240.00 
G01 X46.5802 Y-4.7464 
G01 X46.5802 Y-4.7237 
G01 X46.0763 Y-4.2198 
G01 X46.0536 Y-4.2198 
G01 X46.0536 Y-4.2638 
G01 X46.0581 Y-4.2638 
G01 X46.5362 Y-4.7419 
G00 Z0.8000 
G00 X45.3637 Y-4.2198 
G01 Z-0.0800 F100.00 
G01 X44.8598 Y-4.7237 F240.00 
G01 X44.8598 Y-4.7464 
G01 X44.9038 Y-4.7464 
G01 X44.9038 Y-4.7419 
G01 X45.3819 Y-4.2638 
G01 X45.3864 Y-4.2638 
G01 X45.3864 Y-4.2198 
G01 X45.3637 Y-4.2198 
G00 Z0.8000 
G00 X51.6605 Y-30.8443 
G01 Z-0.0800 F100.00 
G01 X51.7283 Y-30.9774 F240.00 
G01 X51.8161 Y-31.0982 
G01 X51.9218 Y-31.2039 
G01 X52.0426 Y-31.2917 
G01 X52.1757 Y-31.3595 
G01 X52.3178 Y-31.4056 
G01 X52.4653 Y-31.4290 
G01 X53.0100 Y-31.4290 
G01 X53.0100 Y-31.3850 
G01 X52.4509 Y-31.3850 
G01 X52.2760 Y-31.3502 
G01 X52.1113 Y-31.2820 
G01 X51.9631 Y-31.1830 
G01 X51.8370 Y-31.0569 
G01 X51.7380 Y-30.9087 
G01 X51.6971 Y-30.8100 
G01 X51.6494 Y-30.8100 
G01 X51.6605 Y-30.8443 
G00 Z0.8000 
G00 X54.2147 Y-31.4290 
G01 Z-0.0800 F100.00 
G01 X54.3622 Y-31.4056 F240.00 
G01 X54.5043 Y-31.3595 
G01 X54.6374 Y-31.2917 
G01 X54.7582 Y-31.2039 
G01 X54.8639 Y-31.0982 
G01 X54.9517 Y-30.9774 
G01 X55.0195 Y-30.8443 
G01 X55.0306 Y-30.8100 
G01 X54.9829 Y-30.8100 
G01 X54.9420 Y-30.9087 
G01 X54.8430 Y-31.0569 
G01 X54.7169 Y-31.1830 
G01 X54.5687 Y-31.2820 
G01 X54.4040 Y-31.3502 
G01 X54.2291 Y-31.3850 
G01 X53.6700 Y-31.3850 
G01 X53.6700 Y-31.4290 
G01 X54.2147 Y-31.4290 
G00 Z0.8000 
G00 X26.3618 Y-18.9494 
G01 Z-0.0800 F100.00 
G01 X26.2413 Y-18.8995 F240.00 
G01 X26.0931 Y-18.8005 
G01 X25.9670 Y-18.6744 
G01 X25.8680 Y-18.5262 
G01 X25.7998 Y-18.3615 
G01 X25.7650 Y-18.1866 
G01 X25.7650 Y-18.0084 
G01 X25.7998 Y-17.8335 
G01 X25.8680 Y-17.6688 
G01 X25.9670 Y-17.5206 
G01 X26.0931 Y-17.3945 
G01 X26.2413 Y-17.2955 
G01 X26.4060 Y-17.2273 
G01 X26.5809 Y-17.1925 
G01 X26.7591 Y-17.1925 
G01 X26.9340 Y-17.2273 
G01 X27.0987 Y-17.2955 
G01 X27.2469 Y-17.3945 
G01 X27.3730 Y-17.5206 
G01 X27.4720 Y-17.6688 
G01 X27.5402 Y-17.8335 
G01 X27.5750 Y-18.0084 
G01 X27.5750 Y-18.1866 
G01 X27.5402 Y-18.3615 
G01 X27.4720 Y-18.5262 
G01 X27.3730 Y-18.6744 
G01 X27.2469 Y-18.8005 
G01 X27.0987 Y-18.8995 
G01 X26.9782 Y-18.9494 
G01 X26.9782 Y-26.7106 
G01 X26.9572 Y-26.7890 
G01 X26.9166 Y-26.8592 
G01 X23.3077 Y-30.4682 
G01 X23.3479 Y-30.4951 
G01 X23.4545 Y-30.6017 
G01 X23.5383 Y-30.7270 
G01 X23.5960 Y-30.8663 
G01 X23.6254 Y-31.0142 
G01 X23.6254 Y-32.4858 
G01 X23.5960 Y-32.6337 
G01 X23.5383 Y-32.7730 
G01 X23.4545 Y-32.8983 
G01 X23.3479 Y-33.0049 
G01 X23.2226 Y-33.0887 
G01 X23.1682 Y-33.1112 
G01 X23.1682 Y-37.0198 
G01 X24.0196 Y-37.8712 
G01 X24.0507 Y-37.8650 
G01 X24.2093 Y-37.8650 
G01 X24.3648 Y-37.8959 
G01 X24.5113 Y-37.9566 
G01 X24.6432 Y-38.0447 
G01 X24.7553 Y-38.1568 
G01 X24.8434 Y-38.2887 
G01 X24.9041 Y-38.4352 
G01 X24.9350 Y-38.5907 
G01 X24.9350 Y-39.0618 
G01 X27.1350 Y-39.0618 
G01 X27.1350 Y-38.5907 
G01 X27.1659 Y-38.4352 
G01 X27.2266 Y-38.2887 
G01 X27.3147 Y-38.1568 
G01 X27.4268 Y-38.0447 
G01 X27.5587 Y-37.9566 
G01 X27.7052 Y-37.8959 
G01 X27.8607 Y-37.8650 
G01 X28.0193 Y-37.8650 
G01 X28.1748 Y-37.8959 
G01 X28.3213 Y-37.9566 
G01 X28.4532 Y-38.0447 
G01 X28.5653 Y-38.1568 
G01 X28.6534 Y-38.2887 
G01 X28.7141 Y-38.4352 
G01 X28.7450 Y-38.5907 
G01 X28.7450 Y-40.1493 
G01 X28.7141 Y-40.3048 
G01 X28.6534 Y-40.4513 
G01 X28.5653 Y-40.5832 
G01 X28.4532 Y-40.6953 
G01 X28.3213 Y-40.7834 
G01 X28.1748 Y-40.8441 
G01 X28.0193 Y-40.8750 
G01 X27.8607 Y-40.8750 
G01 X27.7052 Y-40.8441 
G01 X27.5587 Y-40.7834 
G01 X27.4268 Y-40.6953 
G01 X27.3147 Y-40.5832 
G01 X27.2266 Y-40.4513 
G01 X27.1659 Y-40.3048 
G01 X27.1350 Y-40.1493 
G01 X27.1350 Y-39.6782 
G01 X24.9350 Y-39.6782 
G01 X24.9350 Y-40.1493 
G01 X24.9041 Y-40.3048 
G01 X24.8434 Y-40.4513 
G01 X24.7553 Y-40.5832 
G01 X24.6432 Y-40.6953 
G01 X24.5113 Y-40.7834 
G01 X24.3648 Y-40.8441 
G01 X24.2093 Y-40.8750 
G01 X24.0507 Y-40.8750 
G01 X23.8952 Y-40.8441 
G01 X23.7487 Y-40.7834 
G01 X23.6168 Y-40.6953 
G01 X23.5047 Y-40.5832 
G01 X23.4166 Y-40.4513 
G01 X23.3559 Y-40.3048 
G01 X23.3250 Y-40.1493 
G01 X23.3250 Y-38.5907 
G01 X23.3559 Y-38.4352 
G01 X23.4166 Y-38.2887 
G01 X23.4762 Y-38.1995 
G01 X22.6134 Y-37.3367 
G01 X22.5728 Y-37.2665 
G01 X22.5518 Y-37.1881 
G01 X22.5518 Y-33.1112 
G01 X22.4974 Y-33.0887 
G01 X22.3721 Y-33.0049 
G01 X22.2655 Y-32.8983 
G01 X22.1817 Y-32.7730 
G01 X22.1240 Y-32.6337 
G01 X22.0946 Y-32.4858 
G01 X22.0946 Y-31.0142 
G01 X22.1240 Y-30.8663 
G01 X22.1817 Y-30.7270 
G01 X22.2655 Y-30.6017 
G01 X22.3721 Y-30.4951 
G01 X22.4974 Y-30.4113 
G01 X22.5671 Y-30.3825 
G01 X22.5728 Y-30.3610 
G01 X22.6134 Y-30.2908 
G01 X26.3618 Y-26.5423 
G01 X26.3618 Y-18.9494 
G00 Z0.8000 
G00 X35.8292 Y-25.3935 
G01 Z-0.0800 F100.00 
G01 X35.8461 Y-25.4343 F240.00 
G01 X35.8505 Y-25.4449 
G01 X36.0128 Y-25.6072 
G01 X36.0679 Y-25.6623 
G01 X36.1108 Y-25.7349 
G01 X36.1318 Y-25.8133 
G01 X36.1318 Y-28.0789 
G01 X36.2381 Y-28.3355 
G01 X36.4630 Y-28.5604 
G01 X37.2820 Y-29.3794 
G01 X37.3255 Y-29.4229 
G01 X37.3394 Y-29.4368 
G01 X37.3799 Y-29.5070 
G01 X37.4009 Y-29.5854 
G01 X37.4009 Y-29.6666 
G01 X37.3799 Y-29.7450 
G01 X37.3394 Y-29.8152 
G01 X37.2820 Y-29.8726 
G01 X37.2117 Y-29.9132 
G01 X37.1333 Y-29.9342 
G01 X36.5788 Y-29.9342 
G01 X36.5586 Y-29.9369 
G01 X36.5384 Y-29.9342 
G01 X36.5180 Y-29.9342 
G01 X36.4983 Y-29.9289 
G01 X36.4781 Y-29.9263 
G01 X36.4593 Y-29.9185 
G01 X36.4396 Y-29.9132 
G01 X36.4220 Y-29.9030 
G01 X36.4032 Y-29.8952 
G01 X36.3870 Y-29.8828 
G01 X36.3694 Y-29.8726 
G01 X36.3550 Y-29.8582 
G01 X36.3388 Y-29.8458 
G01 X36.3264 Y-29.8296 
G01 X36.3120 Y-29.8152 
G01 X36.3018 Y-29.7976 
G01 X36.2894 Y-29.7814 
G01 X36.2816 Y-29.7626 
G01 X36.2714 Y-29.7450 
G01 X36.2661 Y-29.7253 
G01 X36.1519 Y-29.4495 
G01 X35.0498 Y-28.3474 
G01 X35.0092 Y-28.2771 
G01 X34.9882 Y-28.1987 
G01 X34.9882 Y-25.8133 
G01 X35.0092 Y-25.7349 
G01 X35.0489 Y-25.6662 
G01 X35.1072 Y-25.6072 
G01 X35.2695 Y-25.4449 
G01 X35.2908 Y-25.3935 
G01 X35.3055 Y-25.3743 
G01 X35.3402 Y-25.3291 
G01 X35.3498 Y-25.3217 
G01 X35.4046 Y-25.2797 
G01 X35.4532 Y-25.2596 
G01 X35.4795 Y-25.2486 
G01 X35.5278 Y-25.2423 
G01 X35.5600 Y-25.2381 
G01 X35.5894 Y-25.2419 
G01 X35.6405 Y-25.2486 
G01 X35.6449 Y-25.2505 
G01 X35.7154 Y-25.2797 
G01 X35.7346 Y-25.2944 
G01 X35.7798 Y-25.3291 
G01 X35.7872 Y-25.3387 
G01 X35.8292 Y-25.3935 
G00 Z0.8000 
G00 X40.9092 Y-25.3935 
G01 Z-0.0800 F100.00 
G01 X40.9261 Y-25.4343 F240.00 
G01 X40.9305 Y-25.4449 
G01 X41.0928 Y-25.6072 
G01 X41.1479 Y-25.6623 
G01 X41.1908 Y-25.7349 
G01 X41.2118 Y-25.8133 
G01 X41.2118 Y-26.8089 
G01 X41.3181 Y-27.0655 
G01 X41.5865 Y-27.3339 
G01 X42.4202 Y-28.1676 
G01 X42.4608 Y-28.2379 
G01 X42.4818 Y-28.3163 
G01 X42.4818 Y-29.6666 
G01 X42.4608 Y-29.7450 
G01 X42.4202 Y-29.8152 
G01 X42.3628 Y-29.8726 
G01 X42.2926 Y-29.9132 
G01 X42.2142 Y-29.9342 
G01 X41.6058 Y-29.9342 
G01 X41.5274 Y-29.9132 
G01 X41.4572 Y-29.8726 
G01 X41.3998 Y-29.8152 
G01 X41.3592 Y-29.7450 
G01 X41.3382 Y-29.6666 
G01 X41.3382 Y-28.4361 
G01 X41.2319 Y-28.1795 
G01 X40.1298 Y-27.0774 
G01 X40.0892 Y-27.0071 
G01 X40.0682 Y-26.9287 
G01 X40.0682 Y-25.8133 
G01 X40.0892 Y-25.7349 
G01 X40.1298 Y-25.6646 
G01 X40.1872 Y-25.6072 
G01 X40.3495 Y-25.4449 
G01 X40.3708 Y-25.3935 
G01 X40.3855 Y-25.3743 
G01 X40.4202 Y-25.3291 
G01 X40.4298 Y-25.3217 
G01 X40.4846 Y-25.2797 
G01 X40.5332 Y-25.2596 
G01 X40.5595 Y-25.2486 
G01 X40.6078 Y-25.2423 
G01 X40.6400 Y-25.2381 
G01 X40.6694 Y-25.2419 
G01 X40.7205 Y-25.2486 
G01 X40.7249 Y-25.2505 
G01 X40.7954 Y-25.2797 
G01 X40.8146 Y-25.2944 
G01 X40.8598 Y-25.3291 
G01 X40.8672 Y-25.3387 
G01 X40.9092 Y-25.3935 
G00 Z0.8000 
G00 X21.5617 Y-12.1282 
G01 Z-0.0800 F100.00 
G01 X21.5819 Y-12.1255 F240.00 
G01 X21.6021 Y-12.1282 
G01 X21.6225 Y-12.1282 
G01 X21.6422 Y-12.1335 
G01 X21.6623 Y-12.1361 
G01 X21.6812 Y-12.1439 
G01 X21.7009 Y-12.1492 
G01 X21.7185 Y-12.1594 
G01 X21.7373 Y-12.1672 
G01 X21.7535 Y-12.1796 
G01 X21.7711 Y-12.1898 
G01 X21.7855 Y-12.2042 
G01 X21.8017 Y-12.2166 
G01 X21.8141 Y-12.2327 
G01 X21.8285 Y-12.2472 
G01 X21.8387 Y-12.2648 
G01 X21.8511 Y-12.2810 
G01 X21.8589 Y-12.2998 
G01 X21.8691 Y-12.3174 
G01 X21.8744 Y-12.3371 
G01 X21.8822 Y-12.3559 
G01 X21.8848 Y-12.3761 
G01 X21.8901 Y-12.3958 
G01 X21.8901 Y-12.4162 
G01 X21.8927 Y-12.4364 
G01 X21.8901 Y-12.4566 
G01 X21.8901 Y-12.4770 
G01 X21.8848 Y-12.4967 
G01 X21.8822 Y-12.5169 
G01 X21.8744 Y-12.5357 
G01 X21.8691 Y-12.5554 
G01 X21.8589 Y-12.5730 
G01 X21.7650 Y-12.7997 
G01 X21.7650 Y-13.0042 
G01 X21.7440 Y-13.0826 
G01 X21.7034 Y-13.1528 
G01 X21.6460 Y-13.2102 
G01 X21.5758 Y-13.2508 
G01 X21.4974 Y-13.2718 
G01 X15.4438 Y-13.2718 
G01 X15.3654 Y-13.2508 
G01 X15.2952 Y-13.2102 
G01 X15.2378 Y-13.1528 
G01 X15.1972 Y-13.0826 
G01 X15.1762 Y-13.0042 
G01 X15.1762 Y-12.5683 
G01 X15.1972 Y-12.4899 
G01 X15.2378 Y-12.4196 
G01 X15.4676 Y-12.1898 
G01 X15.5379 Y-12.1492 
G01 X15.6163 Y-12.1282 
G01 X15.6974 Y-12.1282 
G01 X21.5617 Y-12.1282 
G00 Z0.8000 
G00 X23.8509 Y-12.5554 
G01 Z-0.0800 F100.00 
G01 X23.8456 Y-12.5357 F240.00 
G01 X23.8378 Y-12.5169 
G01 X23.8352 Y-12.4967 
G01 X23.8299 Y-12.4770 
G01 X23.8299 Y-12.4566 
G01 X23.8272 Y-12.4364 
G01 X23.8299 Y-12.4162 
G01 X23.8299 Y-12.3958 
G01 X23.8352 Y-12.3761 
G01 X23.8378 Y-12.3559 
G01 X23.8456 Y-12.3371 
G01 X23.8509 Y-12.3174 
G01 X23.8611 Y-12.2998 
G01 X23.8689 Y-12.2810 
G01 X23.8813 Y-12.2648 
G01 X23.8915 Y-12.2472 
G01 X23.9059 Y-12.2327 
G01 X23.9183 Y-12.2166 
G01 X23.9345 Y-12.2042 
G01 X23.9489 Y-12.1898 
G01 X23.9665 Y-12.1796 
G01 X23.9827 Y-12.1672 
G01 X24.0015 Y-12.1594 
G01 X24.0191 Y-12.1492 
G01 X24.0388 Y-12.1439 
G01 X24.0576 Y-12.1361 
G01 X24.0778 Y-12.1335 
G01 X24.0975 Y-12.1282 
G01 X24.1179 Y-12.1282 
G01 X24.1381 Y-12.1255 
G01 X24.1583 Y-12.1282 
G01 X27.5637 Y-12.1282 
G01 X27.6421 Y-12.1492 
G01 X27.7124 Y-12.1898 
G01 X27.7215 Y-12.1989 
G01 X28.2396 Y-12.7170 
G01 X28.2879 Y-12.7653 
G01 X28.2970 Y-12.7744 
G01 X28.3375 Y-12.8446 
G01 X28.3585 Y-12.9230 
G01 X28.3585 Y-13.0042 
G01 X28.3375 Y-13.0826 
G01 X28.2970 Y-13.1528 
G01 X28.2396 Y-13.2102 
G01 X28.1693 Y-13.2508 
G01 X28.0909 Y-13.2718 
G01 X24.2226 Y-13.2718 
G01 X24.1442 Y-13.2508 
G01 X24.0740 Y-13.2102 
G01 X24.0166 Y-13.1528 
G01 X23.9760 Y-13.0826 
G01 X23.9550 Y-13.0042 
G01 X23.9550 Y-12.7997 
G01 X23.8611 Y-12.5730 
G01 X23.8509 Y-12.5554 
G00 Z0.8000 
G00 X12.9466 Y-12.0176 
G01 Z-0.0800 F100.00 
G01 X12.8963 Y-12.0678 F240.00 
G01 X12.8892 Y-12.0749 
G01 X12.8190 Y-12.1155 
G01 X12.7406 Y-12.1365 
G01 X12.6594 Y-12.1365 
G01 X12.5810 Y-12.1155 
G01 X12.5108 Y-12.0749 
G01 X12.4534 Y-12.0176 
G01 X12.0551 Y-11.6192 
G01 X12.0145 Y-11.5490 
G01 X11.9935 Y-11.4706 
G01 X11.9935 Y-11.3894 
G01 X12.0145 Y-11.3110 
G01 X12.0551 Y-11.2408 
G01 X12.1124 Y-11.1834 
G01 X12.5108 Y-10.7851 
G01 X12.5810 Y-10.7445 
G01 X12.6594 Y-10.7235 
G01 X12.7406 Y-10.7235 
G01 X12.8190 Y-10.7445 
G01 X12.8892 Y-10.7851 
G01 X12.9466 Y-10.8424 
G01 X13.2876 Y-11.1834 
G01 X13.3449 Y-11.2408 
G01 X13.3855 Y-11.3110 
G01 X13.4065 Y-11.3894 
G01 X13.4065 Y-11.4706 
G01 X13.3855 Y-11.5490 
G01 X13.3449 Y-11.6192 
G01 X12.9466 Y-12.0176 
G00 Z0.8000 
G00 X1.0238 Y-49.5248 
G01 Z-0.0800 F100.00 
G01 X1.0403 Y-49.5412 F240.00 
G01 X1.0585 Y-49.5557 
G01 X1.0689 Y-49.5698 
G01 X1.0812 Y-49.5822 
G01 X1.0928 Y-49.6023 
G01 X1.1067 Y-49.6210 
G01 X1.1131 Y-49.6373 
G01 X1.1218 Y-49.6524 
G01 X1.1278 Y-49.6749 
G01 X1.1363 Y-49.6966 
G01 X1.1383 Y-49.7139 
G01 X1.1428 Y-49.7308 
G01 X1.1428 Y-49.7541 
G01 X1.1454 Y-49.7772 
G01 X1.1428 Y-49.7945 
G01 X1.1428 Y-49.8120 
G01 X1.1368 Y-49.8345 
G01 X1.1333 Y-49.8575 
G01 X1.1263 Y-49.8735 
G01 X1.1218 Y-49.8904 
G01 X1.1102 Y-49.9105 
G01 X1.1009 Y-49.9318 
G01 X1.0900 Y-49.9455 
G01 X1.0812 Y-49.9606 
G01 X1.0648 Y-49.9771 
G01 X1.0503 Y-49.9953 
G01 X1.0362 Y-50.0057 
G01 X1.0238 Y-50.0180 
G01 X1.0037 Y-50.0296 
G01 X0.9850 Y-50.0435 
G01 X0.9687 Y-50.0499 
G01 X0.9536 Y-50.0586 
G01 X0.9311 Y-50.0646 
G01 X0.9094 Y-50.0731 
G01 X0.8921 Y-50.0751 
G01 X0.8752 Y-50.0796 
G01 X0.8519 Y-50.0796 
G01 X0.8288 Y-50.0822 
G01 X0.8115 Y-50.0796 
G01 X0.1880 Y-50.0796 
G01 X0.1096 Y-50.0586 
G01 X0.0394 Y-50.0180 
G01 X-0.0180 Y-49.9606 
G01 X-0.0586 Y-49.8904 
G01 X-0.0796 Y-49.8120 
G01 X-0.0796 Y-49.2038 
G01 X-0.0818 Y-49.1748 
G01 X-0.0796 Y-49.1633 
G01 X-0.0796 Y-49.1516 
G01 X-0.0721 Y-49.1236 
G01 X-0.0667 Y-49.0950 
G01 X-0.0616 Y-49.0845 
G01 X-0.0586 Y-49.0733 
G01 X-0.0441 Y-49.0481 
G01 X-0.0315 Y-49.0219 
G01 X-0.0239 Y-49.0131 
G01 X-0.0180 Y-49.0030 
G01 X0.0025 Y-48.9824 
G01 X0.0215 Y-48.9604 
G01 X0.0311 Y-48.9539 
G01 X0.0394 Y-48.9456 
G01 X0.0645 Y-48.9311 
G01 X0.0885 Y-48.9147 
G01 X0.0995 Y-48.9109 
G01 X0.1096 Y-48.9050 
G01 X0.1377 Y-48.8975 
G01 X0.1651 Y-48.8879 
G01 X0.1767 Y-48.8870 
G01 X0.1880 Y-48.8840 
G01 X0.2171 Y-48.8840 
G01 X0.2460 Y-48.8818 
G01 X0.2575 Y-48.8840 
G01 X0.2692 Y-48.8840 
G01 X0.2972 Y-48.8915 
G01 X0.3258 Y-48.8969 
G01 X0.3363 Y-48.9020 
G01 X0.3476 Y-48.9050 
G01 X0.3727 Y-48.9195 
G01 X0.3989 Y-48.9321 
G01 X0.4077 Y-48.9398 
G01 X0.4178 Y-48.9456 
G01 X0.4384 Y-48.9661 
G01 X0.4604 Y-48.9851 
G01 X0.4670 Y-48.9947 
G01 X0.4752 Y-49.0030 
G01 X0.4897 Y-49.0281 
G01 X0.6004 Y-49.1904 
G01 X1.0087 Y-49.5160 
G01 X1.0238 Y-49.5248 
G00 Z0.8000 
G00 X15.6928 Y-28.4277 
G01 Z-0.0800 F100.00 
G01 X15.7502 Y-28.4851 F240.00 
G01 X15.7908 Y-28.5554 
G01 X15.8118 Y-28.6338 
G01 X15.8118 Y-29.6666 
G01 X15.7908 Y-29.7450 
G01 X15.7502 Y-29.8152 
G01 X15.6928 Y-29.8726 
G01 X15.6226 Y-29.9132 
G01 X15.5442 Y-29.9342 
G01 X14.9358 Y-29.9342 
G01 X14.8574 Y-29.9132 
G01 X14.7872 Y-29.8726 
G01 X14.7298 Y-29.8152 
G01 X14.6892 Y-29.7450 
G01 X14.6682 Y-29.6666 
G01 X14.6682 Y-28.7536 
G01 X14.5619 Y-28.4970 
G01 X14.2935 Y-28.2286 
G01 X13.4598 Y-27.3949 
G01 X13.4192 Y-27.3246 
G01 X13.3982 Y-27.2462 
G01 X13.3982 Y-25.8133 
G01 X13.4192 Y-25.7349 
G01 X13.4589 Y-25.6662 
G01 X13.5172 Y-25.6072 
G01 X13.6795 Y-25.4449 
G01 X13.6832 Y-25.4360 
G01 X13.7008 Y-25.3935 
G01 X13.7193 Y-25.3693 
G01 X13.7502 Y-25.3291 
G01 X13.7881 Y-25.3001 
G01 X13.8146 Y-25.2797 
G01 X13.8425 Y-25.2681 
G01 X13.8895 Y-25.2487 
G01 X13.9700 Y-25.2381 
G01 X14.0505 Y-25.2486 
G01 X14.0890 Y-25.2646 
G01 X14.1254 Y-25.2797 
G01 X14.1496 Y-25.2982 
G01 X14.1898 Y-25.3291 
G01 X14.2189 Y-25.3670 
G01 X14.2392 Y-25.3935 
G01 X14.2525 Y-25.4256 
G01 X14.2605 Y-25.4449 
G01 X14.4802 Y-25.6646 
G01 X14.5208 Y-25.7349 
G01 X14.5418 Y-25.8133 
G01 X14.5418 Y-27.1264 
G01 X14.6481 Y-27.3830 
G01 X15.6928 Y-28.4277 
G00 Z0.8000 
G00 X42.0992 Y-38.0608 
G01 Z-0.0800 F100.00 
G01 X42.0290 Y-38.1014 F240.00 
G01 X41.9743 Y-38.1160 
G01 X41.9506 Y-38.1224 
G01 X41.8694 Y-38.1224 
G01 X41.8511 Y-38.1174 
G01 X41.7910 Y-38.1013 
G01 X41.7208 Y-38.0608 
G01 X41.7133 Y-38.0533 
G01 X41.6634 Y-38.0034 
G01 X41.4572 Y-37.7972 
G01 X41.3998 Y-37.7398 
G01 X41.3601 Y-37.6711 
G01 X41.3583 Y-37.6662 
G01 X41.3382 Y-37.5911 
G01 X41.3382 Y-37.3141 
G01 X41.3592 Y-37.2357 
G01 X41.3998 Y-37.1654 
G01 X41.4572 Y-37.1080 
G01 X41.5274 Y-37.0675 
G01 X41.6058 Y-37.0465 
G01 X41.6870 Y-37.0465 
G01 X41.7654 Y-37.0675 
G01 X41.8356 Y-37.1080 
G01 X41.8930 Y-37.1654 
G01 X42.2546 Y-37.5270 
G01 X42.2951 Y-37.5972 
G01 X42.3071 Y-37.6418 
G01 X42.3161 Y-37.6756 
G01 X42.3161 Y-37.7568 
G01 X42.3051 Y-37.7979 
G01 X42.2951 Y-37.8352 
G01 X42.2852 Y-37.8525 
G01 X42.2546 Y-37.9054 
G01 X42.1972 Y-37.9628 
G01 X42.0992 Y-38.0608 
G00 Z0.8000 
G00 X38.7982 Y-36.6791 
G01 Z-0.0800 F100.00 
G01 X38.8192 Y-36.6007 F240.00 
G01 X38.8598 Y-36.5304 
G01 X38.9172 Y-36.4730 
G01 X38.9874 Y-36.4325 
G01 X39.0658 Y-36.4115 
G01 X39.1470 Y-36.4115 
G01 X39.2254 Y-36.4325 
G01 X39.2956 Y-36.4730 
G01 X39.3530 Y-36.5304 
G01 X39.8802 Y-37.0576 
G01 X39.9208 Y-37.1279 
G01 X39.9418 Y-37.2063 
G01 X39.9418 Y-37.5911 
G01 X39.9208 Y-37.6695 
G01 X39.8802 Y-37.7398 
G01 X39.8228 Y-37.7972 
G01 X39.6166 Y-38.0034 
G01 X39.5592 Y-38.0608 
G01 X39.4890 Y-38.1013 
G01 X39.4106 Y-38.1224 
G01 X39.3294 Y-38.1224 
G01 X39.2510 Y-38.1013 
G01 X39.1808 Y-38.0608 
G01 X38.8598 Y-37.7398 
G01 X38.8192 Y-37.6695 
G01 X38.7982 Y-37.5911 
G01 X38.7982 Y-37.5100 
G01 X38.7982 Y-36.6791 
G00 Z0.8000 
G00 X8.8730 Y-34.2721 
G01 Z-0.0800 F100.00 
G01 X8.8247 Y-34.3204 F240.00 
G01 X8.8156 Y-34.3295 
G01 X8.7454 Y-34.3700 
G01 X8.6670 Y-34.3910 
G01 X8.5858 Y-34.3910 
G01 X8.5074 Y-34.3700 
G01 X8.4372 Y-34.3295 
G01 X8.3798 Y-34.2721 
G01 X8.3392 Y-34.2018 
G01 X8.3182 Y-34.1234 
G01 X8.3182 Y-33.4333 
G01 X8.3392 Y-33.3549 
G01 X8.3798 Y-33.2846 
G01 X8.4372 Y-33.2272 
G01 X8.5995 Y-33.0649 
G01 X8.6032 Y-33.0560 
G01 X8.6208 Y-33.0135 
G01 X8.6393 Y-32.9893 
G01 X8.6702 Y-32.9491 
G01 X8.7081 Y-32.9201 
G01 X8.7346 Y-32.8997 
G01 X8.7625 Y-32.8881 
G01 X8.8095 Y-32.8687 
G01 X8.8900 Y-32.8581 
G01 X8.9704 Y-32.8686 
G01 X9.0090 Y-32.8846 
G01 X9.0454 Y-32.8997 
G01 X9.0696 Y-32.9182 
G01 X9.1098 Y-32.9491 
G01 X9.1389 Y-32.9870 
G01 X9.1592 Y-33.0135 
G01 X9.1725 Y-33.0456 
G01 X9.1805 Y-33.0649 
G01 X9.4002 Y-33.2846 
G01 X9.4408 Y-33.3549 
G01 X9.4618 Y-33.4333 
G01 X9.4618 Y-33.5962 
G01 X9.4408 Y-33.6746 
G01 X9.4002 Y-33.7449 
G01 X8.8730 Y-34.2721 
G00 Z0.8000 
G00 X44.3310 Y-40.6386 
G01 Z-0.0800 F100.00 
G01 X44.4094 Y-40.6176 F240.00 
G01 X44.4906 Y-40.6176 
G01 X44.5690 Y-40.6386 
G01 X44.6392 Y-40.6792 
G01 X44.9602 Y-41.0002 
G01 X45.0008 Y-41.0705 
G01 X45.0218 Y-41.1489 
G01 X45.0218 Y-46.1219 
G01 X45.0008 Y-46.2003 
G01 X44.9602 Y-46.2705 
G01 X44.9028 Y-46.3279 
G01 X44.6392 Y-46.5915 
G01 X44.5690 Y-46.6321 
G01 X44.4906 Y-46.6531 
G01 X44.4094 Y-46.6531 
G01 X44.3310 Y-46.6321 
G01 X44.2623 Y-46.5924 
G01 X44.2034 Y-46.5341 
G01 X43.9972 Y-46.3279 
G01 X43.9398 Y-46.2705 
G01 X43.9001 Y-46.2018 
G01 X43.8983 Y-46.1969 
G01 X43.8782 Y-46.1219 
G01 X43.8782 Y-41.1489 
G01 X43.8992 Y-41.0705 
G01 X43.9398 Y-41.0002 
G01 X43.9972 Y-40.9428 
G01 X44.2034 Y-40.7366 
G01 X44.2608 Y-40.6792 
G01 X44.2685 Y-40.6748 
G01 X44.3310 Y-40.6386 
G00 Z0.8000 
G00 X39.1808 Y-40.6792 
G01 Z-0.0800 F100.00 
G01 X39.2510 Y-40.6386 F240.00 
G01 X39.3294 Y-40.6176 
G01 X39.4106 Y-40.6176 
G01 X39.4890 Y-40.6386 
G01 X39.5592 Y-40.6792 
G01 X39.6166 Y-40.7366 
G01 X39.8802 Y-41.0002 
G01 X39.9208 Y-41.0705 
G01 X39.9418 Y-41.1489 
G01 X39.9418 Y-46.1219 
G01 X39.9208 Y-46.2003 
G01 X39.8802 Y-46.2705 
G01 X39.8228 Y-46.3279 
G01 X39.5592 Y-46.5915 
G01 X39.4890 Y-46.6321 
G01 X39.4106 Y-46.6531 
G01 X39.3294 Y-46.6531 
G01 X39.2510 Y-46.6321 
G01 X39.1808 Y-46.5915 
G01 X39.1234 Y-46.5341 
G01 X38.9172 Y-46.3279 
G01 X38.8598 Y-46.2705 
G01 X38.8192 Y-46.2003 
G01 X38.7982 Y-46.1219 
G01 X38.7982 Y-41.1489 
G01 X38.8192 Y-41.0705 
G01 X38.8598 Y-41.0002 
G01 X38.9172 Y-40.9428 
G01 X39.1808 Y-40.6792 
G00 Z0.8000 
G00 X34.3306 Y-40.6176 
G01 Z-0.0800 F100.00 
G01 X34.3923 Y-40.6342 F240.00 
G01 X34.4090 Y-40.6386 
G01 X34.4167 Y-40.6431 
G01 X34.4792 Y-40.6792 
G01 X34.5366 Y-40.7366 
G01 X34.7428 Y-40.9428 
G01 X34.7977 Y-40.9977 
G01 X34.8408 Y-41.0705 
G01 X34.8618 Y-41.1489 
G01 X34.8618 Y-46.1219 
G01 X34.8408 Y-46.2003 
G01 X34.8011 Y-46.2690 
G01 X34.7428 Y-46.3279 
G01 X34.5366 Y-46.5341 
G01 X34.4792 Y-46.5915 
G01 X34.4105 Y-46.6312 
G01 X34.4056 Y-46.6330 
G01 X34.3306 Y-46.6531 
G01 X34.2494 Y-46.6531 
G01 X34.1710 Y-46.6321 
G01 X34.1008 Y-46.5915 
G01 X33.7798 Y-46.2705 
G01 X33.7392 Y-46.2003 
G01 X33.7182 Y-46.1219 
G01 X33.7182 Y-41.1489 
G01 X33.7392 Y-41.0705 
G01 X33.7798 Y-41.0002 
G01 X33.8372 Y-40.9428 
G01 X34.0963 Y-40.6837 
G01 X34.1008 Y-40.6792 
G01 X34.1710 Y-40.6386 
G01 X34.2494 Y-40.6176 
G01 X34.3306 Y-40.6176 
G00 Z0.8000 
G00 X17.5908 Y-40.6792 
G01 Z-0.0800 F100.00 
G01 X17.6548 Y-40.6422 F240.00 
G01 X17.6610 Y-40.6386 
G01 X17.6744 Y-40.6351 
G01 X17.7394 Y-40.6176 
G01 X17.8206 Y-40.6176 
G01 X17.8990 Y-40.6386 
G01 X17.9692 Y-40.6792 
G01 X17.9792 Y-40.6892 
G01 X18.0266 Y-40.7366 
G01 X18.2328 Y-40.9428 
G01 X18.2902 Y-41.0002 
G01 X18.3299 Y-41.0689 
G01 X18.3317 Y-41.0738 
G01 X18.3518 Y-41.1489 
G01 X18.3518 Y-42.0609 
G01 X18.3308 Y-42.1393 
G01 X18.2902 Y-42.2096 
G01 X18.2328 Y-42.2670 
G01 X18.1626 Y-42.3075 
G01 X18.0842 Y-42.3285 
G01 X18.0030 Y-42.3285 
G01 X17.9246 Y-42.3075 
G01 X17.8544 Y-42.2670 
G01 X17.7970 Y-42.2096 
G01 X17.2698 Y-41.6824 
G01 X17.2292 Y-41.6121 
G01 X17.2082 Y-41.5337 
G01 X17.2082 Y-41.1489 
G01 X17.2292 Y-41.0705 
G01 X17.2698 Y-41.0002 
G01 X17.3272 Y-40.9428 
G01 X17.5334 Y-40.7366 
G01 X17.5370 Y-40.7330 
G01 X17.5908 Y-40.6792 
G00 Z0.8000 
G00 X14.7298 Y-41.0002 
G01 Z-0.0800 F100.00 
G01 X15.0508 Y-40.6792 F240.00 
G01 X15.1210 Y-40.6386 
G01 X15.1994 Y-40.6176 
G01 X15.2806 Y-40.6176 
G01 X15.3590 Y-40.6386 
G01 X15.3797 Y-40.6506 
G01 X15.4292 Y-40.6792 
G01 X15.4866 Y-40.7366 
G01 X15.6928 Y-40.9428 
G01 X15.7502 Y-41.0002 
G01 X15.7899 Y-41.0689 
G01 X15.7917 Y-41.0738 
G01 X15.8118 Y-41.1489 
G01 X15.8118 Y-42.0609 
G01 X15.7908 Y-42.1393 
G01 X15.7502 Y-42.2096 
G01 X15.6928 Y-42.2670 
G01 X15.6226 Y-42.3075 
G01 X15.5442 Y-42.3285 
G01 X15.4630 Y-42.3285 
G01 X15.3846 Y-42.3075 
G01 X15.3144 Y-42.2670 
G01 X15.2570 Y-42.2096 
G01 X14.7298 Y-41.6824 
G01 X14.6892 Y-41.6121 
G01 X14.6682 Y-41.5337 
G01 X14.6682 Y-41.1489 
G01 X14.6892 Y-41.0705 
G01 X14.7298 Y-41.0002 
G00 Z0.8000 
G00 X13.2718 Y-42.0609 
G01 Z-0.0800 F100.00 
G01 X13.2508 Y-42.1393 F240.00 
G01 X13.2102 Y-42.2096 
G01 X13.1528 Y-42.2670 
G01 X13.0826 Y-42.3075 
G01 X13.0042 Y-42.3285 
G01 X12.9230 Y-42.3285 
G01 X12.8446 Y-42.3075 
G01 X12.7744 Y-42.2670 
G01 X12.7170 Y-42.2096 
G01 X12.1898 Y-41.6824 
G01 X12.1492 Y-41.6121 
G01 X12.1282 Y-41.5337 
G01 X12.1282 Y-41.1489 
G01 X12.1492 Y-41.0705 
G01 X12.1898 Y-41.0002 
G01 X12.2472 Y-40.9428 
G01 X12.4534 Y-40.7366 
G01 X12.5108 Y-40.6792 
G01 X12.5810 Y-40.6386 
G01 X12.6594 Y-40.6176 
G01 X12.7406 Y-40.6176 
G01 X12.8190 Y-40.6386 
G01 X12.8892 Y-40.6792 
G01 X13.2102 Y-41.0002 
G01 X13.2508 Y-41.0705 
G01 X13.2718 Y-41.1489 
G01 X13.2718 Y-41.2300 
G01 X13.2718 Y-42.0609 
G00 Z0.8000 
G00 X10.8582 Y-25.8133 
G01 Z-0.0800 F100.00 
G01 X10.8792 Y-25.7349 F240.00 
G01 X10.9198 Y-25.6646 
G01 X10.9772 Y-25.6072 
G01 X11.1395 Y-25.4449 
G01 X11.1471 Y-25.4266 
G01 X11.1608 Y-25.3935 
G01 X11.1793 Y-25.3693 
G01 X11.2102 Y-25.3291 
G01 X11.2481 Y-25.3000 
G01 X11.2746 Y-25.2797 
G01 X11.3098 Y-25.2651 
G01 X11.3495 Y-25.2486 
G01 X11.4300 Y-25.2381 
G01 X11.5105 Y-25.2487 
G01 X11.5566 Y-25.2678 
G01 X11.5854 Y-25.2797 
G01 X11.6096 Y-25.2983 
G01 X11.6498 Y-25.3291 
G01 X11.6789 Y-25.3670 
G01 X11.6992 Y-25.3935 
G01 X11.7163 Y-25.4347 
G01 X11.7205 Y-25.4449 
G01 X11.8828 Y-25.6072 
G01 X11.9379 Y-25.6623 
G01 X11.9808 Y-25.7349 
G01 X12.0018 Y-25.8133 
G01 X12.0018 Y-27.7614 
G01 X12.1081 Y-28.0180 
G01 X13.2102 Y-29.1201 
G01 X13.2508 Y-29.1904 
G01 X13.2718 Y-29.2688 
G01 X13.2718 Y-29.6666 
G01 X13.2508 Y-29.7450 
G01 X13.2102 Y-29.8152 
G01 X13.1528 Y-29.8726 
G01 X13.0826 Y-29.9132 
G01 X13.0042 Y-29.9342 
G01 X12.3958 Y-29.9342 
G01 X12.3174 Y-29.9132 
G01 X12.2472 Y-29.8726 
G01 X12.1898 Y-29.8152 
G01 X12.1492 Y-29.7450 
G01 X12.1282 Y-29.6666 
G01 X12.1282 Y-29.0711 
G01 X12.0219 Y-28.8145 
G01 X11.7535 Y-28.5461 
G01 X10.9198 Y-27.7124 
G01 X10.8792 Y-27.6421 
G01 X10.8582 Y-27.5637 
G01 X10.8582 Y-27.4826 
G01 X10.8582 Y-25.8133 
G00 Z0.8000 
G00 X10.6702 Y-45.6301 
G01 Z-0.0800 F100.00 
G01 X10.7108 Y-45.7004 F240.00 
G01 X10.7318 Y-45.7788 
G01 X10.7318 Y-46.1219 
G01 X10.7108 Y-46.2003 
G01 X10.6702 Y-46.2705 
G01 X10.6128 Y-46.3279 
G01 X10.3492 Y-46.5915 
G01 X10.2790 Y-46.6321 
G01 X10.2006 Y-46.6531 
G01 X10.1194 Y-46.6531 
G01 X10.0410 Y-46.6321 
G01 X9.9723 Y-46.5924 
G01 X9.9134 Y-46.5341 
G01 X9.7072 Y-46.3279 
G01 X9.6498 Y-46.2705 
G01 X9.6092 Y-46.2003 
G01 X9.5882 Y-46.1219 
G01 X9.5882 Y-45.2516 
G01 X9.6092 Y-45.1732 
G01 X9.6498 Y-45.1029 
G01 X9.7072 Y-45.0455 
G01 X9.7774 Y-45.0050 
G01 X9.8558 Y-44.9840 
G01 X9.9370 Y-44.9840 
G01 X10.0154 Y-45.0050 
G01 X10.0856 Y-45.0455 
G01 X10.1430 Y-45.1029 
G01 X10.6702 Y-45.6301 
G00 Z0.8000 
G00 X15.3590 Y-38.1013 
G01 Z-0.0800 F100.00 
G01 X15.2806 Y-38.1224 F240.00 
G01 X15.1994 Y-38.1224 
G01 X15.1210 Y-38.1013 
G01 X15.0508 Y-38.0608 
G01 X14.7298 Y-37.7398 
G01 X14.6892 Y-37.6695 
G01 X14.6682 Y-37.5911 
G01 X14.6682 Y-37.2063 
G01 X14.6892 Y-37.1279 
G01 X14.7298 Y-37.0576 
G01 X14.7389 Y-37.0485 
G01 X15.2570 Y-36.5304 
G01 X15.3053 Y-36.4821 
G01 X15.3144 Y-36.4730 
G01 X15.3846 Y-36.4325 
G01 X15.4630 Y-36.4115 
G01 X15.5442 Y-36.4115 
G01 X15.6226 Y-36.4325 
G01 X15.6928 Y-36.4730 
G01 X15.7502 Y-36.5304 
G01 X15.7908 Y-36.6007 
G01 X15.8118 Y-36.6791 
G01 X15.8118 Y-37.5911 
G01 X15.7908 Y-37.6695 
G01 X15.7502 Y-37.7398 
G01 X15.6928 Y-37.7972 
G01 X15.4866 Y-38.0034 
G01 X15.4292 Y-38.0608 
G01 X15.4230 Y-38.0643 
G01 X15.3590 Y-38.1013 
G00 Z0.8000 
G00 X43.9962 Y-14.9019 
G01 Z-0.0800 F100.00 
G01 X43.9962 Y-15.5781 F240.00 
G01 X43.5181 Y-16.0562 
G01 X42.8419 Y-16.0562 
G01 X42.3638 Y-15.5781 
G01 X42.3638 Y-14.9019 
G01 X42.8419 Y-14.4238 
G01 X43.5181 Y-14.4238 
G01 X43.9962 Y-14.9019 
G00 Z0.8000 
G00 X43.9962 Y-12.3619 
G01 Z-0.0800 F100.00 
G01 X43.9962 Y-13.0381 F240.00 
G01 X43.5181 Y-13.5162 
G01 X42.8419 Y-13.5162 
G01 X42.3638 Y-13.0381 
G01 X42.3638 Y-13.0082 
G01 X42.0377 Y-13.0082 
G01 X40.8292 Y-14.2166 
G01 X40.7590 Y-14.2572 
G01 X40.6806 Y-14.2782 
G01 X12.6594 Y-14.2782 
G01 X12.5810 Y-14.2572 
G01 X12.5108 Y-14.2166 
G01 X12.4534 Y-14.1592 
G01 X11.7892 Y-13.4951 
G01 X11.7681 Y-13.5162 
G01 X11.0919 Y-13.5162 
G01 X10.6138 Y-13.0381 
G01 X10.6138 Y-12.3619 
G01 X11.0919 Y-11.8838 
G01 X11.7681 Y-11.8838 
G01 X12.2462 Y-12.3619 
G01 X12.2462 Y-13.0381 
G01 X12.2251 Y-13.0592 
G01 X12.8277 Y-13.6618 
G01 X22.2244 Y-13.6618 
G01 X22.1570 Y-13.5944 
G01 X22.0580 Y-13.4462 
G01 X21.9898 Y-13.2815 
G01 X21.9550 Y-13.1066 
G01 X21.9550 Y-12.9284 
G01 X21.9898 Y-12.7535 
G01 X22.0580 Y-12.5888 
G01 X22.1570 Y-12.4406 
G01 X22.2831 Y-12.3145 
G01 X22.4313 Y-12.2155 
G01 X22.5960 Y-12.1473 
G01 X22.7709 Y-12.1125 
G01 X22.9491 Y-12.1125 
G01 X23.1240 Y-12.1473 
G01 X23.2887 Y-12.2155 
G01 X23.4369 Y-12.3145 
G01 X23.5630 Y-12.4406 
G01 X23.6620 Y-12.5888 
G01 X23.7302 Y-12.7535 
G01 X23.7650 Y-12.9284 
G01 X23.7650 Y-13.1066 
G01 X23.7302 Y-13.2815 
G01 X23.6620 Y-13.4462 
G01 X23.5630 Y-13.5944 
G01 X23.4956 Y-13.6618 
G01 X37.4644 Y-13.6618 
G01 X37.3970 Y-13.5944 
G01 X37.2980 Y-13.4462 
G01 X37.2298 Y-13.2815 
G01 X37.1950 Y-13.1066 
G01 X37.1950 Y-12.9284 
G01 X37.2298 Y-12.7535 
G01 X37.2980 Y-12.5888 
G01 X37.3970 Y-12.4406 
G01 X37.5231 Y-12.3145 
G01 X37.6713 Y-12.2155 
G01 X37.8360 Y-12.1473 
G01 X38.0109 Y-12.1125 
G01 X38.1891 Y-12.1125 
G01 X38.3640 Y-12.1473 
G01 X38.5287 Y-12.2155 
G01 X38.6769 Y-12.3145 
G01 X38.8030 Y-12.4406 
G01 X38.9020 Y-12.5888 
G01 X38.9702 Y-12.7535 
G01 X39.0050 Y-12.9284 
G01 X39.0050 Y-13.1066 
G01 X38.9702 Y-13.2815 
G01 X38.9020 Y-13.4462 
G01 X38.8030 Y-13.5944 
G01 X38.7356 Y-13.6618 
G01 X40.5123 Y-13.6618 
G01 X41.6634 Y-12.5108 
G01 X41.7208 Y-12.4534 
G01 X41.7910 Y-12.4128 
G01 X41.8694 Y-12.3918 
G01 X42.3638 Y-12.3918 
G01 X42.3638 Y-12.3619 
G01 X42.8419 Y-11.8838 
G01 X43.5181 Y-11.8838 
G01 X43.9962 Y-12.3619 
G00 Z0.8000 
G00 X46.5362 Y-12.3619 
G01 Z-0.0800 F100.00 
G01 X46.5362 Y-13.0381 F240.00 
G01 X46.0581 Y-13.5162 
G01 X45.3819 Y-13.5162 
G01 X44.9038 Y-13.0381 
G01 X44.9038 Y-12.3619 
G01 X44.9249 Y-12.3408 
G01 X44.3223 Y-11.7382 
G01 X33.1477 Y-11.7382 
G01 X31.9966 Y-12.8892 
G01 X31.9392 Y-12.9466 
G01 X31.8690 Y-12.9872 
G01 X31.7906 Y-13.0082 
G01 X29.1694 Y-13.0082 
G01 X29.0910 Y-12.9872 
G01 X29.0208 Y-12.9466 
G01 X27.8123 Y-11.7382 
G01 X15.3677 Y-11.7382 
G01 X14.7651 Y-12.3408 
G01 X14.7862 Y-12.3619 
G01 X14.7862 Y-13.0381 
G01 X14.3081 Y-13.5162 
G01 X13.6319 Y-13.5162 
G01 X13.1538 Y-13.0381 
G01 X13.1538 Y-12.3619 
G01 X13.6319 Y-11.8838 
G01 X14.3081 Y-11.8838 
G01 X14.3292 Y-11.9049 
G01 X14.9934 Y-11.2408 
G01 X15.0508 Y-11.1834 
G01 X15.1210 Y-11.1428 
G01 X15.1994 Y-11.1218 
G01 X27.9806 Y-11.1218 
G01 X28.0590 Y-11.1428 
G01 X28.1292 Y-11.1834 
G01 X28.1866 Y-11.2408 
G01 X29.3377 Y-12.3918 
G01 X31.6223 Y-12.3918 
G01 X32.8308 Y-11.1834 
G01 X32.9010 Y-11.1428 
G01 X32.9794 Y-11.1218 
G01 X44.4906 Y-11.1218 
G01 X44.5690 Y-11.1428 
G01 X44.6392 Y-11.1834 
G01 X45.3608 Y-11.9049 
G01 X45.3819 Y-11.8838 
G01 X46.0581 Y-11.8838 
G01 X46.5362 Y-12.3619 
G00 Z0.8000 
G00 X43.9962 Y-9.8219 
G01 Z-0.0800 F100.00 
G01 X43.9962 Y-10.4981 F240.00 
G01 X43.5181 Y-10.9762 
G01 X42.8419 Y-10.9762 
G01 X42.3638 Y-10.4981 
G01 X42.3638 Y-10.4682 
G01 X31.3850 Y-10.4682 
G01 X31.3850 Y-10.5666 
G01 X31.3502 Y-10.7415 
G01 X31.2820 Y-10.9062 
G01 X31.1830 Y-11.0544 
G01 X31.0569 Y-11.1805 
G01 X30.9087 Y-11.2795 
G01 X30.7440 Y-11.3477 
G01 X30.5691 Y-11.3825 
G01 X30.3909 Y-11.3825 
G01 X30.2160 Y-11.3477 
G01 X30.0513 Y-11.2795 
G01 X29.9031 Y-11.1805 
G01 X29.7770 Y-11.0544 
G01 X29.6780 Y-10.9062 
G01 X29.6098 Y-10.7415 
G01 X29.5750 Y-10.5666 
G01 X29.5750 Y-10.3884 
G01 X29.6098 Y-10.2135 
G01 X29.6780 Y-10.0488 
G01 X29.7770 Y-9.9006 
G01 X29.9031 Y-9.7745 
G01 X30.0513 Y-9.6755 
G01 X30.2160 Y-9.6073 
G01 X30.3909 Y-9.5725 
G01 X30.5691 Y-9.5725 
G01 X30.7440 Y-9.6073 
G01 X30.9087 Y-9.6755 
G01 X31.0569 Y-9.7745 
G01 X31.1342 Y-9.8518 
G01 X42.3638 Y-9.8518 
G01 X42.3638 Y-9.8219 
G01 X42.8419 Y-9.3438 
G01 X43.5181 Y-9.3438 
G01 X43.9962 Y-9.8219 
G00 Z0.8000 
G00 X12.2462 Y-14.9019 
G01 Z-0.0800 F100.00 
G01 X12.2462 Y-15.5781 F240.00 
G01 X11.7681 Y-16.0562 
G01 X11.0919 Y-16.0562 
G01 X10.6138 Y-15.5781 
G01 X10.6138 Y-14.9019 
G01 X11.0919 Y-14.4238 
G01 X11.7681 Y-14.4238 
G01 X12.2462 Y-14.9019 
G00 Z0.8000 
G00 X12.2462 Y-9.8219 
G01 Z-0.0800 F100.00 
G01 X12.2462 Y-10.4981 F240.00 
G01 X11.7681 Y-10.9762 
G01 X11.0919 Y-10.9762 
G01 X10.6138 Y-10.4981 
G01 X10.6138 Y-10.4682 
G01 X9.0177 Y-10.4682 
G01 X2.8482 Y-16.6377 
G01 X2.8482 Y-26.5423 
G01 X5.3266 Y-29.0208 
G01 X5.3672 Y-29.0910 
G01 X5.3882 Y-29.1694 
G01 X5.3882 Y-30.3888 
G01 X5.4426 Y-30.4113 
G01 X5.5679 Y-30.4951 
G01 X5.6745 Y-30.6017 
G01 X5.7583 Y-30.7270 
G01 X5.8160 Y-30.8663 
G01 X5.8454 Y-31.0142 
G01 X5.8454 Y-32.4858 
G01 X5.8160 Y-32.6337 
G01 X5.7583 Y-32.7730 
G01 X5.6745 Y-32.8983 
G01 X5.5679 Y-33.0049 
G01 X5.4426 Y-33.0887 
G01 X5.3033 Y-33.1464 
G01 X5.1554 Y-33.1758 
G01 X5.0046 Y-33.1758 
G01 X4.8567 Y-33.1464 
G01 X4.7174 Y-33.0887 
G01 X4.5921 Y-33.0049 
G01 X4.4855 Y-32.8983 
G01 X4.4017 Y-32.7730 
G01 X4.3440 Y-32.6337 
G01 X4.3146 Y-32.4858 
G01 X4.3146 Y-31.0142 
G01 X4.3440 Y-30.8663 
G01 X4.4017 Y-30.7270 
G01 X4.4855 Y-30.6017 
G01 X4.5921 Y-30.4951 
G01 X4.7174 Y-30.4113 
G01 X4.7718 Y-30.3888 
G01 X4.7718 Y-29.3377 
G01 X2.3508 Y-26.9166 
G01 X2.2934 Y-26.8592 
G01 X2.2528 Y-26.7890 
G01 X2.2318 Y-26.7106 
G01 X2.2318 Y-16.4694 
G01 X2.2528 Y-16.3910 
G01 X2.2934 Y-16.3208 
G01 X8.7008 Y-9.9134 
G01 X8.7710 Y-9.8728 
G01 X8.8494 Y-9.8518 
G01 X10.6138 Y-9.8518 
G01 X10.6138 Y-9.8219 
G01 X11.0919 Y-9.3438 
G01 X11.7681 Y-9.3438 
G01 X12.2462 Y-9.8219 
G00 Z0.8000 
G00 X14.7862 Y-9.8219 
G01 Z-0.0800 F100.00 
G01 X14.7862 Y-10.4981 F240.00 
G01 X14.3081 Y-10.9762 
G01 X13.6319 Y-10.9762 
G01 X13.1538 Y-10.4981 
G01 X13.1538 Y-9.8219 
G01 X13.6319 Y-9.3438 
G01 X14.3081 Y-9.3438 
G01 X14.3292 Y-9.3649 
G01 X14.9934 Y-8.7008 
G01 X15.0508 Y-8.6434 
G01 X15.1210 Y-8.6028 
G01 X15.1994 Y-8.5818 
G01 X44.4906 Y-8.5818 
G01 X44.5690 Y-8.6028 
G01 X44.6392 Y-8.6434 
G01 X45.3608 Y-9.3649 
G01 X45.3819 Y-9.3438 
G01 X46.0581 Y-9.3438 
G01 X46.5362 Y-9.8219 
G01 X46.5362 Y-10.4981 
G01 X46.0581 Y-10.9762 
G01 X45.3819 Y-10.9762 
G01 X44.9038 Y-10.4981 
G01 X44.9038 Y-9.8219 
G01 X44.9249 Y-9.8008 
G01 X44.3223 Y-9.1982 
G01 X15.3677 Y-9.1982 
G01 X14.7651 Y-9.8008 
G01 X14.7862 Y-9.8219 
G00 Z0.8000 
G00 X4.6150 Y-38.5907 
G01 Z-0.0800 F100.00 
G01 X4.6150 Y-40.1493 F240.00 
G01 X4.5841 Y-40.3048 
G01 X4.5234 Y-40.4513 
G01 X4.4353 Y-40.5832 
G01 X4.3232 Y-40.6953 
G01 X4.3100 Y-40.7041 
G01 X4.8902 Y-41.2843 
G01 X6.0731 Y-41.2843 
G01 X6.1515 Y-41.3053 
G01 X6.2217 Y-41.3459 
G01 X9.0792 Y-44.2034 
G01 X9.1366 Y-44.2608 
G01 X9.1772 Y-44.3310 
G01 X9.1982 Y-44.4094 
G01 X9.1982 Y-46.5200 
G01 X9.3477 Y-46.5200 
G01 X9.9950 Y-47.1673 
G01 X9.9950 Y-48.0827 
G01 X9.3477 Y-48.7300 
G01 X8.4323 Y-48.7300 
G01 X7.7850 Y-48.0827 
G01 X7.7850 Y-47.1673 
G01 X8.4323 Y-46.5200 
G01 X8.5818 Y-46.5200 
G01 X8.5818 Y-44.5777 
G01 X5.9048 Y-41.9007 
G01 X4.7219 Y-41.9007 
G01 X4.6435 Y-41.8797 
G01 X4.5733 Y-41.8391 
G01 X4.5159 Y-41.7817 
G01 X3.5790 Y-40.8448 
G01 X3.5752 Y-40.8441 
G01 X3.4287 Y-40.7834 
G01 X3.2968 Y-40.6953 
G01 X3.1847 Y-40.5832 
G01 X3.0966 Y-40.4513 
G01 X3.0359 Y-40.3048 
G01 X3.0050 Y-40.1493 
G01 X3.0050 Y-38.5907 
G01 X3.0359 Y-38.4352 
G01 X3.0966 Y-38.2887 
G01 X3.1847 Y-38.1568 
G01 X3.2968 Y-38.0447 
G01 X3.4287 Y-37.9566 
G01 X3.5752 Y-37.8959 
G01 X3.5790 Y-37.8952 
G01 X3.6208 Y-37.8534 
G01 X4.5733 Y-36.9009 
G01 X4.6435 Y-36.8603 
G01 X4.7219 Y-36.8393 
G01 X6.8573 Y-36.8393 
G01 X9.8518 Y-33.8448 
G01 X9.8518 Y-33.1112 
G01 X9.7974 Y-33.0887 
G01 X9.6721 Y-33.0049 
G01 X9.5655 Y-32.8983 
G01 X9.4817 Y-32.7730 
G01 X9.4240 Y-32.6337 
G01 X9.3946 Y-32.4858 
G01 X9.3946 Y-31.0142 
G01 X9.4240 Y-30.8663 
G01 X9.4817 Y-30.7270 
G01 X9.5655 Y-30.6017 
G01 X9.6721 Y-30.4951 
G01 X9.7974 Y-30.4113 
G01 X9.9367 Y-30.3536 
G01 X10.0846 Y-30.3242 
G01 X10.2354 Y-30.3242 
G01 X10.3833 Y-30.3536 
G01 X10.5226 Y-30.4113 
G01 X10.6479 Y-30.4951 
G01 X10.7545 Y-30.6017 
G01 X10.8383 Y-30.7270 
G01 X10.8960 Y-30.8663 
G01 X10.9254 Y-31.0142 
G01 X10.9254 Y-32.4858 
G01 X10.8960 Y-32.6337 
G01 X10.8383 Y-32.7730 
G01 X10.7545 Y-32.8983 
G01 X10.6479 Y-33.0049 
G01 X10.5226 Y-33.0887 
G01 X10.4682 Y-33.1112 
G01 X10.4682 Y-34.0131 
G01 X10.4472 Y-34.0915 
G01 X10.4066 Y-34.1617 
G01 X7.2316 Y-37.3367 
G01 X7.1742 Y-37.3941 
G01 X7.1040 Y-37.4347 
G01 X7.0256 Y-37.4557 
G01 X4.8902 Y-37.4557 
G01 X4.3100 Y-38.0359 
G01 X4.3232 Y-38.0447 
G01 X4.4353 Y-38.1568 
G01 X4.5234 Y-38.2887 
G01 X4.5841 Y-38.4352 
G01 X4.6150 Y-38.5907 
G00 Z0.8000 
G00 X7.1550 Y-40.1493 
G01 Z-0.0800 F100.00 
G01 X7.1241 Y-40.3048 F240.00 
G01 X7.0634 Y-40.4513 
G01 X7.0038 Y-40.5405 
G01 X11.6192 Y-45.1559 
G01 X11.6766 Y-45.2133 
G01 X11.7172 Y-45.2835 
G01 X11.7382 Y-45.3619 
G01 X11.7382 Y-46.5200 
G01 X11.8877 Y-46.5200 
G01 X12.5350 Y-47.1673 
G01 X12.5350 Y-48.0827 
G01 X11.8877 Y-48.7300 
G01 X10.9723 Y-48.7300 
G01 X10.3250 Y-48.0827 
G01 X10.3250 Y-47.1673 
G01 X10.9723 Y-46.5200 
G01 X11.1218 Y-46.5200 
G01 X11.1218 Y-45.5302 
G01 X6.4604 Y-40.8688 
G01 X6.4293 Y-40.8750 
G01 X6.2707 Y-40.8750 
G01 X6.1152 Y-40.8441 
G01 X5.9687 Y-40.7834 
G01 X5.8368 Y-40.6953 
G01 X5.7247 Y-40.5832 
G01 X5.6366 Y-40.4513 
G01 X5.5759 Y-40.3048 
G01 X5.5450 Y-40.1493 
G01 X5.5450 Y-38.5907 
G01 X5.5759 Y-38.4352 
G01 X5.6366 Y-38.2887 
G01 X5.7247 Y-38.1568 
G01 X5.8368 Y-38.0447 
G01 X5.9687 Y-37.9566 
G01 X6.1152 Y-37.8959 
G01 X6.2707 Y-37.8650 
G01 X6.4293 Y-37.8650 
G01 X6.5848 Y-37.8959 
G01 X6.7313 Y-37.9566 
G01 X6.8632 Y-38.0447 
G01 X6.9753 Y-38.1568 
G01 X7.0362 Y-38.2480 
G01 X11.1218 Y-34.1623 
G01 X11.1218 Y-29.3377 
G01 X9.9134 Y-28.1292 
G01 X9.8728 Y-28.0590 
G01 X9.8518 Y-27.9806 
G01 X9.8518 Y-25.4912 
G01 X9.7974 Y-25.4687 
G01 X9.6721 Y-25.3849 
G01 X9.5655 Y-25.2783 
G01 X9.4817 Y-25.1530 
G01 X9.4240 Y-25.0137 
G01 X9.3946 Y-24.8658 
G01 X9.3946 Y-23.3942 
G01 X9.4240 Y-23.2463 
G01 X9.4817 Y-23.1070 
G01 X9.5655 Y-22.9817 
G01 X9.6721 Y-22.8751 
G01 X9.7974 Y-22.7913 
G01 X9.9367 Y-22.7336 
G01 X10.0846 Y-22.7042 
G01 X10.2354 Y-22.7042 
G01 X10.3833 Y-22.7336 
G01 X10.5226 Y-22.7913 
G01 X10.6479 Y-22.8751 
G01 X10.7545 Y-22.9817 
G01 X10.8383 Y-23.1070 
G01 X10.8960 Y-23.2463 
G01 X10.9254 Y-23.3942 
G01 X10.9254 Y-24.8658 
G01 X10.8960 Y-25.0137 
G01 X10.8383 Y-25.1530 
G01 X10.7545 Y-25.2783 
G01 X10.6479 Y-25.3849 
G01 X10.5226 Y-25.4687 
G01 X10.4682 Y-25.4912 
G01 X10.4682 Y-27.8123 
G01 X11.6192 Y-28.9634 
G01 X11.6766 Y-29.0208 
G01 X11.7172 Y-29.0910 
G01 X11.7382 Y-29.1694 
G01 X11.7382 Y-34.3306 
G01 X11.7172 Y-34.4090 
G01 X11.6766 Y-34.4792 
G01 X7.1550 Y-39.0009 
G01 X7.1550 Y-40.1493 
G00 Z0.8000 
G00 X14.7750 Y-38.5907 
G01 Z-0.0800 F100.00 
G01 X14.7750 Y-40.1493 F240.00 
G01 X14.7441 Y-40.3048 
G01 X14.6834 Y-40.4513 
G01 X14.5953 Y-40.5832 
G01 X14.4832 Y-40.6953 
G01 X14.3513 Y-40.7834 
G01 X14.2782 Y-40.8137 
G01 X14.2782 Y-41.7823 
G01 X19.0159 Y-46.5200 
G01 X19.5077 Y-46.5200 
G01 X20.1550 Y-47.1673 
G01 X20.1550 Y-48.0827 
G01 X19.5077 Y-48.7300 
G01 X18.5923 Y-48.7300 
G01 X17.9450 Y-48.0827 
G01 X17.9450 Y-47.1673 
G01 X18.3682 Y-46.7441 
G01 X13.7234 Y-42.0992 
G01 X13.6828 Y-42.0290 
G01 X13.6618 Y-41.9506 
G01 X13.6618 Y-40.8137 
G01 X13.5887 Y-40.7834 
G01 X13.4568 Y-40.6953 
G01 X13.3447 Y-40.5832 
G01 X13.2566 Y-40.4513 
G01 X13.1959 Y-40.3048 
G01 X13.1650 Y-40.1493 
G01 X13.1650 Y-38.5907 
G01 X13.1959 Y-38.4352 
G01 X13.2566 Y-38.2887 
G01 X13.3447 Y-38.1568 
G01 X13.4568 Y-38.0447 
G01 X13.5887 Y-37.9566 
G01 X13.6618 Y-37.9263 
G01 X13.6618 Y-36.7894 
G01 X13.6828 Y-36.7110 
G01 X13.7234 Y-36.6408 
G01 X13.7808 Y-36.5834 
G01 X14.9318 Y-35.4323 
G01 X14.9318 Y-33.1112 
G01 X14.8774 Y-33.0887 
G01 X14.7521 Y-33.0049 
G01 X14.6455 Y-32.8983 
G01 X14.5617 Y-32.7730 
G01 X14.5040 Y-32.6337 
G01 X14.4746 Y-32.4858 
G01 X14.4746 Y-31.0142 
G01 X14.5040 Y-30.8663 
G01 X14.5617 Y-30.7270 
G01 X14.6455 Y-30.6017 
G01 X14.7521 Y-30.4951 
G01 X14.8774 Y-30.4113 
G01 X15.0167 Y-30.3536 
G01 X15.1646 Y-30.3242 
G01 X15.3154 Y-30.3242 
G01 X15.4633 Y-30.3536 
G01 X15.6026 Y-30.4113 
G01 X15.7279 Y-30.4951 
G01 X15.8345 Y-30.6017 
G01 X15.9183 Y-30.7270 
G01 X15.9760 Y-30.8663 
G01 X16.0054 Y-31.0142 
G01 X16.0054 Y-32.4858 
G01 X15.9760 Y-32.6337 
G01 X15.9183 Y-32.7730 
G01 X15.8345 Y-32.8983 
G01 X15.7279 Y-33.0049 
G01 X15.6026 Y-33.0887 
G01 X15.5482 Y-33.1112 
G01 X15.5482 Y-35.6006 
G01 X15.5272 Y-35.6790 
G01 X15.4866 Y-35.7492 
G01 X14.2782 Y-36.9577 
G01 X14.2782 Y-37.9263 
G01 X14.3513 Y-37.9566 
G01 X14.4832 Y-38.0447 
G01 X14.5953 Y-38.1568 
G01 X14.6834 Y-38.2887 
G01 X14.7441 Y-38.4352 
G01 X14.7750 Y-38.5907 
G00 Z0.8000 
G00 X38.6046 Y-32.4858 
G01 Z-0.0800 F100.00 
G01 X38.6046 Y-31.0142 F240.00 
G01 X38.6340 Y-30.8663 
G01 X38.6917 Y-30.7270 
G01 X38.7755 Y-30.6017 
G01 X38.8821 Y-30.4951 
G01 X39.0074 Y-30.4113 
G01 X39.1467 Y-30.3536 
G01 X39.2946 Y-30.3242 
G01 X39.4454 Y-30.3242 
G01 X39.5933 Y-30.3536 
G01 X39.7326 Y-30.4113 
G01 X39.8579 Y-30.4951 
G01 X39.9645 Y-30.6017 
G01 X40.0483 Y-30.7270 
G01 X40.1060 Y-30.8663 
G01 X40.1354 Y-31.0142 
G01 X40.1354 Y-32.4858 
G01 X40.1060 Y-32.6337 
G01 X40.0483 Y-32.7730 
G01 X39.9645 Y-32.8983 
G01 X39.8579 Y-33.0049 
G01 X39.7326 Y-33.0887 
G01 X39.6782 Y-33.1112 
G01 X39.6782 Y-35.4323 
G01 X40.8866 Y-36.6408 
G01 X40.9272 Y-36.7110 
G01 X40.9482 Y-36.7894 
G01 X40.9482 Y-37.9263 
G01 X41.0213 Y-37.9566 
G01 X41.1532 Y-38.0447 
G01 X41.2653 Y-38.1568 
G01 X41.3534 Y-38.2887 
G01 X41.4141 Y-38.4352 
G01 X41.4450 Y-38.5907 
G01 X41.4450 Y-40.1493 
G01 X41.4141 Y-40.3048 
G01 X41.3534 Y-40.4513 
G01 X41.2653 Y-40.5832 
G01 X41.1532 Y-40.6953 
G01 X41.0213 Y-40.7834 
G01 X40.9482 Y-40.8137 
G01 X40.9482 Y-46.5200 
G01 X41.0977 Y-46.5200 
G01 X41.7450 Y-47.1673 
G01 X41.7450 Y-48.0827 
G01 X41.0977 Y-48.7300 
G01 X40.1823 Y-48.7300 
G01 X39.5350 Y-48.0827 
G01 X39.5350 Y-47.1673 
G01 X40.1823 Y-46.5200 
G01 X40.3318 Y-46.5200 
G01 X40.3318 Y-40.8137 
G01 X40.2587 Y-40.7834 
G01 X40.1268 Y-40.6953 
G01 X40.0147 Y-40.5832 
G01 X39.9266 Y-40.4513 
G01 X39.8659 Y-40.3048 
G01 X39.8350 Y-40.1493 
G01 X39.8350 Y-38.5907 
G01 X39.8659 Y-38.4352 
G01 X39.9266 Y-38.2887 
G01 X40.0147 Y-38.1568 
G01 X40.1268 Y-38.0447 
G01 X40.2587 Y-37.9566 
G01 X40.3318 Y-37.9263 
G01 X40.3318 Y-36.9577 
G01 X39.1808 Y-35.8066 
G01 X39.1234 Y-35.7492 
G01 X39.0828 Y-35.6790 
G01 X39.0618 Y-35.6006 
G01 X39.0618 Y-33.1112 
G01 X39.0074 Y-33.0887 
G01 X38.8821 Y-33.0049 
G01 X38.7755 Y-32.8983 
G01 X38.6917 Y-32.7730 
G01 X38.6340 Y-32.6337 
G01 X38.6046 Y-32.4858 
G00 Z0.8000 
G00 X36.0646 Y-32.4858 
G01 Z-0.0800 F100.00 
G01 X36.0646 Y-31.0142 F240.00 
G01 X36.0940 Y-30.8663 
G01 X36.1517 Y-30.7270 
G01 X36.2355 Y-30.6017 
G01 X36.3421 Y-30.4951 
G01 X36.4674 Y-30.4113 
G01 X36.6067 Y-30.3536 
G01 X36.7546 Y-30.3242 
G01 X36.9054 Y-30.3242 
G01 X37.0533 Y-30.3536 
G01 X37.1926 Y-30.4113 
G01 X37.3179 Y-30.4951 
G01 X37.4245 Y-30.6017 
G01 X37.5083 Y-30.7270 
G01 X37.5660 Y-30.8663 
G01 X37.5954 Y-31.0142 
G01 X37.5954 Y-32.4858 
G01 X37.5660 Y-32.6337 
G01 X37.5083 Y-32.7730 
G01 X37.4245 Y-32.8983 
G01 X37.3179 Y-33.0049 
G01 X37.1926 Y-33.0887 
G01 X37.1382 Y-33.1112 
G01 X37.1382 Y-34.9656 
G01 X37.1172 Y-35.0440 
G01 X37.0766 Y-35.1142 
G01 X37.0192 Y-35.1716 
G01 X35.8682 Y-36.3227 
G01 X35.8682 Y-37.9263 
G01 X35.9413 Y-37.9566 
G01 X36.0732 Y-38.0447 
G01 X36.1853 Y-38.1568 
G01 X36.2734 Y-38.2887 
G01 X36.3341 Y-38.4352 
G01 X36.3650 Y-38.5907 
G01 X36.3650 Y-40.1493 
G01 X36.3341 Y-40.3048 
G01 X36.2734 Y-40.4513 
G01 X36.1853 Y-40.5832 
G01 X36.0732 Y-40.6953 
G01 X35.9413 Y-40.7834 
G01 X35.8682 Y-40.8137 
G01 X35.8682 Y-46.5200 
G01 X36.0177 Y-46.5200 
G01 X36.6650 Y-47.1673 
G01 X36.6650 Y-48.0827 
G01 X36.0177 Y-48.7300 
G01 X35.1023 Y-48.7300 
G01 X34.4550 Y-48.0827 
G01 X34.4550 Y-47.1673 
G01 X35.1023 Y-46.5200 
G01 X35.2518 Y-46.5200 
G01 X35.2518 Y-40.8137 
G01 X35.1787 Y-40.7834 
G01 X35.0468 Y-40.6953 
G01 X34.9347 Y-40.5832 
G01 X34.8466 Y-40.4513 
G01 X34.7859 Y-40.3048 
G01 X34.7550 Y-40.1493 
G01 X34.7550 Y-38.5907 
G01 X34.7859 Y-38.4352 
G01 X34.8466 Y-38.2887 
G01 X34.9347 Y-38.1568 
G01 X35.0468 Y-38.0447 
G01 X35.1787 Y-37.9566 
G01 X35.2518 Y-37.9263 
G01 X35.2518 Y-36.1544 
G01 X35.2728 Y-36.0760 
G01 X35.3134 Y-36.0058 
G01 X36.5218 Y-34.7973 
G01 X36.5218 Y-33.1112 
G01 X36.4674 Y-33.0887 
G01 X36.3421 Y-33.0049 
G01 X36.2355 Y-32.8983 
G01 X36.1517 Y-32.7730 
G01 X36.0940 Y-32.6337 
G01 X36.0646 Y-32.4858 
G00 Z0.8000 
G00 X33.5246 Y-32.4858 
G01 Z-0.0800 F100.00 
G01 X33.5246 Y-31.0142 F240.00 
G01 X33.5540 Y-30.8663 
G01 X33.6117 Y-30.7270 
G01 X33.6955 Y-30.6017 
G01 X33.8021 Y-30.4951 
G01 X33.9274 Y-30.4113 
G01 X34.0667 Y-30.3536 
G01 X34.2146 Y-30.3242 
G01 X34.3654 Y-30.3242 
G01 X34.5133 Y-30.3536 
G01 X34.6526 Y-30.4113 
G01 X34.7779 Y-30.4951 
G01 X34.8845 Y-30.6017 
G01 X34.9683 Y-30.7270 
G01 X35.0260 Y-30.8663 
G01 X35.0554 Y-31.0142 
G01 X35.0554 Y-32.4858 
G01 X35.0260 Y-32.6337 
G01 X34.9683 Y-32.7730 
G01 X34.8845 Y-32.8983 
G01 X34.7779 Y-33.0049 
G01 X34.6526 Y-33.0887 
G01 X34.5982 Y-33.1112 
G01 X34.5982 Y-34.3306 
G01 X34.5772 Y-34.4090 
G01 X34.5366 Y-34.4792 
G01 X34.4792 Y-34.5366 
G01 X30.9800 Y-38.0359 
G01 X30.9932 Y-38.0447 
G01 X31.1053 Y-38.1568 
G01 X31.1934 Y-38.2887 
G01 X31.2541 Y-38.4352 
G01 X31.2850 Y-38.5907 
G01 X31.2850 Y-40.1493 
G01 X31.2541 Y-40.3048 
G01 X31.1934 Y-40.4513 
G01 X31.1053 Y-40.5832 
G01 X30.9932 Y-40.6953 
G01 X30.8613 Y-40.7834 
G01 X30.7882 Y-40.8137 
G01 X30.7882 Y-46.5200 
G01 X30.9377 Y-46.5200 
G01 X31.5850 Y-47.1673 
G01 X31.5850 Y-48.0827 
G01 X30.9377 Y-48.7300 
G01 X30.0223 Y-48.7300 
G01 X29.3750 Y-48.0827 
G01 X29.3750 Y-47.1673 
G01 X30.0223 Y-46.5200 
G01 X30.1718 Y-46.5200 
G01 X30.1718 Y-40.8137 
G01 X30.0987 Y-40.7834 
G01 X29.9668 Y-40.6953 
G01 X29.8547 Y-40.5832 
G01 X29.7666 Y-40.4513 
G01 X29.7059 Y-40.3048 
G01 X29.6750 Y-40.1493 
G01 X29.6750 Y-38.5907 
G01 X29.7059 Y-38.4352 
G01 X29.7666 Y-38.2887 
G01 X29.8547 Y-38.1568 
G01 X29.9668 Y-38.0447 
G01 X30.0987 Y-37.9566 
G01 X30.2452 Y-37.8959 
G01 X30.2490 Y-37.8952 
G01 X33.9818 Y-34.1623 
G01 X33.9818 Y-33.1112 
G01 X33.9274 Y-33.0887 
G01 X33.8021 Y-33.0049 
G01 X33.6955 Y-32.8983 
G01 X33.6117 Y-32.7730 
G01 X33.5540 Y-32.6337 
G01 X33.5246 Y-32.4858 
G00 Z0.8000 
G00 X28.4446 Y-32.4858 
G01 Z-0.0800 F100.00 
G01 X28.4446 Y-31.0142 F240.00 
G01 X28.4740 Y-30.8663 
G01 X28.5317 Y-30.7270 
G01 X28.6155 Y-30.6017 
G01 X28.7221 Y-30.4951 
G01 X28.8474 Y-30.4113 
G01 X28.9867 Y-30.3536 
G01 X29.1346 Y-30.3242 
G01 X29.2854 Y-30.3242 
G01 X29.4333 Y-30.3536 
G01 X29.5725 Y-30.4113 
G01 X29.6979 Y-30.4951 
G01 X29.8045 Y-30.6017 
G01 X29.8883 Y-30.7270 
G01 X29.9460 Y-30.8663 
G01 X29.9754 Y-31.0142 
G01 X29.9754 Y-32.4858 
G01 X29.9460 Y-32.6337 
G01 X29.8883 Y-32.7730 
G01 X29.8045 Y-32.8983 
G01 X29.6979 Y-33.0049 
G01 X29.5725 Y-33.0887 
G01 X29.5029 Y-33.1175 
G01 X29.4972 Y-33.1390 
G01 X29.4566 Y-33.2092 
G01 X29.3992 Y-33.2666 
G01 X26.8592 Y-35.8066 
G01 X26.7890 Y-35.8472 
G01 X26.7106 Y-35.8682 
G01 X26.2519 Y-35.8682 
G01 X26.2020 Y-35.9887 
G01 X26.1030 Y-36.1369 
G01 X25.9769 Y-36.2630 
G01 X25.8287 Y-36.3620 
G01 X25.6640 Y-36.4302 
G01 X25.4891 Y-36.4650 
G01 X25.3109 Y-36.4650 
G01 X25.1360 Y-36.4302 
G01 X24.9713 Y-36.3620 
G01 X24.8231 Y-36.2630 
G01 X24.6970 Y-36.1369 
G01 X24.5980 Y-35.9887 
G01 X24.5298 Y-35.8240 
G01 X24.4950 Y-35.6491 
G01 X24.4950 Y-35.4709 
G01 X24.5298 Y-35.2960 
G01 X24.5980 Y-35.1313 
G01 X24.6970 Y-34.9831 
G01 X24.8231 Y-34.8570 
G01 X24.9713 Y-34.7580 
G01 X25.1360 Y-34.6898 
G01 X25.3109 Y-34.6550 
G01 X25.4891 Y-34.6550 
G01 X25.6640 Y-34.6898 
G01 X25.8287 Y-34.7580 
G01 X25.9769 Y-34.8570 
G01 X26.1030 Y-34.9831 
G01 X26.2020 Y-35.1313 
G01 X26.2519 Y-35.2518 
G01 X26.5423 Y-35.2518 
G01 X28.7623 Y-33.0318 
G01 X28.7221 Y-33.0049 
G01 X28.6155 Y-32.8983 
G01 X28.5317 Y-32.7730 
G01 X28.4740 Y-32.6337 
G01 X28.4446 Y-32.4858 
G00 Z0.8000 
G00 X30.9846 Y-24.8658 
G01 Z-0.0800 F100.00 
G01 X30.9846 Y-23.3942 F240.00 
G01 X31.0140 Y-23.2463 
G01 X31.0717 Y-23.1070 
G01 X31.1555 Y-22.9817 
G01 X31.2621 Y-22.8751 
G01 X31.3874 Y-22.7913 
G01 X31.5267 Y-22.7336 
G01 X31.6746 Y-22.7042 
G01 X31.8254 Y-22.7042 
G01 X31.9733 Y-22.7336 
G01 X32.1125 Y-22.7913 
G01 X32.2379 Y-22.8751 
G01 X32.3445 Y-22.9817 
G01 X32.4283 Y-23.1070 
G01 X32.4860 Y-23.2463 
G01 X32.5154 Y-23.3942 
G01 X32.5154 Y-24.8658 
G01 X32.4860 Y-25.0137 
G01 X32.4283 Y-25.1530 
G01 X32.3445 Y-25.2783 
G01 X32.2379 Y-25.3849 
G01 X32.1125 Y-25.4687 
G01 X31.9733 Y-25.5264 
G01 X31.8254 Y-25.5558 
G01 X31.6746 Y-25.5558 
G01 X31.5267 Y-25.5264 
G01 X31.3874 Y-25.4687 
G01 X31.2621 Y-25.3849 
G01 X31.1555 Y-25.2783 
G01 X31.0717 Y-25.1530 
G01 X31.0140 Y-25.0137 
G01 X30.9846 Y-24.8658 
G00 Z0.8000 
G00 X38.6046 Y-24.8658 
G01 Z-0.0800 F100.00 
G01 X38.6046 Y-23.3942 F240.00 
G01 X38.6340 Y-23.2463 
G01 X38.6917 Y-23.1070 
G01 X38.7755 Y-22.9817 
G01 X38.8821 Y-22.8751 
G01 X39.0074 Y-22.7913 
G01 X39.1467 Y-22.7336 
G01 X39.2946 Y-22.7042 
G01 X39.4454 Y-22.7042 
G01 X39.5933 Y-22.7336 
G01 X39.7326 Y-22.7913 
G01 X39.8579 Y-22.8751 
G01 X39.9645 Y-22.9817 
G01 X40.0483 Y-23.1070 
G01 X40.1060 Y-23.2463 
G01 X40.1354 Y-23.3942 
G01 X40.1354 Y-24.8658 
G01 X40.1060 Y-25.0137 
G01 X40.0483 Y-25.1530 
G01 X39.9645 Y-25.2783 
G01 X39.8579 Y-25.3849 
G01 X39.7326 Y-25.4687 
G01 X39.6782 Y-25.4912 
G01 X39.6782 Y-27.1773 
G01 X40.8866 Y-28.3858 
G01 X40.9272 Y-28.4560 
G01 X40.9482 Y-28.5344 
G01 X40.9482 Y-34.7973 
G01 X43.4266 Y-37.2758 
G01 X43.4672 Y-37.3460 
G01 X43.4882 Y-37.4244 
G01 X43.4882 Y-37.9263 
G01 X43.5613 Y-37.9566 
G01 X43.6932 Y-38.0447 
G01 X43.8053 Y-38.1568 
G01 X43.8934 Y-38.2887 
G01 X43.9541 Y-38.4352 
G01 X43.9850 Y-38.5907 
G01 X43.9850 Y-40.1493 
G01 X43.9541 Y-40.3048 
G01 X43.8934 Y-40.4513 
G01 X43.8053 Y-40.5832 
G01 X43.6932 Y-40.6953 
G01 X43.5613 Y-40.7834 
G01 X43.4882 Y-40.8137 
G01 X43.4882 Y-46.5200 
G01 X43.6377 Y-46.5200 
G01 X44.2850 Y-47.1673 
G01 X44.2850 Y-48.0827 
G01 X43.6377 Y-48.7300 
G01 X42.7223 Y-48.7300 
G01 X42.0750 Y-48.0827 
G01 X42.0750 Y-47.1673 
G01 X42.7223 Y-46.5200 
G01 X42.8718 Y-46.5200 
G01 X42.8718 Y-40.8137 
G01 X42.7987 Y-40.7834 
G01 X42.6668 Y-40.6953 
G01 X42.5547 Y-40.5832 
G01 X42.4666 Y-40.4513 
G01 X42.4059 Y-40.3048 
G01 X42.3750 Y-40.1493 
G01 X42.3750 Y-38.5907 
G01 X42.4059 Y-38.4352 
G01 X42.4666 Y-38.2887 
G01 X42.5547 Y-38.1568 
G01 X42.6668 Y-38.0447 
G01 X42.7987 Y-37.9566 
G01 X42.8718 Y-37.9263 
G01 X42.8718 Y-37.5927 
G01 X40.4508 Y-35.1716 
G01 X40.3934 Y-35.1142 
G01 X40.3528 Y-35.0440 
G01 X40.3318 Y-34.9656 
G01 X40.3318 Y-28.7027 
G01 X39.1808 Y-27.5516 
G01 X39.1234 Y-27.4942 
G01 X39.0828 Y-27.4240 
G01 X39.0618 Y-27.3456 
G01 X39.0618 Y-25.4912 
G01 X39.0074 Y-25.4687 
G01 X38.8821 Y-25.3849 
G01 X38.7755 Y-25.2783 
G01 X38.6917 Y-25.1530 
G01 X38.6340 Y-25.0137 
G01 X38.6046 Y-24.8658 
G00 Z0.8000 
G00 X41.1446 Y-24.8658 
G01 Z-0.0800 F100.00 
G01 X41.1446 Y-23.3942 F240.00 
G01 X41.1740 Y-23.2463 
G01 X41.2317 Y-23.1070 
G01 X41.3155 Y-22.9817 
G01 X41.4221 Y-22.8751 
G01 X41.5474 Y-22.7913 
G01 X41.6867 Y-22.7336 
G01 X41.8346 Y-22.7042 
G01 X41.9854 Y-22.7042 
G01 X42.1333 Y-22.7336 
G01 X42.2726 Y-22.7913 
G01 X42.3979 Y-22.8751 
G01 X42.5045 Y-22.9817 
G01 X42.5883 Y-23.1070 
G01 X42.6460 Y-23.2463 
G01 X42.6754 Y-23.3942 
G01 X42.6754 Y-24.8658 
G01 X42.6460 Y-25.0137 
G01 X42.5883 Y-25.1530 
G01 X42.5045 Y-25.2783 
G01 X42.3979 Y-25.3849 
G01 X42.2726 Y-25.4687 
G01 X42.2182 Y-25.4912 
G01 X42.2182 Y-26.5423 
G01 X43.4266 Y-27.7508 
G01 X43.4672 Y-27.8210 
G01 X43.4882 Y-27.8994 
G01 X43.4882 Y-34.1623 
G01 X45.8477 Y-36.5218 
G01 X47.0306 Y-36.5218 
G01 X47.1090 Y-36.5428 
G01 X47.1792 Y-36.5834 
G01 X48.4492 Y-37.8534 
G01 X48.4910 Y-37.8952 
G01 X48.4948 Y-37.8959 
G01 X48.6413 Y-37.9566 
G01 X48.7732 Y-38.0447 
G01 X48.8853 Y-38.1568 
G01 X48.9734 Y-38.2887 
G01 X49.0341 Y-38.4352 
G01 X49.0650 Y-38.5907 
G01 X49.0650 Y-40.1493 
G01 X49.0341 Y-40.3048 
G01 X48.9734 Y-40.4513 
G01 X48.8853 Y-40.5832 
G01 X48.7732 Y-40.6953 
G01 X48.6413 Y-40.7834 
G01 X48.5682 Y-40.8137 
G01 X48.5682 Y-46.5200 
G01 X48.7177 Y-46.5200 
G01 X49.3650 Y-47.1673 
G01 X49.3650 Y-48.0827 
G01 X48.7177 Y-48.7300 
G01 X47.8023 Y-48.7300 
G01 X47.1550 Y-48.0827 
G01 X47.1550 Y-47.1673 
G01 X47.8023 Y-46.5200 
G01 X47.9518 Y-46.5200 
G01 X47.9518 Y-40.8137 
G01 X47.8787 Y-40.7834 
G01 X47.7468 Y-40.6953 
G01 X47.6347 Y-40.5832 
G01 X47.5466 Y-40.4513 
G01 X47.4859 Y-40.3048 
G01 X47.4550 Y-40.1493 
G01 X47.4550 Y-38.5907 
G01 X47.4859 Y-38.4352 
G01 X47.5466 Y-38.2887 
G01 X47.6347 Y-38.1568 
G01 X47.7468 Y-38.0447 
G01 X47.7600 Y-38.0359 
G01 X46.8623 Y-37.1382 
G01 X45.6794 Y-37.1382 
G01 X45.6010 Y-37.1172 
G01 X45.5308 Y-37.0766 
G01 X42.9334 Y-34.4792 
G01 X42.8928 Y-34.4090 
G01 X42.8718 Y-34.3306 
G01 X42.8718 Y-28.0677 
G01 X41.7208 Y-26.9166 
G01 X41.6634 Y-26.8592 
G01 X41.6228 Y-26.7890 
G01 X41.6018 Y-26.7106 
G01 X41.6018 Y-25.4912 
G01 X41.5474 Y-25.4687 
G01 X41.4221 Y-25.3849 
G01 X41.3155 Y-25.2783 
G01 X41.2317 Y-25.1530 
G01 X41.1740 Y-25.0137 
G01 X41.1446 Y-24.8658 
G00 Z0.8000 
G00 X33.5246 Y-24.8658 
G01 Z-0.0800 F100.00 
G01 X33.5246 Y-23.3942 F240.00 
G01 X33.5540 Y-23.2463 
G01 X33.6117 Y-23.1070 
G01 X33.6955 Y-22.9817 
G01 X33.8021 Y-22.8751 
G01 X33.9274 Y-22.7913 
G01 X34.0667 Y-22.7336 
G01 X34.2146 Y-22.7042 
G01 X34.3654 Y-22.7042 
G01 X34.5133 Y-22.7336 
G01 X34.6526 Y-22.7913 
G01 X34.7779 Y-22.8751 
G01 X34.8845 Y-22.9817 
G01 X34.9683 Y-23.1070 
G01 X35.0260 Y-23.2463 
G01 X35.0554 Y-23.3942 
G01 X35.0554 Y-24.8658 
G01 X35.0260 Y-25.0137 
G01 X34.9683 Y-25.1530 
G01 X34.8845 Y-25.2783 
G01 X34.7779 Y-25.3849 
G01 X34.6526 Y-25.4687 
G01 X34.5982 Y-25.4912 
G01 X34.5982 Y-28.4473 
G01 X35.8066 Y-29.6558 
G01 X35.8472 Y-29.7260 
G01 X35.8682 Y-29.8044 
G01 X35.8682 Y-34.6481 
G01 X35.8472 Y-34.7265 
G01 X35.8066 Y-34.7967 
G01 X35.7492 Y-34.8541 
G01 X33.3282 Y-37.2752 
G01 X33.3282 Y-37.9263 
G01 X33.4013 Y-37.9566 
G01 X33.5332 Y-38.0447 
G01 X33.6453 Y-38.1568 
G01 X33.7334 Y-38.2887 
G01 X33.7941 Y-38.4352 
G01 X33.8250 Y-38.5907 
G01 X33.8250 Y-40.1493 
G01 X33.7941 Y-40.3048 
G01 X33.7334 Y-40.4513 
G01 X33.6453 Y-40.5832 
G01 X33.5332 Y-40.6953 
G01 X33.4013 Y-40.7834 
G01 X33.3282 Y-40.8137 
G01 X33.3282 Y-46.5200 
G01 X33.4777 Y-46.5200 
G01 X34.1250 Y-47.1673 
G01 X34.1250 Y-48.0827 
G01 X33.4777 Y-48.7300 
G01 X32.5623 Y-48.7300 
G01 X31.9150 Y-48.0827 
G01 X31.9150 Y-47.1673 
G01 X32.5623 Y-46.5200 
G01 X32.7118 Y-46.5200 
G01 X32.7118 Y-40.8137 
G01 X32.6387 Y-40.7834 
G01 X32.5068 Y-40.6953 
G01 X32.3947 Y-40.5832 
G01 X32.3066 Y-40.4513 
G01 X32.2459 Y-40.3048 
G01 X32.2150 Y-40.1493 
G01 X32.2150 Y-38.5907 
G01 X32.2459 Y-38.4352 
G01 X32.3066 Y-38.2887 
G01 X32.3947 Y-38.1568 
G01 X32.5068 Y-38.0447 
G01 X32.6387 Y-37.9566 
G01 X32.7118 Y-37.9263 
G01 X32.7118 Y-37.1069 
G01 X32.7328 Y-37.0285 
G01 X32.7734 Y-36.9583 
G01 X35.2518 Y-34.4798 
G01 X35.2518 Y-29.9727 
G01 X34.1008 Y-28.8216 
G01 X34.0434 Y-28.7642 
G01 X34.0028 Y-28.6940 
G01 X33.9818 Y-28.6156 
G01 X33.9818 Y-25.4912 
G01 X33.9274 Y-25.4687 
G01 X33.8021 Y-25.3849 
G01 X33.6955 Y-25.2783 
G01 X33.6117 Y-25.1530 
G01 X33.5540 Y-25.0137 
G01 X33.5246 Y-24.8658 
G00 Z0.8000 
G00 X36.0646 Y-24.8658 
G01 Z-0.0800 F100.00 
G01 X36.0646 Y-23.3942 F240.00 
G01 X36.0940 Y-23.2463 
G01 X36.1517 Y-23.1070 
G01 X36.2355 Y-22.9817 
G01 X36.3421 Y-22.8751 
G01 X36.4674 Y-22.7913 
G01 X36.6067 Y-22.7336 
G01 X36.7546 Y-22.7042 
G01 X36.9054 Y-22.7042 
G01 X37.0533 Y-22.7336 
G01 X37.1926 Y-22.7913 
G01 X37.3179 Y-22.8751 
G01 X37.4245 Y-22.9817 
G01 X37.5083 Y-23.1070 
G01 X37.5660 Y-23.2463 
G01 X37.5954 Y-23.3942 
G01 X37.5954 Y-24.8658 
G01 X37.5660 Y-25.0137 
G01 X37.5083 Y-25.1530 
G01 X37.4245 Y-25.2783 
G01 X37.3179 Y-25.3849 
G01 X37.1926 Y-25.4687 
G01 X37.1382 Y-25.4912 
G01 X37.1382 Y-27.8123 
G01 X38.3466 Y-29.0208 
G01 X38.3872 Y-29.0910 
G01 X38.4082 Y-29.1694 
G01 X38.4082 Y-37.9263 
G01 X38.4813 Y-37.9566 
G01 X38.6132 Y-38.0447 
G01 X38.7253 Y-38.1568 
G01 X38.8134 Y-38.2887 
G01 X38.8741 Y-38.4352 
G01 X38.9050 Y-38.5907 
G01 X38.9050 Y-40.1493 
G01 X38.8741 Y-40.3048 
G01 X38.8134 Y-40.4513 
G01 X38.7253 Y-40.5832 
G01 X38.6132 Y-40.6953 
G01 X38.4813 Y-40.7834 
G01 X38.4082 Y-40.8137 
G01 X38.4082 Y-46.5200 
G01 X38.5577 Y-46.5200 
G01 X39.2050 Y-47.1673 
G01 X39.2050 Y-48.0827 
G01 X38.5577 Y-48.7300 
G01 X37.6423 Y-48.7300 
G01 X36.9950 Y-48.0827 
G01 X36.9950 Y-47.1673 
G01 X37.6423 Y-46.5200 
G01 X37.7918 Y-46.5200 
G01 X37.7918 Y-40.8137 
G01 X37.7187 Y-40.7834 
G01 X37.5868 Y-40.6953 
G01 X37.4747 Y-40.5832 
G01 X37.3866 Y-40.4513 
G01 X37.3259 Y-40.3048 
G01 X37.2950 Y-40.1493 
G01 X37.2950 Y-38.5907 
G01 X37.3259 Y-38.4352 
G01 X37.3866 Y-38.2887 
G01 X37.4747 Y-38.1568 
G01 X37.5868 Y-38.0447 
G01 X37.7187 Y-37.9566 
G01 X37.7918 Y-37.9263 
G01 X37.7918 Y-29.3377 
G01 X36.6408 Y-28.1866 
G01 X36.5834 Y-28.1292 
G01 X36.5428 Y-28.0590 
G01 X36.5218 Y-27.9806 
G01 X36.5218 Y-25.4912 
G01 X36.4674 Y-25.4687 
G01 X36.3421 Y-25.3849 
G01 X36.2355 Y-25.2783 
G01 X36.1517 Y-25.1530 
G01 X36.0940 Y-25.0137 
G01 X36.0646 Y-24.8658 
G00 Z0.8000 
G00 X43.6846 Y-24.8658 
G01 Z-0.0800 F100.00 
G01 X43.6846 Y-23.3942 F240.00 
G01 X43.7140 Y-23.2463 
G01 X43.7717 Y-23.1070 
G01 X43.8555 Y-22.9817 
G01 X43.9621 Y-22.8751 
G01 X44.0874 Y-22.7913 
G01 X44.1418 Y-22.7688 
G01 X44.1418 Y-21.7177 
G01 X40.3934 Y-17.9692 
G01 X40.3528 Y-17.8990 
G01 X40.3318 Y-17.8206 
G01 X40.3318 Y-15.5482 
G01 X20.6282 Y-15.5482 
G01 X20.6282 Y-22.7688 
G01 X20.6826 Y-22.7913 
G01 X20.8079 Y-22.8751 
G01 X20.9145 Y-22.9817 
G01 X20.9983 Y-23.1070 
G01 X21.0560 Y-23.2463 
G01 X21.0854 Y-23.3942 
G01 X21.0854 Y-24.8658 
G01 X21.0560 Y-25.0137 
G01 X20.9983 Y-25.1530 
G01 X20.9145 Y-25.2783 
G01 X20.8079 Y-25.3849 
G01 X20.6826 Y-25.4687 
G01 X20.5433 Y-25.5264 
G01 X20.3954 Y-25.5558 
G01 X20.2446 Y-25.5558 
G01 X20.0967 Y-25.5264 
G01 X19.9574 Y-25.4687 
G01 X19.8321 Y-25.3849 
G01 X19.7255 Y-25.2783 
G01 X19.6417 Y-25.1530 
G01 X19.5840 Y-25.0137 
G01 X19.5546 Y-24.8658 
G01 X19.5546 Y-23.3942 
G01 X19.5840 Y-23.2463 
G01 X19.6417 Y-23.1070 
G01 X19.7255 Y-22.9817 
G01 X19.8321 Y-22.8751 
G01 X19.9574 Y-22.7913 
G01 X20.0118 Y-22.7688 
G01 X20.0118 Y-15.5482 
G01 X14.7862 Y-15.5482 
G01 X14.7862 Y-15.5781 
G01 X14.3081 Y-16.0562 
G01 X13.6319 Y-16.0562 
G01 X13.1538 Y-15.5781 
G01 X13.1538 Y-14.9019 
G01 X13.6319 Y-14.4238 
G01 X14.3081 Y-14.4238 
G01 X14.7862 Y-14.9019 
G01 X14.7862 Y-14.9318 
G01 X40.8298 Y-14.9318 
G01 X41.9809 Y-13.7808 
G01 X42.0383 Y-13.7234 
G01 X42.1085 Y-13.6828 
G01 X42.1869 Y-13.6618 
G01 X44.4906 Y-13.6618 
G01 X44.5690 Y-13.6828 
G01 X44.6392 Y-13.7234 
G01 X45.3608 Y-14.4449 
G01 X45.3819 Y-14.4238 
G01 X46.0581 Y-14.4238 
G01 X46.5362 Y-14.9019 
G01 X46.5362 Y-15.5781 
G01 X46.0581 Y-16.0562 
G01 X45.3819 Y-16.0562 
G01 X44.9038 Y-15.5781 
G01 X44.9038 Y-14.9019 
G01 X44.9249 Y-14.8808 
G01 X44.3223 Y-14.2782 
G01 X42.3552 Y-14.2782 
G01 X41.1467 Y-15.4866 
G01 X41.0765 Y-15.5272 
G01 X40.9981 Y-15.5482 
G01 X40.9482 Y-15.5482 
G01 X40.9482 Y-17.6523 
G01 X44.6966 Y-21.4008 
G01 X44.7372 Y-21.4710 
G01 X44.7582 Y-21.5494 
G01 X44.7582 Y-22.7688 
G01 X44.8126 Y-22.7913 
G01 X44.9379 Y-22.8751 
G01 X45.0445 Y-22.9817 
G01 X45.1283 Y-23.1070 
G01 X45.1860 Y-23.2463 
G01 X45.2154 Y-23.3942 
G01 X45.2154 Y-24.8658 
G01 X45.1860 Y-25.0137 
G01 X45.1283 Y-25.1530 
G01 X45.0445 Y-25.2783 
G01 X44.9379 Y-25.3849 
G01 X44.8126 Y-25.4687 
G01 X44.6733 Y-25.5264 
G01 X44.5254 Y-25.5558 
G01 X44.3746 Y-25.5558 
G01 X44.2267 Y-25.5264 
G01 X44.0874 Y-25.4687 
G01 X43.9621 Y-25.3849 
G01 X43.8555 Y-25.2783 
G01 X43.7717 Y-25.1530 
G01 X43.7140 Y-25.0137 
G01 X43.6846 Y-24.8658 
G00 Z0.8000 
G00 X46.2246 Y-24.8658 
G01 Z-0.0800 F100.00 
G01 X46.2246 Y-23.3942 F240.00 
G01 X46.2540 Y-23.2463 
G01 X46.3117 Y-23.1070 
G01 X46.3955 Y-22.9817 
G01 X46.5021 Y-22.8751 
G01 X46.6274 Y-22.7913 
G01 X46.7667 Y-22.7336 
G01 X46.9146 Y-22.7042 
G01 X47.0654 Y-22.7042 
G01 X47.2133 Y-22.7336 
G01 X47.3526 Y-22.7913 
G01 X47.4779 Y-22.8751 
G01 X47.5845 Y-22.9817 
G01 X47.6683 Y-23.1070 
G01 X47.7260 Y-23.2463 
G01 X47.7554 Y-23.3942 
G01 X47.7554 Y-24.8658 
G01 X47.7260 Y-25.0137 
G01 X47.6683 Y-25.1530 
G01 X47.5845 Y-25.2783 
G01 X47.4779 Y-25.3849 
G01 X47.3526 Y-25.4687 
G01 X47.2829 Y-25.4975 
G01 X47.2772 Y-25.5190 
G01 X47.2366 Y-25.5892 
G01 X45.9666 Y-26.8592 
G01 X45.9092 Y-26.9166 
G01 X45.8390 Y-26.9572 
G01 X45.7606 Y-26.9782 
G01 X44.4094 Y-26.9782 
G01 X44.3310 Y-26.9572 
G01 X44.2608 Y-26.9166 
G01 X42.9908 Y-25.6466 
G01 X42.9334 Y-25.5892 
G01 X42.8928 Y-25.5190 
G01 X42.8718 Y-25.4406 
G01 X42.8718 Y-22.0352 
G01 X41.4648 Y-20.6282 
G01 X39.3294 Y-20.6282 
G01 X39.2510 Y-20.6072 
G01 X39.1808 Y-20.5666 
G01 X39.1234 Y-20.5092 
G01 X37.9108 Y-19.2966 
G01 X37.8534 Y-19.2392 
G01 X37.8128 Y-19.1690 
G01 X37.7918 Y-19.0906 
G01 X37.7918 Y-18.9494 
G01 X37.6713 Y-18.8995 
G01 X37.5231 Y-18.8005 
G01 X37.3970 Y-18.6744 
G01 X37.2980 Y-18.5262 
G01 X37.2298 Y-18.3615 
G01 X37.1950 Y-18.1866 
G01 X37.1950 Y-18.0084 
G01 X37.2298 Y-17.8335 
G01 X37.2980 Y-17.6688 
G01 X37.3970 Y-17.5206 
G01 X37.5231 Y-17.3945 
G01 X37.6713 Y-17.2955 
G01 X37.8360 Y-17.2273 
G01 X38.0109 Y-17.1925 
G01 X38.1891 Y-17.1925 
G01 X38.3640 Y-17.2273 
G01 X38.5287 Y-17.2955 
G01 X38.6769 Y-17.3945 
G01 X38.8030 Y-17.5206 
G01 X38.9020 Y-17.6688 
G01 X38.9702 Y-17.8335 
G01 X39.0050 Y-18.0084 
G01 X39.0050 Y-18.1866 
G01 X38.9702 Y-18.3615 
G01 X38.9020 Y-18.5262 
G01 X38.8030 Y-18.6744 
G01 X38.6769 Y-18.8005 
G01 X38.5287 Y-18.8995 
G01 X38.4273 Y-18.9415 
G01 X39.4977 Y-20.0118 
G01 X41.6331 Y-20.0118 
G01 X41.7115 Y-20.0328 
G01 X41.7817 Y-20.0734 
G01 X43.4266 Y-21.7183 
G01 X43.4672 Y-21.7885 
G01 X43.4882 Y-21.8669 
G01 X43.4882 Y-25.2723 
G01 X44.5777 Y-26.3618 
G01 X45.5923 Y-26.3618 
G01 X46.5423 Y-25.4118 
G01 X46.5021 Y-25.3849 
G01 X46.3955 Y-25.2783 
G01 X46.3117 Y-25.1530 
G01 X46.2540 Y-25.0137 
G01 X46.2246 Y-24.8658 
G00 Z0.8000 
G00 X19.5546 Y-32.4858 
G01 Z-0.0800 F100.00 
G01 X19.5546 Y-31.0142 F240.00 
G01 X19.5840 Y-30.8663 
G01 X19.6417 Y-30.7270 
G01 X19.7255 Y-30.6017 
G01 X19.8321 Y-30.4951 
G01 X19.9574 Y-30.4113 
G01 X20.0118 Y-30.3888 
G01 X20.0118 Y-30.3072 
G01 X19.9950 Y-30.3028 
G01 X19.9857 Y-30.3018 
G01 X19.9766 Y-30.2983 
G01 X19.9530 Y-30.2933 
G01 X19.9455 Y-30.2895 
G01 X19.9374 Y-30.2873 
G01 X19.9163 Y-30.2752 
G01 X19.9100 Y-30.2727 
G01 X19.9042 Y-30.2685 
G01 X19.8806 Y-30.2565 
G01 X19.8744 Y-30.2509 
G01 X19.8672 Y-30.2468 
G01 X19.8483 Y-30.2279 
G01 X19.8443 Y-30.2250 
G01 X19.8411 Y-30.2210 
G01 X19.8203 Y-30.2023 
G01 X19.8157 Y-30.1953 
G01 X19.8098 Y-30.1894 
G01 X19.7957 Y-30.1649 
G01 X19.7932 Y-30.1619 
G01 X19.7916 Y-30.1584 
G01 X19.7760 Y-30.1343 
G01 X19.7734 Y-30.1263 
G01 X19.7692 Y-30.1191 
G01 X19.7617 Y-30.0911 
G01 X19.7602 Y-30.0878 
G01 X19.7597 Y-30.0844 
G01 X19.7508 Y-30.0571 
G01 X19.7504 Y-30.0488 
G01 X19.7482 Y-30.0407 
G01 X19.7482 Y-30.0118 
G01 X19.7475 Y-30.0077 
G01 X19.7479 Y-30.0038 
G01 X19.7465 Y-29.9761 
G01 X19.7482 Y-29.9679 
G01 X19.7482 Y-27.8011 
G01 X19.6419 Y-27.5445 
G01 X19.3735 Y-27.2761 
G01 X18.5398 Y-26.4424 
G01 X18.4992 Y-26.3721 
G01 X18.4782 Y-26.2937 
G01 X18.4782 Y-25.8133 
G01 X18.4992 Y-25.7349 
G01 X18.5398 Y-25.6646 
G01 X18.5972 Y-25.6072 
G01 X18.7418 Y-25.4626 
G01 X18.7418 Y-22.7974 
G01 X18.4345 Y-22.4901 
G01 X18.0098 Y-22.3142 
G01 X17.5502 Y-22.3142 
G01 X17.1255 Y-22.4901 
G01 X16.8005 Y-22.8151 
G01 X16.7968 Y-22.8240 
G01 X16.7792 Y-22.8665 
G01 X16.7607 Y-22.8907 
G01 X16.7298 Y-22.9309 
G01 X16.6919 Y-22.9599 
G01 X16.6654 Y-22.9803 
G01 X16.6375 Y-22.9919 
G01 X16.5905 Y-23.0113 
G01 X16.5100 Y-23.0219 
G01 X16.4295 Y-23.0113 
G01 X16.3909 Y-22.9954 
G01 X16.3546 Y-22.9803 
G01 X16.3304 Y-22.9617 
G01 X16.2902 Y-22.9309 
G01 X16.2611 Y-22.8930 
G01 X16.2408 Y-22.8665 
G01 X16.2275 Y-22.8344 
G01 X16.2195 Y-22.8151 
G01 X15.8945 Y-22.4901 
G01 X15.4698 Y-22.3142 
G01 X15.0102 Y-22.3142 
G01 X14.5855 Y-22.4901 
G01 X14.2605 Y-22.8151 
G01 X14.2529 Y-22.8334 
G01 X14.2392 Y-22.8665 
G01 X14.2206 Y-22.8907 
G01 X14.1898 Y-22.9309 
G01 X14.1519 Y-22.9600 
G01 X14.1254 Y-22.9803 
G01 X14.0902 Y-22.9949 
G01 X14.0505 Y-23.0113 
G01 X13.9700 Y-23.0219 
G01 X13.8895 Y-23.0113 
G01 X13.8434 Y-22.9922 
G01 X13.8146 Y-22.9803 
G01 X13.7904 Y-22.9617 
G01 X13.7502 Y-22.9309 
G01 X13.7211 Y-22.8930 
G01 X13.7008 Y-22.8665 
G01 X13.6837 Y-22.8253 
G01 X13.6795 Y-22.8151 
G01 X13.3545 Y-22.4901 
G01 X12.9298 Y-22.3142 
G01 X12.4702 Y-22.3142 
G01 X12.0455 Y-22.4901 
G01 X11.7205 Y-22.8151 
G01 X11.7168 Y-22.8240 
G01 X11.6992 Y-22.8665 
G01 X11.6807 Y-22.8907 
G01 X11.6498 Y-22.9309 
G01 X11.6119 Y-22.9599 
G01 X11.5854 Y-22.9803 
G01 X11.5575 Y-22.9919 
G01 X11.5105 Y-23.0113 
G01 X11.4300 Y-23.0219 
G01 X11.3495 Y-23.0113 
G01 X11.3109 Y-22.9954 
G01 X11.2746 Y-22.9803 
G01 X11.2504 Y-22.9617 
G01 X11.2102 Y-22.9309 
G01 X11.1811 Y-22.8930 
G01 X11.1608 Y-22.8665 
G01 X11.1475 Y-22.8344 
G01 X11.1395 Y-22.8151 
G01 X10.8145 Y-22.4901 
G01 X10.3898 Y-22.3142 
G01 X9.9302 Y-22.3142 
G01 X9.5055 Y-22.4901 
G01 X9.1805 Y-22.8151 
G01 X9.1768 Y-22.8240 
G01 X9.1592 Y-22.8665 
G01 X9.1407 Y-22.8907 
G01 X9.1098 Y-22.9309 
G01 X9.0719 Y-22.9599 
G01 X9.0454 Y-22.9803 
G01 X9.0175 Y-22.9919 
G01 X8.9705 Y-23.0113 
G01 X8.8900 Y-23.0219 
G01 X8.8095 Y-23.0113 
G01 X8.7709 Y-22.9954 
G01 X8.7346 Y-22.9803 
G01 X8.7104 Y-22.9617 
G01 X8.6702 Y-22.9309 
G01 X8.6411 Y-22.8930 
G01 X8.6208 Y-22.8665 
G01 X8.6075 Y-22.8344 
G01 X8.5995 Y-22.8151 
G01 X8.2745 Y-22.4901 
G01 X7.8498 Y-22.3142 
G01 X7.3902 Y-22.3142 
G01 X6.9655 Y-22.4901 
G01 X6.6405 Y-22.8151 
G01 X6.4543 Y-23.2647 
G01 X6.4517 Y-23.2767 
G01 X6.4388 Y-23.3020 
G01 X6.4279 Y-23.3283 
G01 X6.4205 Y-23.3381 
G01 X6.4149 Y-23.3490 
G01 X6.3958 Y-23.3701 
G01 X6.3785 Y-23.3927 
G01 X6.3688 Y-23.4002 
G01 X6.3606 Y-23.4093 
G01 X6.3367 Y-23.4248 
G01 X6.3141 Y-23.4421 
G01 X6.3028 Y-23.4468 
G01 X6.2925 Y-23.4535 
G01 X6.2654 Y-23.4623 
G01 X6.2392 Y-23.4732 
G01 X6.2270 Y-23.4748 
G01 X6.2153 Y-23.4786 
G01 X6.1869 Y-23.4800 
G01 X6.1587 Y-23.4838 
G01 X6.1465 Y-23.4822 
G01 X6.1343 Y-23.4828 
G01 X6.1065 Y-23.4769 
G01 X6.0782 Y-23.4732 
G01 X6.0669 Y-23.4685 
G01 X6.0549 Y-23.4659 
G01 X6.0296 Y-23.4530 
G01 X6.0033 Y-23.4421 
G01 X5.9936 Y-23.4346 
G01 X5.9826 Y-23.4291 
G01 X5.9615 Y-23.4100 
G01 X5.9389 Y-23.3927 
G01 X5.9314 Y-23.3830 
G01 X5.9223 Y-23.3748 
G01 X5.9068 Y-23.3509 
G01 X5.8895 Y-23.3283 
G01 X5.8848 Y-23.3170 
G01 X5.8781 Y-23.3067 
G01 X5.8693 Y-23.2796 
G01 X5.8584 Y-23.2534 
G01 X5.8568 Y-23.2412 
G01 X5.8301 Y-23.1589 
G01 X5.7723 Y-23.0454 
G01 X5.6974 Y-22.9423 
G01 X5.6073 Y-22.8522 
G01 X5.5042 Y-22.7773 
G01 X5.3907 Y-22.7195 
G01 X5.3882 Y-22.7688 
G01 X5.4426 Y-22.7913 
G01 X5.5679 Y-22.8751 
G01 X5.6745 Y-22.9817 
G01 X5.7583 Y-23.1070 
G01 X5.8160 Y-23.2463 
G01 X5.8454 Y-23.3942 
G01 X5.8454 Y-24.8658 
G01 X5.8160 Y-25.0137 
G01 X5.7583 Y-25.1530 
G01 X5.6745 Y-25.2783 
G01 X5.5679 Y-25.3849 
G01 X5.4426 Y-25.4687 
G01 X5.3882 Y-25.4912 
G01 X5.3882 Y-25.5413 
G01 X5.5042 Y-25.4827 
G01 X5.6073 Y-25.4078 
G01 X5.6974 Y-25.3177 
G01 X5.7723 Y-25.2146 
G01 X5.8301 Y-25.1011 
G01 X5.8568 Y-25.0188 
G01 X5.8584 Y-25.0066 
G01 X5.8693 Y-24.9804 
G01 X5.8781 Y-24.9533 
G01 X5.8848 Y-24.9430 
G01 X5.8895 Y-24.9317 
G01 X5.9068 Y-24.9091 
G01 X5.9223 Y-24.8852 
G01 X5.9314 Y-24.8770 
G01 X5.9389 Y-24.8673 
G01 X5.9615 Y-24.8500 
G01 X5.9826 Y-24.8309 
G01 X5.9936 Y-24.8253 
G01 X6.0033 Y-24.8179 
G01 X6.0296 Y-24.8070 
G01 X6.0549 Y-24.7941 
G01 X6.0669 Y-24.7915 
G01 X6.0782 Y-24.7868 
G01 X6.1065 Y-24.7831 
G01 X6.1343 Y-24.7772 
G01 X6.1465 Y-24.7778 
G01 X6.1587 Y-24.7762 
G01 X6.1869 Y-24.7800 
G01 X6.2153 Y-24.7814 
G01 X6.2270 Y-24.7852 
G01 X6.2392 Y-24.7868 
G01 X6.2654 Y-24.7977 
G01 X6.2925 Y-24.8065 
G01 X6.3028 Y-24.8132 
G01 X6.3141 Y-24.8179 
G01 X6.3367 Y-24.8352 
G01 X6.3606 Y-24.8507 
G01 X6.3688 Y-24.8598 
G01 X6.3785 Y-24.8673 
G01 X6.3958 Y-24.8899 
G01 X6.4149 Y-24.9110 
G01 X6.4205 Y-24.9219 
G01 X6.4279 Y-24.9317 
G01 X6.4388 Y-24.9580 
G01 X6.4517 Y-24.9833 
G01 X6.4543 Y-24.9953 
G01 X6.6405 Y-25.4449 
G01 X6.9655 Y-25.7699 
G01 X7.3902 Y-25.9458 
G01 X7.8498 Y-25.9458 
G01 X8.2745 Y-25.7699 
G01 X8.5995 Y-25.4449 
G01 X8.6071 Y-25.4266 
G01 X8.6208 Y-25.3935 
G01 X8.6393 Y-25.3693 
G01 X8.6702 Y-25.3291 
G01 X8.7081 Y-25.3000 
G01 X8.7346 Y-25.2797 
G01 X8.7698 Y-25.2651 
G01 X8.8095 Y-25.2486 
G01 X8.8900 Y-25.2381 
G01 X8.9705 Y-25.2487 
G01 X9.0166 Y-25.2678 
G01 X9.0454 Y-25.2797 
G01 X9.0696 Y-25.2983 
G01 X9.1098 Y-25.3291 
G01 X9.1389 Y-25.3670 
G01 X9.1592 Y-25.3935 
G01 X9.1763 Y-25.4347 
G01 X9.1805 Y-25.4449 
G01 X9.4002 Y-25.6646 
G01 X9.4408 Y-25.7349 
G01 X9.4618 Y-25.8133 
G01 X9.4618 Y-28.0789 
G01 X9.5681 Y-28.3355 
G01 X10.6120 Y-29.3794 
G01 X10.6511 Y-29.4185 
G01 X10.6694 Y-29.4368 
G01 X10.7099 Y-29.5070 
G01 X10.7309 Y-29.5854 
G01 X10.7309 Y-29.6666 
G01 X10.7099 Y-29.7450 
G01 X10.6694 Y-29.8152 
G01 X10.6120 Y-29.8726 
G01 X10.5417 Y-29.9132 
G01 X10.4633 Y-29.9342 
G01 X9.9302 Y-29.9342 
G01 X9.5055 Y-30.1101 
G01 X9.1805 Y-30.4351 
G01 X9.1729 Y-30.4534 
G01 X9.1592 Y-30.4865 
G01 X9.1406 Y-30.5107 
G01 X9.1098 Y-30.5509 
G01 X9.0719 Y-30.5800 
G01 X9.0454 Y-30.6003 
G01 X9.0102 Y-30.6149 
G01 X8.9704 Y-30.6313 
G01 X8.8900 Y-30.6419 
G01 X8.8095 Y-30.6313 
G01 X8.7634 Y-30.6122 
G01 X8.7346 Y-30.6003 
G01 X8.7104 Y-30.5817 
G01 X8.6702 Y-30.5509 
G01 X8.6411 Y-30.5130 
G01 X8.6208 Y-30.4865 
G01 X8.6037 Y-30.4453 
G01 X8.5995 Y-30.4351 
G01 X8.2745 Y-30.1101 
G01 X7.8498 Y-29.9342 
G01 X7.3902 Y-29.9342 
G01 X6.9655 Y-30.1101 
G01 X6.6582 Y-30.4174 
G01 X6.6582 Y-33.0826 
G01 X6.8602 Y-33.2846 
G01 X6.9008 Y-33.3549 
G01 X6.9218 Y-33.4333 
G01 X6.9218 Y-33.9137 
G01 X6.9008 Y-33.9921 
G01 X6.8602 Y-34.0624 
G01 X6.8028 Y-34.1198 
G01 X6.5192 Y-34.4034 
G01 X6.4489 Y-34.4440 
G01 X6.3705 Y-34.4650 
G01 X6.1322 Y-34.4650 
G01 X5.7297 Y-34.6317 
G01 X5.4217 Y-34.9397 
G01 X5.2550 Y-35.3422 
G01 X5.2550 Y-35.7778 
G01 X5.3489 Y-36.0045 
G01 X5.3591 Y-36.0221 
G01 X5.3644 Y-36.0418 
G01 X5.3722 Y-36.0606 
G01 X5.3748 Y-36.0808 
G01 X5.3801 Y-36.1005 
G01 X5.3801 Y-36.1209 
G01 X5.3827 Y-36.1411 
G01 X5.3801 Y-36.1613 
G01 X5.3801 Y-36.1817 
G01 X5.3748 Y-36.2013 
G01 X5.3722 Y-36.2216 
G01 X5.3644 Y-36.2404 
G01 X5.3591 Y-36.2601 
G01 X5.3489 Y-36.2777 
G01 X5.3411 Y-36.2965 
G01 X5.3287 Y-36.3127 
G01 X5.3185 Y-36.3303 
G01 X5.3041 Y-36.3448 
G01 X5.2917 Y-36.3609 
G01 X5.2755 Y-36.3733 
G01 X5.2611 Y-36.3877 
G01 X5.2435 Y-36.3979 
G01 X5.2273 Y-36.4103 
G01 X5.2085 Y-36.4181 
G01 X5.1909 Y-36.4283 
G01 X5.1712 Y-36.4336 
G01 X5.1524 Y-36.4414 
G01 X5.1322 Y-36.4440 
G01 X5.1125 Y-36.4493 
G01 X5.0921 Y-36.4493 
G01 X5.0719 Y-36.4520 
G01 X5.0517 Y-36.4493 
G01 X4.6236 Y-36.4493 
G01 X4.3670 Y-36.5556 
G01 X3.4848 Y-37.4378 
G01 X3.4171 Y-37.5055 
G01 X3.4046 Y-37.5217 
G01 X3.3885 Y-37.5341 
G01 X3.3741 Y-37.5485 
G01 X3.3564 Y-37.5587 
G01 X3.3403 Y-37.5711 
G01 X3.3214 Y-37.5789 
G01 X3.3038 Y-37.5891 
G01 X3.2841 Y-37.5944 
G01 X3.1331 Y-37.6569 
G01 X2.7969 Y-37.9931 
G01 X2.6150 Y-38.4323 
G01 X2.6150 Y-40.3077 
G01 X2.7969 Y-40.7469 
G01 X3.1331 Y-41.0831 
G01 X3.2841 Y-41.1456 
G01 X3.3038 Y-41.1509 
G01 X3.3214 Y-41.1611 
G01 X3.3403 Y-41.1689 
G01 X3.3564 Y-41.1813 
G01 X3.3741 Y-41.1915 
G01 X3.3885 Y-41.2059 
G01 X3.4046 Y-41.2183 
G01 X3.4171 Y-41.2345 
G01 X4.1122 Y-41.9296 
G01 X4.2564 Y-42.0738 
G01 X4.2819 Y-42.0974 
G01 X4.2850 Y-42.1024 
G01 X4.2891 Y-42.1065 
G01 X4.3065 Y-42.1367 
G01 X4.3251 Y-42.1662 
G01 X4.3268 Y-42.1717 
G01 X4.3297 Y-42.1768 
G01 X4.3387 Y-42.2104 
G01 X4.3490 Y-42.2437 
G01 X4.3492 Y-42.2495 
G01 X4.3507 Y-42.2552 
G01 X4.3507 Y-42.2900 
G01 X4.3520 Y-42.3248 
G01 X4.3507 Y-42.3305 
G01 X4.3507 Y-42.3363 
G01 X4.3417 Y-42.3700 
G01 X4.3340 Y-42.4039 
G01 X4.3312 Y-42.4091 
G01 X4.3297 Y-42.4147 
G01 X4.3123 Y-42.4449 
G01 X4.2960 Y-42.4757 
G01 X4.2921 Y-42.4799 
G01 X4.2891 Y-42.4850 
G01 X4.2645 Y-42.5096 
G01 X4.2408 Y-42.5351 
G01 X4.2359 Y-42.5383 
G01 X4.2318 Y-42.5424 
G01 X4.2016 Y-42.5598 
G01 X4.1721 Y-42.5783 
G01 X4.1665 Y-42.5800 
G01 X4.1615 Y-42.5830 
G01 X4.1279 Y-42.5920 
G01 X4.0946 Y-42.6022 
G01 X4.0887 Y-42.6025 
G01 X4.0831 Y-42.6040 
G01 X4.0483 Y-42.6040 
G01 X4.0135 Y-42.6053 
G01 X4.0078 Y-42.6040 
G01 X4.0019 Y-42.6040 
G01 X3.9683 Y-42.5950 
G01 X3.7956 Y-42.5555 
G01 X2.6198 Y-42.6437 
G01 X1.5222 Y-43.0744 
G01 X0.6004 Y-43.8096 
G01 X0.4897 Y-43.9719 
G01 X0.4752 Y-43.9970 
G01 X0.4670 Y-44.0053 
G01 X0.4604 Y-44.0149 
G01 X0.4384 Y-44.0339 
G01 X0.4178 Y-44.0544 
G01 X0.4077 Y-44.0602 
G01 X0.3989 Y-44.0679 
G01 X0.3727 Y-44.0805 
G01 X0.3476 Y-44.0950 
G01 X0.3363 Y-44.0980 
G01 X0.3258 Y-44.1031 
G01 X0.2972 Y-44.1085 
G01 X0.2692 Y-44.1160 
G01 X0.2575 Y-44.1160 
G01 X0.2460 Y-44.1182 
G01 X0.2171 Y-44.1160 
G01 X0.1880 Y-44.1160 
G01 X0.1767 Y-44.1130 
G01 X0.1651 Y-44.1121 
G01 X0.1377 Y-44.1025 
G01 X0.1096 Y-44.0950 
G01 X0.0995 Y-44.0891 
G01 X0.0885 Y-44.0853 
G01 X0.0645 Y-44.0689 
G01 X0.0394 Y-44.0544 
G01 X0.0311 Y-44.0461 
G01 X0.0215 Y-44.0396 
G01 X0.0025 Y-44.0176 
G01 X-0.0180 Y-43.9970 
G01 X-0.0239 Y-43.9869 
G01 X-0.0315 Y-43.9781 
G01 X-0.0441 Y-43.9519 
G01 X-0.0586 Y-43.9267 
G01 X-0.0616 Y-43.9155 
G01 X-0.0667 Y-43.9049 
G01 X-0.0721 Y-43.8764 
G01 X-0.0796 Y-43.8484 
G01 X-0.0796 Y-43.8367 
G01 X-0.0818 Y-43.8252 
G01 X-0.0796 Y-43.7962 
G01 X-0.0796 Y-6.2038 
G01 X-0.0818 Y-6.1748 
G01 X-0.0796 Y-6.1633 
G01 X-0.0796 Y-6.1516 
G01 X-0.0721 Y-6.1236 
G01 X-0.0667 Y-6.0950 
G01 X-0.0616 Y-6.0845 
G01 X-0.0586 Y-6.0733 
G01 X-0.0441 Y-6.0481 
G01 X-0.0315 Y-6.0219 
G01 X-0.0239 Y-6.0131 
G01 X-0.0180 Y-6.0030 
G01 X0.0025 Y-5.9824 
G01 X0.0215 Y-5.9604 
G01 X0.0311 Y-5.9538 
G01 X0.0394 Y-5.9456 
G01 X0.0645 Y-5.9311 
G01 X0.0885 Y-5.9147 
G01 X0.0995 Y-5.9109 
G01 X0.1096 Y-5.9050 
G01 X0.1377 Y-5.8975 
G01 X0.1651 Y-5.8879 
G01 X0.1767 Y-5.8870 
G01 X0.1880 Y-5.8840 
G01 X0.2171 Y-5.8840 
G01 X0.2460 Y-5.8818 
G01 X0.2575 Y-5.8840 
G01 X0.2692 Y-5.8840 
G01 X0.2972 Y-5.8915 
G01 X0.3258 Y-5.8969 
G01 X0.3363 Y-5.9020 
G01 X0.3476 Y-5.9050 
G01 X0.3727 Y-5.9195 
G01 X0.3989 Y-5.9321 
G01 X0.4077 Y-5.9398 
G01 X0.4178 Y-5.9456 
G01 X0.4384 Y-5.9661 
G01 X0.4604 Y-5.9851 
G01 X0.4670 Y-5.9947 
G01 X0.4752 Y-6.0030 
G01 X0.4897 Y-6.0281 
G01 X0.6004 Y-6.1904 
G01 X1.5222 Y-6.9256 
G01 X2.6198 Y-7.3563 
G01 X3.7956 Y-7.4445 
G01 X4.9451 Y-7.1821 
G01 X5.9662 Y-6.5925 
G01 X6.7682 Y-5.7282 
G01 X7.2798 Y-4.6659 
G01 X7.4555 Y-3.5000 
G01 X7.2798 Y-2.3341 
G01 X6.7682 Y-1.2718 
G01 X5.9987 Y-0.4424 
G01 X5.9741 Y-0.4178 
G01 X5.9712 Y-0.4128 
G01 X5.9672 Y-0.4085 
G01 X5.9509 Y-0.3777 
G01 X5.9335 Y-0.3476 
G01 X5.9320 Y-0.3419 
G01 X5.9293 Y-0.3367 
G01 X5.9215 Y-0.3028 
G01 X5.9125 Y-0.2692 
G01 X5.9125 Y-0.2633 
G01 X5.9112 Y-0.2576 
G01 X5.9125 Y-0.2228 
G01 X5.9125 Y-0.1880 
G01 X5.9140 Y-0.1824 
G01 X5.9142 Y-0.1765 
G01 X5.9245 Y-0.1432 
G01 X5.9335 Y-0.1096 
G01 X5.9364 Y-0.1046 
G01 X5.9382 Y-0.0990 
G01 X5.9567 Y-0.0695 
G01 X5.9741 Y-0.0394 
G01 X5.9782 Y-0.0352 
G01 X5.9813 Y-0.0303 
G01 X6.0068 Y-0.0066 
G01 X6.0315 Y0.0180 
G01 X6.0365 Y0.0209 
G01 X6.0408 Y0.0249 
G01 X6.0716 Y0.0412 
G01 X6.1017 Y0.0586 
G01 X6.1074 Y0.0601 
G01 X6.1126 Y0.0628 
G01 X6.1465 Y0.0706 
G01 X6.1801 Y0.0796 
G01 X6.1860 Y0.0796 
G01 X6.1917 Y0.0809 
G01 X6.2265 Y0.0796 
G01 X50.8115 Y0.0796 
G01 X50.8288 Y0.0822 
G01 X50.8519 Y0.0796 
G01 X50.8752 Y0.0796 
G01 X50.8921 Y0.0751 
G01 X50.9094 Y0.0731 
G01 X50.9311 Y0.0646 
G01 X50.9536 Y0.0586 
G01 X50.9687 Y0.0499 
G01 X50.9850 Y0.0435 
G01 X51.0037 Y0.0297 
G01 X51.0238 Y0.0180 
G01 X51.0362 Y0.0057 
G01 X51.0503 Y-0.0047 
G01 X51.0648 Y-0.0229 
G01 X51.0812 Y-0.0394 
G01 X51.0900 Y-0.0545 
G01 X51.1009 Y-0.0682 
G01 X51.1102 Y-0.0895 
G01 X51.1218 Y-0.1096 
G01 X51.1263 Y-0.1265 
G01 X51.1333 Y-0.1425 
G01 X51.1368 Y-0.1655 
G01 X51.1428 Y-0.1880 
G01 X51.1428 Y-0.2055 
G01 X51.1454 Y-0.2228 
G01 X51.1428 Y-0.2459 
G01 X51.1428 Y-0.2692 
G01 X51.1383 Y-0.2861 
G01 X51.1363 Y-0.3034 
G01 X51.1278 Y-0.3251 
G01 X51.1218 Y-0.3476 
G01 X51.1131 Y-0.3627 
G01 X51.1067 Y-0.3790 
G01 X51.0928 Y-0.3977 
G01 X51.0812 Y-0.4178 
G01 X51.0689 Y-0.4302 
G01 X51.0585 Y-0.4443 
G01 X51.0403 Y-0.4588 
G01 X51.0238 Y-0.4752 
G01 X51.0087 Y-0.4840 
G01 X50.6004 Y-0.8096 
G01 X49.9362 Y-1.7838 
G01 X49.5887 Y-2.9105 
G01 X49.5887 Y-4.0895 
G01 X49.9362 Y-5.2162 
G01 X50.6004 Y-6.1904 
G01 X51.5222 Y-6.9256 
G01 X52.6198 Y-7.3563 
G01 X53.7956 Y-7.4445 
G01 X54.9451 Y-7.1821 
G01 X55.9662 Y-6.5925 
G01 X56.5219 Y-5.9937 
G01 X56.5248 Y-5.9886 
G01 X56.5494 Y-5.9640 
G01 X56.5731 Y-5.9385 
G01 X56.5780 Y-5.9354 
G01 X56.5822 Y-5.9313 
G01 X56.6123 Y-5.9139 
G01 X56.6418 Y-5.8953 
G01 X56.6474 Y-5.8936 
G01 X56.6524 Y-5.8907 
G01 X56.6861 Y-5.8817 
G01 X56.7193 Y-5.8714 
G01 X56.7252 Y-5.8712 
G01 X56.7308 Y-5.8697 
G01 X56.7656 Y-5.8697 
G01 X56.8004 Y-5.8684 
G01 X56.8061 Y-5.8697 
G01 X56.8120 Y-5.8697 
G01 X56.8456 Y-5.8787 
G01 X56.8795 Y-5.8864 
G01 X56.8847 Y-5.8892 
G01 X56.8904 Y-5.8907 
G01 X56.9205 Y-5.9081 
G01 X56.9513 Y-5.9244 
G01 X56.9556 Y-5.9283 
G01 X56.9606 Y-5.9313 
G01 X56.9853 Y-5.9559 
G01 X57.0108 Y-5.9796 
G01 X57.0139 Y-5.9845 
G01 X57.0180 Y-5.9886 
G01 X57.0354 Y-6.0188 
G01 X57.0539 Y-6.0483 
G01 X57.0557 Y-6.0539 
G01 X57.0586 Y-6.0589 
G01 X57.0676 Y-6.0926 
G01 X57.0779 Y-6.1258 
G01 X57.0781 Y-6.1317 
G01 X57.0796 Y-6.1373 
G01 X57.0796 Y-6.1721 
G01 X57.0809 Y-6.2069 
G01 X57.0796 Y-6.2126 
G01 X57.0796 Y-43.7874 
G01 X57.0809 Y-43.7931 
G01 X57.0796 Y-43.8279 
G01 X57.0796 Y-43.8627 
G01 X57.0781 Y-43.8683 
G01 X57.0779 Y-43.8742 
G01 X57.0676 Y-43.9075 
G01 X57.0586 Y-43.9411 
G01 X57.0557 Y-43.9461 
G01 X57.0539 Y-43.9517 
G01 X57.0354 Y-43.9812 
G01 X57.0180 Y-44.0113 
G01 X57.0139 Y-44.0155 
G01 X57.0108 Y-44.0204 
G01 X56.9852 Y-44.0441 
G01 X56.9606 Y-44.0687 
G01 X56.9556 Y-44.0717 
G01 X56.9513 Y-44.0756 
G01 X56.9205 Y-44.0919 
G01 X56.8904 Y-44.1093 
G01 X56.8847 Y-44.1108 
G01 X56.8795 Y-44.1136 
G01 X56.8456 Y-44.1213 
G01 X56.8120 Y-44.1303 
G01 X56.8061 Y-44.1303 
G01 X56.8004 Y-44.1316 
G01 X56.7656 Y-44.1303 
G01 X56.7308 Y-44.1303 
G01 X56.7252 Y-44.1288 
G01 X56.7193 Y-44.1286 
G01 X56.6860 Y-44.1183 
G01 X56.6524 Y-44.1093 
G01 X56.6474 Y-44.1064 
G01 X56.6418 Y-44.1047 
G01 X56.6123 Y-44.0861 
G01 X56.5822 Y-44.0687 
G01 X56.5780 Y-44.0646 
G01 X56.5731 Y-44.0615 
G01 X56.5494 Y-44.0359 
G01 X56.5248 Y-44.0113 
G01 X56.5219 Y-44.0063 
G01 X55.9662 Y-43.4074 
G01 X54.9451 Y-42.8179 
G01 X53.7956 Y-42.5555 
G01 X52.6198 Y-42.6437 
G01 X51.5222 Y-43.0744 
G01 X50.6004 Y-43.8096 
G01 X49.9362 Y-44.7838 
G01 X49.5887 Y-45.9105 
G01 X49.5887 Y-46.1359 
G01 X49.5677 Y-46.2143 
G01 X49.5271 Y-46.2846 
G01 X49.4697 Y-46.3420 
G01 X49.3994 Y-46.3826 
G01 X49.3210 Y-46.4036 
G01 X49.2399 Y-46.4036 
G01 X49.1615 Y-46.3826 
G01 X49.0912 Y-46.3420 
G01 X49.0198 Y-46.2705 
G01 X48.9792 Y-46.2003 
G01 X48.9582 Y-46.1219 
G01 X48.9582 Y-41.1489 
G01 X48.9792 Y-41.0705 
G01 X49.0189 Y-41.0018 
G01 X49.0772 Y-40.9428 
G01 X49.2731 Y-40.7469 
G01 X49.4550 Y-40.3077 
G01 X49.4550 Y-38.4323 
G01 X49.2731 Y-37.9931 
G01 X48.9369 Y-37.6569 
G01 X48.7859 Y-37.5944 
G01 X48.7662 Y-37.5891 
G01 X48.7485 Y-37.5789 
G01 X48.7297 Y-37.5711 
G01 X48.7136 Y-37.5587 
G01 X48.6959 Y-37.5485 
G01 X48.6815 Y-37.5341 
G01 X48.6653 Y-37.5217 
G01 X48.6529 Y-37.5055 
G01 X48.6408 Y-37.4934 
G01 X48.5835 Y-37.4361 
G01 X47.5966 Y-36.4492 
G01 X47.3855 Y-36.2381 
G01 X47.1289 Y-36.1318 
G01 X46.0963 Y-36.1318 
G01 X46.0179 Y-36.1108 
G01 X45.9476 Y-36.0702 
G01 X45.8902 Y-36.0128 
G01 X43.9398 Y-34.0624 
G01 X43.8992 Y-33.9921 
G01 X43.8782 Y-33.9137 
G01 X43.8782 Y-33.5321 
G01 X43.8765 Y-33.5239 
G01 X43.8780 Y-33.4962 
G01 X43.8775 Y-33.4923 
G01 X43.8782 Y-33.4882 
G01 X43.8782 Y-33.4593 
G01 X43.8804 Y-33.4512 
G01 X43.8808 Y-33.4429 
G01 X43.8897 Y-33.4156 
G01 X43.8902 Y-33.4122 
G01 X43.8917 Y-33.4089 
G01 X43.8992 Y-33.3809 
G01 X43.9034 Y-33.3737 
G01 X43.9060 Y-33.3657 
G01 X43.9216 Y-33.3416 
G01 X43.9232 Y-33.3381 
G01 X43.9257 Y-33.3351 
G01 X43.9398 Y-33.3106 
G01 X43.9457 Y-33.3047 
G01 X43.9503 Y-33.2977 
G01 X43.9711 Y-33.2790 
G01 X43.9743 Y-33.2750 
G01 X43.9783 Y-33.2721 
G01 X43.9972 Y-33.2532 
G01 X44.0044 Y-33.2491 
G01 X44.0106 Y-33.2435 
G01 X44.0342 Y-33.2315 
G01 X44.0400 Y-33.2273 
G01 X44.0463 Y-33.2248 
G01 X44.0674 Y-33.2127 
G01 X44.0755 Y-33.2105 
G01 X44.0830 Y-33.2067 
G01 X44.1066 Y-33.2017 
G01 X44.1157 Y-33.1982 
G01 X44.1250 Y-33.1972 
G01 X44.1418 Y-33.1927 
G01 X44.1418 Y-33.1112 
G01 X44.0874 Y-33.0887 
G01 X43.9621 Y-33.0049 
G01 X43.8555 Y-32.8983 
G01 X43.7717 Y-32.7730 
G01 X43.7140 Y-32.6337 
G01 X43.6846 Y-32.4858 
G01 X43.6846 Y-31.0142 
G01 X43.7140 Y-30.8663 
G01 X43.7717 Y-30.7270 
G01 X43.8555 Y-30.6017 
G01 X43.9621 Y-30.4951 
G01 X44.0874 Y-30.4113 
G01 X44.1418 Y-30.3888 
G01 X44.1418 Y-30.3073 
G01 X44.1250 Y-30.3028 
G01 X44.1157 Y-30.3018 
G01 X44.1066 Y-30.2983 
G01 X44.0830 Y-30.2933 
G01 X44.0755 Y-30.2895 
G01 X44.0674 Y-30.2873 
G01 X44.0463 Y-30.2751 
G01 X44.0400 Y-30.2727 
G01 X44.0342 Y-30.2685 
G01 X44.0106 Y-30.2565 
G01 X44.0044 Y-30.2509 
G01 X43.9972 Y-30.2468 
G01 X43.9783 Y-30.2279 
G01 X43.9743 Y-30.2250 
G01 X43.9711 Y-30.2210 
G01 X43.9503 Y-30.2023 
G01 X43.9457 Y-30.1953 
G01 X43.9398 Y-30.1894 
G01 X43.9257 Y-30.1649 
G01 X43.9232 Y-30.1619 
G01 X43.9216 Y-30.1584 
G01 X43.9060 Y-30.1343 
G01 X43.9034 Y-30.1263 
G01 X43.8992 Y-30.1191 
G01 X43.8917 Y-30.0911 
G01 X43.8902 Y-30.0878 
G01 X43.8897 Y-30.0844 
G01 X43.8808 Y-30.0571 
G01 X43.8804 Y-30.0488 
G01 X43.8782 Y-30.0407 
G01 X43.8782 Y-30.0118 
G01 X43.8775 Y-30.0077 
G01 X43.8780 Y-30.0038 
G01 X43.8765 Y-29.9761 
G01 X43.8782 Y-29.9679 
G01 X43.8782 Y-27.8011 
G01 X43.8723 Y-27.7870 
G01 X43.8413 Y-27.7120 
G01 X43.8336 Y-27.6536 
G01 X43.8307 Y-27.6316 
G01 X43.8334 Y-27.6113 
G01 X43.8413 Y-27.5511 
G01 X43.8723 Y-27.4761 
G01 X43.9059 Y-27.4324 
G01 X43.9217 Y-27.4117 
G01 X43.9401 Y-27.3977 
G01 X43.9861 Y-27.3623 
G01 X44.0611 Y-27.3313 
G01 X44.1195 Y-27.3236 
G01 X44.1415 Y-27.3207 
G01 X44.1618 Y-27.3234 
G01 X44.2220 Y-27.3313 
G01 X44.2970 Y-27.3623 
G01 X44.3111 Y-27.3682 
G01 X45.8589 Y-27.3682 
G01 X46.1155 Y-27.2619 
G01 X46.3266 Y-27.0508 
G01 X46.3839 Y-26.9935 
G01 X47.5237 Y-25.8537 
G01 X47.5361 Y-25.8375 
G01 X47.5523 Y-25.8251 
G01 X47.5667 Y-25.8107 
G01 X47.5843 Y-25.8005 
G01 X47.6005 Y-25.7881 
G01 X47.6193 Y-25.7803 
G01 X47.6370 Y-25.7701 
G01 X47.6469 Y-25.7675 
G01 X47.9695 Y-25.4449 
G01 X48.1454 Y-25.0202 
G01 X48.1454 Y-23.2398 
G01 X47.9695 Y-22.8151 
G01 X47.6445 Y-22.4901 
G01 X47.2198 Y-22.3142 
G01 X46.7602 Y-22.3142 
G01 X46.3355 Y-22.4901 
G01 X46.0105 Y-22.8151 
G01 X46.0066 Y-22.8246 
G01 X45.9892 Y-22.8665 
G01 X45.9486 Y-22.9195 
G01 X45.9398 Y-22.9309 
G01 X45.8952 Y-22.9651 
G01 X45.8754 Y-22.9803 
G01 X45.8067 Y-23.0088 
G01 X45.8005 Y-23.0113 
G01 X45.7502 Y-23.0180 
G01 X45.7200 Y-23.0219 
G01 X45.6887 Y-23.0178 
G01 X45.6396 Y-23.0114 
G01 X45.6145 Y-23.0010 
G01 X45.5646 Y-22.9803 
G01 X45.5116 Y-22.9397 
G01 X45.5002 Y-22.9309 
G01 X45.4660 Y-22.8863 
G01 X45.4508 Y-22.8665 
G01 X45.4295 Y-22.8151 
G01 X45.2672 Y-22.6528 
G01 X45.2121 Y-22.5977 
G01 X45.1692 Y-22.5251 
G01 X45.1482 Y-22.4467 
G01 X45.1482 Y-21.4511 
G01 X45.0419 Y-21.1945 
G01 X41.3998 Y-17.5524 
G01 X41.3592 Y-17.4821 
G01 X41.3382 Y-17.4037 
G01 X41.3382 Y-15.9338 
G01 X41.3592 Y-15.8554 
G01 X41.3998 Y-15.7851 
G01 X41.4572 Y-15.7277 
G01 X41.5203 Y-15.6646 
G01 X41.5906 Y-15.6240 
G01 X41.6690 Y-15.6030 
G01 X41.7501 Y-15.6030 
G01 X41.8285 Y-15.6240 
G01 X41.8988 Y-15.6646 
G01 X41.9562 Y-15.7220 
G01 X42.6804 Y-16.4462 
G01 X43.6796 Y-16.4462 
G01 X44.2608 Y-15.8651 
G01 X44.3310 Y-15.8245 
G01 X44.4094 Y-15.8035 
G01 X44.4906 Y-15.8035 
G01 X44.5690 Y-15.8245 
G01 X44.6392 Y-15.8651 
G01 X44.6966 Y-15.9224 
G01 X45.2204 Y-16.4462 
G01 X46.2196 Y-16.4462 
G01 X46.9262 Y-15.7396 
G01 X46.9262 Y-14.7404 
G01 X46.3451 Y-14.1592 
G01 X46.3045 Y-14.0890 
G01 X46.2835 Y-14.0106 
G01 X46.2835 Y-13.9294 
G01 X46.3045 Y-13.8510 
G01 X46.3451 Y-13.7808 
G01 X46.4024 Y-13.7234 
G01 X46.9262 Y-13.1996 
G01 X46.9262 Y-12.2004 
G01 X46.3451 Y-11.6192 
G01 X46.3045 Y-11.5490 
G01 X46.2835 Y-11.4706 
G01 X46.2835 Y-11.3894 
G01 X46.3045 Y-11.3110 
G01 X46.3451 Y-11.2408 
G01 X46.4024 Y-11.1834 
G01 X46.9262 Y-10.6596 
G01 X46.9262 Y-9.6604 
G01 X46.3451 Y-9.0792 
G01 X46.3045 Y-9.0090 
G01 X46.2835 Y-8.9306 
G01 X46.2835 Y-8.8494 
G01 X46.3045 Y-8.7710 
G01 X46.3451 Y-8.7008 
G01 X46.4024 Y-8.6434 
G01 X46.5250 Y-8.5208 
G01 X46.5952 Y-8.4803 
G01 X46.6736 Y-8.4593 
G01 X46.7548 Y-8.4593 
G01 X46.8332 Y-8.4803 
G01 X46.9034 Y-8.5208 
G01 X46.9608 Y-8.5782 
G01 X48.7702 Y-10.3876 
G01 X48.8108 Y-10.4579 
G01 X48.8318 Y-10.5363 
G01 X48.8318 Y-30.1037 
G01 X48.8108 Y-30.1821 
G01 X48.7702 Y-30.2524 
G01 X48.7128 Y-30.3098 
G01 X48.4909 Y-30.5317 
G01 X48.4785 Y-30.5478 
G01 X48.4624 Y-30.5602 
G01 X48.4480 Y-30.5746 
G01 X48.4303 Y-30.5848 
G01 X48.4141 Y-30.5972 
G01 X48.3953 Y-30.6050 
G01 X48.3777 Y-30.6152 
G01 X48.3580 Y-30.6205 
G01 X48.3392 Y-30.6283 
G01 X48.3190 Y-30.6309 
G01 X48.2993 Y-30.6362 
G01 X48.2789 Y-30.6362 
G01 X48.2587 Y-30.6389 
G01 X48.2385 Y-30.6362 
G01 X48.2181 Y-30.6362 
G01 X48.1985 Y-30.6309 
G01 X48.1783 Y-30.6283 
G01 X48.1594 Y-30.6205 
G01 X48.1398 Y-30.6152 
G01 X48.1221 Y-30.6050 
G01 X48.1033 Y-30.5972 
G01 X48.0871 Y-30.5848 
G01 X48.0695 Y-30.5746 
G01 X48.0551 Y-30.5602 
G01 X48.0389 Y-30.5478 
G01 X48.0265 Y-30.5316 
G01 X48.0121 Y-30.5172 
G01 X48.0019 Y-30.4996 
G01 X47.9895 Y-30.4834 
G01 X47.9817 Y-30.4646 
G01 X47.9715 Y-30.4470 
G01 X47.9679 Y-30.4335 
G01 X47.6445 Y-30.1101 
G01 X47.2198 Y-29.9342 
G01 X46.7602 Y-29.9342 
G01 X46.3355 Y-30.1101 
G01 X46.0105 Y-30.4351 
G01 X45.8243 Y-30.8847 
G01 X45.8217 Y-30.8967 
G01 X45.8088 Y-30.9220 
G01 X45.7979 Y-30.9483 
G01 X45.7905 Y-30.9581 
G01 X45.7849 Y-30.9690 
G01 X45.7658 Y-30.9901 
G01 X45.7485 Y-31.0127 
G01 X45.7388 Y-31.0202 
G01 X45.7306 Y-31.0293 
G01 X45.7067 Y-31.0448 
G01 X45.6841 Y-31.0621 
G01 X45.6728 Y-31.0668 
G01 X45.6625 Y-31.0735 
G01 X45.6354 Y-31.0823 
G01 X45.6092 Y-31.0932 
G01 X45.5970 Y-31.0948 
G01 X45.5853 Y-31.0986 
G01 X45.5569 Y-31.1000 
G01 X45.5287 Y-31.1038 
G01 X45.5165 Y-31.1022 
G01 X45.5043 Y-31.1028 
G01 X45.4765 Y-31.0969 
G01 X45.4482 Y-31.0932 
G01 X45.4369 Y-31.0885 
G01 X45.4249 Y-31.0859 
G01 X45.3996 Y-31.0730 
G01 X45.3733 Y-31.0621 
G01 X45.3636 Y-31.0546 
G01 X45.3526 Y-31.0491 
G01 X45.3315 Y-31.0300 
G01 X45.3089 Y-31.0127 
G01 X45.3014 Y-31.0030 
G01 X45.2923 Y-30.9948 
G01 X45.2768 Y-30.9709 
G01 X45.2595 Y-30.9483 
G01 X45.2548 Y-30.9370 
G01 X45.2481 Y-30.9267 
G01 X45.2393 Y-30.8996 
G01 X45.2284 Y-30.8734 
G01 X45.2268 Y-30.8612 
G01 X45.2001 Y-30.7789 
G01 X45.1423 Y-30.6654 
G01 X45.0674 Y-30.5623 
G01 X44.9773 Y-30.4722 
G01 X44.8742 Y-30.3973 
G01 X44.7607 Y-30.3395 
G01 X44.7582 Y-30.3888 
G01 X44.8126 Y-30.4113 
G01 X44.9379 Y-30.4951 
G01 X45.0445 Y-30.6017 
G01 X45.1283 Y-30.7270 
G01 X45.1860 Y-30.8663 
G01 X45.2154 Y-31.0142 
G01 X45.2154 Y-32.4858 
G01 X45.1860 Y-32.6337 
G01 X45.1283 Y-32.7730 
G01 X45.0445 Y-32.8983 
G01 X44.9379 Y-33.0049 
G01 X44.8126 Y-33.0887 
G01 X44.7582 Y-33.1112 
G01 X44.7582 Y-33.1613 
G01 X44.8742 Y-33.1027 
G01 X44.9773 Y-33.0278 
G01 X45.0674 Y-32.9377 
G01 X45.1423 Y-32.8346 
G01 X45.2001 Y-32.7211 
G01 X45.2268 Y-32.6388 
G01 X45.2284 Y-32.6266 
G01 X45.2393 Y-32.6004 
G01 X45.2481 Y-32.5733 
G01 X45.2548 Y-32.5630 
G01 X45.2595 Y-32.5517 
G01 X45.2768 Y-32.5291 
G01 X45.2923 Y-32.5052 
G01 X45.3014 Y-32.4970 
G01 X45.3089 Y-32.4873 
G01 X45.3315 Y-32.4700 
G01 X45.3526 Y-32.4509 
G01 X45.3636 Y-32.4453 
G01 X45.3733 Y-32.4379 
G01 X45.3996 Y-32.4270 
G01 X45.4249 Y-32.4141 
G01 X45.4369 Y-32.4115 
G01 X45.4482 Y-32.4068 
G01 X45.4765 Y-32.4031 
G01 X45.5043 Y-32.3972 
G01 X45.5165 Y-32.3978 
G01 X45.5287 Y-32.3962 
G01 X45.5569 Y-32.4000 
G01 X45.5853 Y-32.4014 
G01 X45.5970 Y-32.4052 
G01 X45.6092 Y-32.4068 
G01 X45.6354 Y-32.4177 
G01 X45.6625 Y-32.4265 
G01 X45.6728 Y-32.4332 
G01 X45.6841 Y-32.4379 
G01 X45.7067 Y-32.4552 
G01 X45.7306 Y-32.4707 
G01 X45.7388 Y-32.4798 
G01 X45.7485 Y-32.4873 
G01 X45.7658 Y-32.5099 
G01 X45.7849 Y-32.5310 
G01 X45.7905 Y-32.5419 
G01 X45.7979 Y-32.5517 
G01 X45.8088 Y-32.5780 
G01 X45.8217 Y-32.6033 
G01 X45.8243 Y-32.6153 
G01 X46.0105 Y-33.0649 
G01 X46.3355 Y-33.3899 
G01 X46.7602 Y-33.5658 
G01 X47.2198 Y-33.5658 
G01 X47.6445 Y-33.3899 
G01 X47.9695 Y-33.0649 
G01 X48.1384 Y-32.6571 
G01 X48.1437 Y-32.6374 
G01 X48.1539 Y-32.6198 
G01 X48.1617 Y-32.6010 
G01 X48.1741 Y-32.5848 
G01 X48.1842 Y-32.5672 
G01 X48.1987 Y-32.5528 
G01 X48.2111 Y-32.5366 
G01 X48.2272 Y-32.5242 
G01 X48.2416 Y-32.5098 
G01 X48.2593 Y-32.4996 
G01 X48.2754 Y-32.4872 
G01 X48.2943 Y-32.4794 
G01 X48.3119 Y-32.4692 
G01 X48.3316 Y-32.4639 
G01 X48.3504 Y-32.4561 
G01 X48.3706 Y-32.4535 
G01 X48.3903 Y-32.4482 
G01 X48.3989 Y-32.4482 
G01 X48.6555 Y-32.3419 
G01 X49.9108 Y-31.0866 
G01 X50.1219 Y-30.8755 
G01 X50.2282 Y-30.6189 
G01 X50.2282 Y-26.3658 
G01 X50.2492 Y-26.2874 
G01 X50.2898 Y-26.2172 
G01 X50.3472 Y-26.1598 
G01 X50.4174 Y-26.1192 
G01 X50.4958 Y-26.0982 
G01 X51.3197 Y-26.0982 
G01 X51.3981 Y-26.1192 
G01 X51.4684 Y-26.1598 
G01 X51.5258 Y-26.2172 
G01 X51.8064 Y-26.4978 
G01 X51.9905 Y-26.5741 
G01 X52.0176 Y-26.5829 
G01 X52.0278 Y-26.5896 
G01 X52.0391 Y-26.5942 
G01 X52.0617 Y-26.6116 
G01 X52.0856 Y-26.6271 
G01 X52.0938 Y-26.6362 
G01 X52.1035 Y-26.6436 
G01 X52.1208 Y-26.6662 
G01 X52.1399 Y-26.6875 
G01 X52.1455 Y-26.6983 
G01 X52.1529 Y-26.7080 
G01 X52.1638 Y-26.7343 
G01 X52.1767 Y-26.7598 
G01 X52.1793 Y-26.7717 
G01 X52.1839 Y-26.7830 
G01 X52.1877 Y-26.8112 
G01 X52.1936 Y-26.8392 
G01 X52.1929 Y-26.8513 
G01 X52.1945 Y-26.8634 
G01 X52.1908 Y-26.8917 
G01 X52.1893 Y-26.9202 
G01 X52.1855 Y-26.9318 
G01 X52.1839 Y-26.9439 
G01 X52.1730 Y-26.9702 
G01 X52.1642 Y-26.9974 
G01 X52.1575 Y-27.0076 
G01 X52.1529 Y-27.0189 
G01 X52.1355 Y-27.0415 
G01 X52.1200 Y-27.0654 
G01 X52.1109 Y-27.0736 
G01 X52.1035 Y-27.0832 
G01 X52.0962 Y-27.0888 
G01 X52.0819 Y-27.0998 
G01 X52.0596 Y-27.1197 
G01 X52.0488 Y-27.1252 
G01 X52.0391 Y-27.1326 
G01 X52.0335 Y-27.1349 
G01 X51.9218 Y-27.2161 
G01 X51.8161 Y-27.3218 
G01 X51.7283 Y-27.4426 
G01 X51.6605 Y-27.5757 
G01 X51.6494 Y-27.6100 
G01 X51.6971 Y-27.6100 
G01 X51.7380 Y-27.5113 
G01 X51.8370 Y-27.3631 
G01 X51.9631 Y-27.2370 
G01 X52.1113 Y-27.1380 
G01 X52.2760 Y-27.0698 
G01 X52.4509 Y-27.0350 
G01 X54.2291 Y-27.0350 
G01 X54.4040 Y-27.0698 
G01 X54.5687 Y-27.1380 
G01 X54.7169 Y-27.2370 
G01 X54.8430 Y-27.3631 
G01 X54.9420 Y-27.5113 
G01 X54.9829 Y-27.6100 
G01 X55.0306 Y-27.6100 
G01 X55.0195 Y-27.5757 
G01 X54.9517 Y-27.4426 
G01 X54.8639 Y-27.3218 
G01 X54.7582 Y-27.2161 
G01 X54.6465 Y-27.1350 
G01 X54.6409 Y-27.1326 
G01 X54.6312 Y-27.1252 
G01 X54.6203 Y-27.1197 
G01 X54.5991 Y-27.1006 
G01 X54.5849 Y-27.0902 
G01 X54.5765 Y-27.0832 
G01 X54.5691 Y-27.0736 
G01 X54.5600 Y-27.0654 
G01 X54.5445 Y-27.0415 
G01 X54.5271 Y-27.0189 
G01 X54.5224 Y-27.0076 
G01 X54.5158 Y-26.9974 
G01 X54.5070 Y-26.9702 
G01 X54.4961 Y-26.9439 
G01 X54.4945 Y-26.9318 
G01 X54.4907 Y-26.9202 
G01 X54.4892 Y-26.8917 
G01 X54.4855 Y-26.8634 
G01 X54.4871 Y-26.8513 
G01 X54.4864 Y-26.8392 
G01 X54.4923 Y-26.8112 
G01 X54.4961 Y-26.7830 
G01 X54.5007 Y-26.7717 
G01 X54.5033 Y-26.7598 
G01 X54.5162 Y-26.7343 
G01 X54.5271 Y-26.7080 
G01 X54.5345 Y-26.6983 
G01 X54.5401 Y-26.6875 
G01 X54.5592 Y-26.6662 
G01 X54.5765 Y-26.6436 
G01 X54.5862 Y-26.6362 
G01 X54.5943 Y-26.6271 
G01 X54.6183 Y-26.6116 
G01 X54.6409 Y-26.5942 
G01 X54.6522 Y-26.5896 
G01 X54.6624 Y-26.5829 
G01 X54.6895 Y-26.5741 
G01 X54.8736 Y-26.4978 
G01 X55.2378 Y-26.1336 
G01 X55.4350 Y-25.6576 
G01 X55.4350 Y-25.1424 
G01 X55.2378 Y-24.6664 
G01 X54.8736 Y-24.3022 
G01 X54.3976 Y-24.1050 
G01 X52.2824 Y-24.1050 
G01 X51.8064 Y-24.3022 
G01 X51.4684 Y-24.6402 
G01 X51.3981 Y-24.6808 
G01 X51.3197 Y-24.7018 
G01 X50.4958 Y-24.7018 
G01 X50.4174 Y-24.6808 
G01 X50.3472 Y-24.6402 
G01 X50.2898 Y-24.5828 
G01 X50.2492 Y-24.5126 
G01 X50.2282 Y-24.4342 
G01 X50.2282 Y-10.0211 
G01 X50.1219 Y-9.7645 
G01 X47.3855 Y-7.0281 
G01 X47.1289 Y-6.9218 
G01 X46.8147 Y-6.9218 
G01 X46.7363 Y-6.9008 
G01 X46.6660 Y-6.8602 
G01 X46.6087 Y-6.8028 
G01 X46.1588 Y-6.3529 
G01 X46.1001 Y-6.2948 
G01 X46.0596 Y-6.2246 
G01 X46.0386 Y-6.1462 
G01 X46.0386 Y-6.0650 
G01 X46.0596 Y-5.9866 
G01 X46.1001 Y-5.9164 
G01 X46.1575 Y-5.8590 
G01 X46.5802 Y-5.4363 
G01 X46.5802 Y-5.4136 
G01 X46.5362 Y-5.4136 
G01 X46.5362 Y-5.4181 
G01 X46.0581 Y-5.8962 
G01 X45.3819 Y-5.8962 
G01 X44.9038 Y-5.4181 
G01 X44.9038 Y-5.4136 
G01 X44.8598 Y-5.4136 
G01 X44.8598 Y-5.4363 
G01 X45.2825 Y-5.8590 
G01 X45.3305 Y-5.9070 
G01 X45.3399 Y-5.9164 
G01 X45.3804 Y-5.9866 
G01 X45.4014 Y-6.0650 
G01 X45.4014 Y-6.1462 
G01 X45.3804 Y-6.2246 
G01 X45.3399 Y-6.2948 
G01 X45.2825 Y-6.3522 
G01 X44.7740 Y-6.8602 
G01 X44.7037 Y-6.9008 
G01 X44.6253 Y-6.9218 
G01 X44.2747 Y-6.9218 
G01 X44.1963 Y-6.9008 
G01 X44.1260 Y-6.8602 
G01 X44.0687 Y-6.8028 
G01 X43.6188 Y-6.3529 
G01 X43.5601 Y-6.2948 
G01 X43.5196 Y-6.2246 
G01 X43.4986 Y-6.1462 
G01 X43.4986 Y-6.0650 
G01 X43.5196 Y-5.9866 
G01 X43.5601 Y-5.9164 
G01 X43.6175 Y-5.8590 
G01 X44.0402 Y-5.4363 
G01 X44.0402 Y-5.4136 
G01 X43.9962 Y-5.4136 
G01 X43.9962 Y-5.4181 
G01 X43.5181 Y-5.8962 
G01 X42.8419 Y-5.8962 
G01 X42.3638 Y-5.4181 
G01 X42.3638 Y-5.4136 
G01 X42.3198 Y-5.4136 
G01 X42.3198 Y-5.4363 
G01 X42.7425 Y-5.8590 
G01 X42.7905 Y-5.9070 
G01 X42.7999 Y-5.9164 
G01 X42.8404 Y-5.9866 
G01 X42.8614 Y-6.0650 
G01 X42.8614 Y-6.1462 
G01 X42.8404 Y-6.2246 
G01 X42.7999 Y-6.2948 
G01 X42.7425 Y-6.3522 
G01 X42.2340 Y-6.8602 
