(.../Eagle_ulp/mill_new/pcb-gcode.ulp)
(Copyright 2005 - 2012 by John Johnson)
(See readme.txt for licensing terms.)
(This file generated from the board:)
(.../IO_master/DPS/IO_master_nano2.brd)
(Current profile is .../Eagle_ulp/mill_new/profiles/GRBL.pp  )
(This file generated 03.01.2023 15:19:49)
(Settings from pcb-machine.h)
(  Tool Size)
(0.1900 )
(Z Axis Settings)
(  High     Up        Down     Drill)
(3.0000 	0.8000 	-0.0800 	-4.0000 )
(spindle on time = 2.0000)
(milling depth = -3.0000)
(text depth = -0.1000)
(tool change at 0.0000 20.0000 14.0000 )
(feed rate xy = F240.00 )
(feed rate z  = F100.00 )
G21
(Absolute Coordinates)
G90
G00 X0.0000 Y0.0000 
M03
G04 P2.00
G00 Z0.8000 
G00 X2.8327 Y-26.0203 
G01 Z-0.0800 F100.00 
G01 X2.9110 Y-26.1739 F240.00 
G01 X3.0123 Y-26.3133 
G01 X3.1341 Y-26.4352 
G01 X3.2736 Y-26.5365 
G01 X3.4272 Y-26.6148 
G01 X3.5911 Y-26.6680 
G01 X3.7613 Y-26.6950 
G01 X3.7861 Y-26.6950 
G01 X3.7861 Y-26.5050 
G01 X3.7584 Y-26.5050 
G01 X3.5835 Y-26.4702 
G01 X3.4188 Y-26.4020 
G01 X3.2706 Y-26.3030 
G01 X3.1445 Y-26.1769 
G01 X3.0455 Y-26.0287 
G01 X2.9969 Y-25.9114 
G01 X2.7973 Y-25.9114 
G01 X2.8327 Y-26.0203 
G00 Z0.8000 
G00 X3.7613 Y-24.1050 
G01 Z-0.0800 F100.00 
G01 X3.5911 Y-24.1320 F240.00 
G01 X3.4272 Y-24.1852 
G01 X3.2736 Y-24.2635 
G01 X3.1341 Y-24.3648 
G01 X3.0123 Y-24.4867 
G01 X2.9110 Y-24.6261 
G01 X2.8327 Y-24.7797 
G01 X2.7973 Y-24.8886 
G01 X2.9969 Y-24.8886 
G01 X3.0455 Y-24.7713 
G01 X3.1445 Y-24.6231 
G01 X3.2706 Y-24.4970 
G01 X3.4188 Y-24.3980 
G01 X3.5835 Y-24.3298 
G01 X3.7584 Y-24.2950 
G01 X3.7861 Y-24.2950 
G01 X3.7861 Y-24.1050 
G01 X3.7613 Y-24.1050 
G00 Z0.8000 
G00 X7.1609 Y-12.3282 
G01 Z-0.0800 F100.00 
G01 X7.2393 Y-12.3492 F240.00 
G01 X7.3095 Y-12.3898 
G01 X7.3669 Y-12.4472 
G01 X7.9302 Y-13.0105 
G01 X7.9708 Y-13.0807 
G01 X7.9918 Y-13.1591 
G01 X7.9918 Y-15.4187 
G01 X8.1285 Y-15.7488 
G01 X9.6512 Y-17.2715 
G01 X9.9813 Y-17.4082 
G01 X10.0616 Y-17.4082 
G01 X10.0818 Y-17.4055 
G01 X10.1020 Y-17.4082 
G01 X10.1223 Y-17.4082 
G01 X10.1420 Y-17.4135 
G01 X10.1622 Y-17.4161 
G01 X10.1811 Y-17.4239 
G01 X10.2007 Y-17.4292 
G01 X10.2184 Y-17.4394 
G01 X10.2372 Y-17.4472 
G01 X10.2534 Y-17.4596 
G01 X10.2710 Y-17.4698 
G01 X10.2854 Y-17.4842 
G01 X10.3016 Y-17.4966 
G01 X10.3140 Y-17.5128 
G01 X10.3284 Y-17.5272 
G01 X10.3386 Y-17.5448 
G01 X10.3510 Y-17.5610 
G01 X10.3588 Y-17.5798 
G01 X10.3690 Y-17.5974 
G01 X10.3742 Y-17.6171 
G01 X10.4308 Y-17.7537 
G01 X10.6263 Y-17.9492 
G01 X10.8818 Y-18.0550 
G01 X12.9582 Y-18.0550 
G01 X13.2137 Y-17.9492 
G01 X13.4092 Y-17.7537 
G01 X13.5150 Y-17.4982 
G01 X13.5150 Y-15.5218 
G01 X13.4092 Y-15.2663 
G01 X13.2137 Y-15.0708 
G01 X12.9582 Y-14.9650 
G01 X10.8818 Y-14.9650 
G01 X10.6263 Y-15.0708 
G01 X10.5553 Y-15.1418 
G01 X10.5010 Y-15.1961 
G01 X10.4979 Y-15.1992 
G01 X10.4691 Y-15.2158 
G01 X10.4276 Y-15.2398 
G01 X10.3493 Y-15.2608 
G01 X10.2681 Y-15.2608 
G01 X10.1897 Y-15.2398 
G01 X10.1500 Y-15.2169 
G01 X10.1194 Y-15.1992 
G01 X10.0621 Y-15.1418 
G01 X9.8498 Y-14.9295 
G01 X9.8092 Y-14.8593 
G01 X9.7882 Y-14.7809 
G01 X9.7882 Y-12.5213 
G01 X9.6515 Y-12.1912 
G01 X9.3267 Y-11.8665 
G01 X8.1288 Y-10.6685 
G01 X7.7987 Y-10.5318 
G01 X4.8439 Y-10.5318 
G01 X4.7655 Y-10.5108 
G01 X4.6952 Y-10.4702 
G01 X4.6378 Y-10.4128 
G01 X4.3504 Y-10.1254 
G01 X3.2696 Y-10.1254 
G01 X2.5054 Y-10.8896 
G01 X2.5054 Y-11.9704 
G01 X3.2696 Y-12.7346 
G01 X4.3504 Y-12.7346 
G01 X4.6952 Y-12.3898 
G01 X4.7655 Y-12.3492 
G01 X4.8439 Y-12.3282 
G01 X4.9250 Y-12.3282 
G01 X7.1609 Y-12.3282 
G00 Z0.8000 
G00 X10.9150 Y-17.3809 
G01 Z-0.0800 F100.00 
G01 X10.9150 Y-16.8182 F240.00 
G01 X10.1194 Y-16.8182 
G01 X10.0410 Y-16.7972 
G01 X9.9708 Y-16.7566 
G01 X8.6434 Y-15.4292 
G01 X8.6028 Y-15.3590 
G01 X8.5818 Y-15.2806 
G01 X8.5818 Y-12.8277 
G01 X7.4923 Y-11.7382 
G01 X4.5124 Y-11.7382 
G01 X4.1060 Y-12.1446 
G01 X3.5140 Y-12.1446 
G01 X3.0954 Y-11.7260 
G01 X3.0954 Y-11.1340 
G01 X3.5140 Y-10.7154 
G01 X4.1060 Y-10.7154 
G01 X4.5124 Y-11.1218 
G01 X7.6606 Y-11.1218 
G01 X7.7390 Y-11.1428 
G01 X7.8092 Y-11.1834 
G01 X9.0792 Y-12.4534 
G01 X9.1366 Y-12.5108 
G01 X9.1772 Y-12.5810 
G01 X9.1982 Y-12.6594 
G01 X9.1982 Y-15.1123 
G01 X10.2877 Y-16.2018 
G01 X10.9150 Y-16.2018 
G01 X10.9150 Y-15.6391 
G01 X10.9310 Y-15.6005 
G01 X10.9605 Y-15.5710 
G01 X10.9991 Y-15.5550 
G01 X12.8409 Y-15.5550 
G01 X12.8795 Y-15.5710 
G01 X12.9090 Y-15.6005 
G01 X12.9250 Y-15.6391 
G01 X12.9250 Y-17.3809 
G01 X12.9090 Y-17.4195 
G01 X12.8795 Y-17.4490 
G01 X12.8409 Y-17.4650 
G01 X10.9991 Y-17.4650 
G01 X10.9605 Y-17.4490 
G01 X10.9310 Y-17.4195 
G01 X10.9150 Y-17.3809 
G00 Z0.8000 
G00 X11.9987 Y-59.5150 
G01 Z-0.0800 F100.00 
G01 X12.1689 Y-59.4880 F240.00 
G01 X12.3328 Y-59.4348 
G01 X12.4864 Y-59.3565 
G01 X12.6258 Y-59.2552 
G01 X12.7477 Y-59.1333 
G01 X12.8490 Y-58.9939 
G01 X12.9273 Y-58.8403 
G01 X12.9566 Y-58.7500 
G01 X12.7554 Y-58.7500 
G01 X12.7145 Y-58.8487 
G01 X12.6155 Y-58.9969 
G01 X12.4894 Y-59.1230 
G01 X12.3412 Y-59.2220 
G01 X12.1765 Y-59.2902 
G01 X12.0016 Y-59.3250 
G01 X11.4425 Y-59.3250 
G01 X11.4425 Y-59.5150 
G01 X11.9987 Y-59.5150 
G00 Z0.8000 
G00 X8.0263 Y-46.7008 
G01 Z-0.0800 F100.00 
G01 X8.6434 Y-46.0837 F240.00 
G01 X8.6434 Y-46.0837 
G01 X8.6735 Y-46.0536 
G01 X8.4048 Y-46.0536 
G01 X7.9536 Y-46.5048 
G01 X7.9536 Y-46.7008 
G01 X8.0263 Y-46.7008 
G00 Z0.8000 
G00 X6.6392 Y-46.1263 
G01 Z-0.0800 F100.00 
G01 X7.2137 Y-46.7008 F240.00 
G01 X7.2864 Y-46.7008 
G01 X7.2864 Y-46.5048 
G01 X6.8352 Y-46.0536 
G01 X6.6392 Y-46.0536 
G01 X6.6392 Y-46.1263 
G00 Z0.8000 
G00 X9.8264 Y-46.7008 
G01 Z-0.0800 F100.00 
G01 X9.8264 Y-46.5048 F240.00 
G01 X9.3752 Y-46.0536 
G01 X9.1065 Y-46.0536 
G01 X9.1366 Y-46.0837 
G01 X9.7537 Y-46.7008 
G01 X9.8264 Y-46.7008 
G00 Z0.8000 
G00 X10.5663 Y-46.7008 
G01 Z-0.0800 F100.00 
G01 X11.1408 Y-46.1263 F240.00 
G01 X11.1408 Y-46.0536 
G01 X10.9448 Y-46.0536 
G01 X10.4936 Y-46.5048 
G01 X10.4936 Y-46.7008 
G01 X10.5663 Y-46.7008 
G00 Z0.8000 
G00 X9.2977 Y-58.8403 
G01 Z-0.0800 F100.00 
G01 X9.3760 Y-58.9939 F240.00 
G01 X9.4773 Y-59.1333 
G01 X9.5991 Y-59.2552 
G01 X9.7386 Y-59.3565 
G01 X9.8922 Y-59.4348 
G01 X10.0561 Y-59.4880 
G01 X10.2263 Y-59.5150 
G01 X10.7825 Y-59.5150 
G01 X10.7825 Y-59.3250 
G01 X10.2234 Y-59.3250 
G01 X10.0485 Y-59.2902 
G01 X9.8838 Y-59.2220 
G01 X9.7356 Y-59.1230 
G01 X9.6095 Y-58.9969 
G01 X9.5105 Y-58.8487 
G01 X9.4696 Y-58.7500 
G01 X9.2684 Y-58.7500 
G01 X9.2977 Y-58.8403 
G00 Z0.8000 
G00 X11.0635 Y-2.4578 
G01 Z-0.0800 F100.00 
G01 X10.4773 Y-2.2150 F240.00 
G01 X9.8427 Y-2.2150 
G01 X9.2565 Y-2.4578 
G01 X8.8078 Y-2.9065 
G01 X8.5650 Y-3.4927 
G01 X8.5650 Y-4.1273 
G01 X8.8078 Y-4.7135 
G01 X9.2565 Y-5.1622 
G01 X9.8427 Y-5.4050 
G01 X10.4773 Y-5.4050 
G01 X11.0635 Y-5.1622 
G01 X11.5122 Y-4.7135 
G01 X11.7550 Y-4.1273 
G01 X11.7550 Y-3.4927 
G01 X11.5122 Y-2.9065 
G01 X11.0635 Y-2.4578 
G00 Z0.8000 
G00 X12.9531 Y-9.2379 
G01 Z-0.0800 F100.00 
G01 X12.8135 Y-9.3090 F240.00 
G01 X12.6868 Y-9.4011 
G01 X12.5761 Y-9.5118 
G01 X12.4840 Y-9.6385 
G01 X12.4129 Y-9.7781 
G01 X12.3889 Y-9.8518 
G01 X12.5913 Y-9.8518 
G01 X12.6216 Y-9.7787 
G01 X12.7097 Y-9.6468 
G01 X12.8218 Y-9.5347 
G01 X12.9537 Y-9.4466 
G01 X13.0268 Y-9.4163 
G01 X13.0268 Y-9.2139 
G01 X12.9531 Y-9.2379 
G00 Z0.8000 
G00 X11.8175 Y-24.3240 
G01 Z-0.0800 F100.00 
G01 X11.8288 Y-24.3810 F240.00 
G01 X11.8511 Y-24.4347 
G01 X11.8834 Y-24.4830 
G01 X11.9244 Y-24.5241 
G01 X11.9728 Y-24.5564 
G01 X12.0265 Y-24.5787 
G01 X12.0834 Y-24.5900 
G01 X12.2325 Y-24.5900 
G01 X12.2325 Y-24.4000 
G01 X12.0916 Y-24.4000 
G01 X12.0530 Y-24.3840 
G01 X12.0235 Y-24.3545 
G01 X12.0075 Y-24.3159 
G01 X12.0075 Y-23.8250 
G01 X11.8175 Y-23.8250 
G01 X11.8175 Y-24.3240 
G00 Z0.8000 
G00 X13.1175 Y-24.3159 
G01 Z-0.0800 F100.00 
G01 X13.1015 Y-24.3545 F240.00 
G01 X13.0720 Y-24.3840 
G01 X13.0334 Y-24.4000 
G01 X12.8925 Y-24.4000 
G01 X12.8925 Y-24.5900 
G01 X13.0416 Y-24.5900 
G01 X13.0985 Y-24.5787 
G01 X13.1522 Y-24.5564 
G01 X13.2005 Y-24.5241 
G01 X13.2416 Y-24.4830 
G01 X13.2739 Y-24.4347 
G01 X13.2962 Y-24.3810 
G01 X13.3075 Y-24.3240 
G01 X13.3075 Y-23.8250 
G01 X13.1175 Y-23.8250 
G01 X13.1175 Y-24.3159 
G00 Z0.8000 
G00 X13.1175 Y-22.6741 
G01 Z-0.0800 F100.00 
G01 X13.1175 Y-23.1650 F240.00 
G01 X13.3075 Y-23.1650 
G01 X13.3075 Y-22.6659 
G01 X13.2962 Y-22.6090 
G01 X13.2739 Y-22.5553 
G01 X13.2416 Y-22.5069 
G01 X13.2005 Y-22.4658 
G01 X13.1522 Y-22.4336 
G01 X13.0985 Y-22.4113 
G01 X13.0416 Y-22.4000 
G01 X12.8925 Y-22.4000 
G01 X12.8925 Y-22.5900 
G01 X13.0334 Y-22.5900 
G01 X13.0720 Y-22.6060 
G01 X13.1015 Y-22.6355 
G01 X13.1175 Y-22.6741 
G00 Z0.8000 
G00 X12.0834 Y-22.4000 
G01 Z-0.0800 F100.00 
G01 X12.0265 Y-22.4113 F240.00 
G01 X11.9728 Y-22.4336 
G01 X11.9244 Y-22.4659 
G01 X11.8834 Y-22.5069 
G01 X11.8511 Y-22.5553 
G01 X11.8288 Y-22.6090 
G01 X11.8175 Y-22.6659 
G01 X11.8175 Y-23.1650 
G01 X12.0075 Y-23.1650 
G01 X12.0075 Y-22.6741 
G01 X12.0235 Y-22.6355 
G01 X12.0530 Y-22.6060 
G01 X12.0916 Y-22.5900 
G01 X12.2325 Y-22.5900 
G01 X12.2325 Y-22.4000 
G01 X12.0834 Y-22.4000 
G00 Z0.8000 
G00 X2.9809 Y-48.9650 
G01 Z-0.0800 F100.00 
G01 X2.9240 Y-48.9763 F240.00 
G01 X2.8702 Y-48.9986 
G01 X2.8219 Y-49.0309 
G01 X2.7809 Y-49.0719 
G01 X2.7486 Y-49.1203 
G01 X2.7263 Y-49.1740 
G01 X2.7150 Y-49.2309 
G01 X2.7150 Y-49.3800 
G01 X2.9050 Y-49.3800 
G01 X2.9050 Y-49.2391 
G01 X2.9210 Y-49.2005 
G01 X2.9505 Y-49.1710 
G01 X2.9891 Y-49.1550 
G01 X3.4800 Y-49.1550 
G01 X3.4800 Y-48.9650 
G01 X2.9809 Y-48.9650 
G00 Z0.8000 
G00 X2.9118 Y-45.4223 
G01 Z-0.0800 F100.00 
G01 X2.9145 Y-45.4425 F240.00 
G01 X2.9118 Y-45.4627 
G01 X2.9118 Y-45.4831 
G01 X2.9065 Y-45.5027 
G01 X2.9039 Y-45.5229 
G01 X2.8961 Y-45.5418 
G01 X2.8908 Y-45.5614 
G01 X2.8806 Y-45.5791 
G01 X2.8728 Y-45.5979 
G01 X2.8604 Y-45.6141 
G01 X2.8502 Y-45.6317 
G01 X2.8358 Y-45.6461 
G01 X2.8234 Y-45.6623 
G01 X2.8073 Y-45.6747 
G01 X2.7928 Y-45.6891 
G01 X2.7752 Y-45.6993 
G01 X2.7590 Y-45.7117 
G01 X2.7402 Y-45.7195 
G01 X2.7226 Y-45.7297 
G01 X2.7029 Y-45.7350 
G01 X2.6163 Y-45.7708 
G01 X2.4208 Y-45.9663 
G01 X2.3150 Y-46.2218 
G01 X2.3150 Y-47.3982 
G01 X2.4208 Y-47.6537 
G01 X2.6163 Y-47.8492 
G01 X2.8718 Y-47.9550 
G01 X4.7482 Y-47.9550 
G01 X5.0037 Y-47.8492 
G01 X5.1992 Y-47.6537 
G01 X5.3050 Y-47.3982 
G01 X5.3050 Y-46.2218 
G01 X5.1992 Y-45.9663 
G01 X5.0037 Y-45.7708 
G01 X4.9171 Y-45.7350 
G01 X4.8974 Y-45.7297 
G01 X4.8798 Y-45.7195 
G01 X4.8610 Y-45.7117 
G01 X4.8448 Y-45.6993 
G01 X4.8272 Y-45.6891 
G01 X4.8127 Y-45.6747 
G01 X4.7966 Y-45.6623 
G01 X4.7842 Y-45.6461 
G01 X4.7698 Y-45.6317 
G01 X4.7596 Y-45.6141 
G01 X4.7472 Y-45.5979 
G01 X4.7394 Y-45.5791 
G01 X4.7292 Y-45.5614 
G01 X4.7239 Y-45.5418 
G01 X4.7161 Y-45.5229 
G01 X4.7135 Y-45.5027 
G01 X4.7082 Y-45.4831 
G01 X4.7082 Y-45.4627 
G01 X4.7055 Y-45.4425 
G01 X4.7082 Y-45.4223 
G01 X4.7082 Y-44.3458 
G01 X4.7292 Y-44.2674 
G01 X4.7698 Y-44.1972 
G01 X4.8272 Y-44.1398 
G01 X4.8974 Y-44.0992 
G01 X4.9758 Y-44.0782 
G01 X6.4784 Y-44.0782 
G01 X6.5568 Y-44.0992 
G01 X6.6270 Y-44.1398 
G01 X6.6333 Y-44.1461 
G01 X6.9735 Y-44.4862 
G01 X7.0246 Y-44.5373 
G01 X7.0309 Y-44.5436 
G01 X7.0714 Y-44.6139 
G01 X7.0924 Y-44.6923 
G01 X7.0924 Y-44.7734 
G01 X7.0714 Y-44.8518 
G01 X7.0309 Y-44.9221 
G01 X6.9735 Y-44.9795 
G01 X6.6392 Y-45.3137 
G01 X6.6392 Y-45.3864 
G01 X6.8352 Y-45.3864 
G01 X7.2924 Y-44.9292 
G01 X7.9476 Y-44.9292 
G01 X8.4047 Y-45.3864 
G01 X8.6735 Y-45.3864 
G01 X8.2091 Y-44.9221 
G01 X8.1686 Y-44.8518 
G01 X8.1476 Y-44.7734 
G01 X8.1476 Y-44.6923 
G01 X8.1686 Y-44.6139 
G01 X8.2091 Y-44.5436 
G01 X8.2665 Y-44.4862 
G01 X8.6130 Y-44.1398 
G01 X8.6832 Y-44.0992 
G01 X8.7616 Y-44.0782 
G01 X9.0184 Y-44.0782 
G01 X9.0968 Y-44.0992 
G01 X9.1670 Y-44.1398 
G01 X9.1733 Y-44.1461 
G01 X9.5135 Y-44.4862 
G01 X9.5646 Y-44.5373 
G01 X9.5709 Y-44.5436 
G01 X9.6114 Y-44.6139 
G01 X9.6324 Y-44.6923 
G01 X9.6324 Y-44.7734 
G01 X9.6114 Y-44.8518 
G01 X9.5709 Y-44.9221 
G01 X9.5135 Y-44.9795 
G01 X9.1099 Y-45.3831 
G01 X9.1065 Y-45.3864 
G01 X9.3752 Y-45.3864 
G01 X9.8324 Y-44.9292 
G01 X10.4876 Y-44.9292 
G01 X10.9448 Y-45.3864 
G01 X11.1408 Y-45.3864 
G01 X11.1408 Y-45.3137 
G01 X10.8065 Y-44.9795 
G01 X10.7571 Y-44.9300 
G01 X10.7491 Y-44.9221 
G01 X10.7086 Y-44.8518 
G01 X10.6876 Y-44.7734 
G01 X10.6876 Y-44.6923 
G01 X10.7086 Y-44.6139 
G01 X10.7491 Y-44.5436 
G01 X10.8065 Y-44.4862 
G01 X10.8896 Y-44.4031 
G01 X10.9470 Y-44.3457 
G01 X11.0173 Y-44.3052 
G01 X11.0957 Y-44.2842 
G01 X11.1768 Y-44.2842 
G01 X11.2552 Y-44.3052 
G01 X11.3255 Y-44.3457 
G01 X11.7402 Y-44.7605 
G01 X11.7808 Y-44.8307 
G01 X11.8018 Y-44.9091 
G01 X11.8018 Y-49.0709 
G01 X11.7808 Y-49.1493 
G01 X11.7402 Y-49.2195 
G01 X11.7227 Y-49.2370 
G01 X10.6758 Y-50.2840 
G01 X10.6358 Y-50.3239 
G01 X10.6184 Y-50.3414 
G01 X10.3510 Y-50.6087 
G01 X10.2143 Y-50.9388 
G01 X10.2143 Y-51.5364 
G01 X10.2170 Y-51.5566 
G01 X10.2143 Y-51.5768 
G01 X10.2143 Y-51.5971 
G01 X10.2090 Y-51.6168 
G01 X10.2064 Y-51.6370 
G01 X10.1986 Y-51.6559 
G01 X10.1933 Y-51.6755 
G01 X10.1831 Y-51.6932 
G01 X10.1753 Y-51.7120 
G01 X10.1629 Y-51.7282 
G01 X10.1527 Y-51.7458 
G01 X10.1383 Y-51.7602 
G01 X10.1259 Y-51.7764 
G01 X10.1097 Y-51.7888 
G01 X10.0953 Y-51.8032 
G01 X10.0777 Y-51.8134 
G01 X10.0615 Y-51.8258 
G01 X10.0427 Y-51.8336 
G01 X10.0251 Y-51.8438 
G01 X10.0054 Y-51.8490 
G01 X9.4657 Y-52.0726 
G01 X9.0451 Y-52.4931 
G01 X8.8175 Y-53.0426 
G01 X8.8175 Y-53.6374 
G01 X9.0451 Y-54.1868 
G01 X9.2790 Y-54.4208 
G01 X9.3196 Y-54.4910 
G01 X9.3406 Y-54.5694 
G01 X9.3406 Y-54.6506 
G01 X9.3196 Y-54.7290 
G01 X9.2799 Y-54.7977 
G01 X9.2216 Y-54.8566 
G01 X9.0451 Y-55.0331 
G01 X8.8175 Y-55.5826 
G01 X8.8175 Y-56.1774 
G01 X9.0451 Y-56.7268 
G01 X9.4657 Y-57.1474 
G01 X9.4807 Y-57.1536 
G01 X9.4968 Y-57.1660 
G01 X9.5145 Y-57.1762 
G01 X9.5289 Y-57.1906 
G01 X9.5451 Y-57.2030 
G01 X9.5575 Y-57.2192 
G01 X9.5719 Y-57.2336 
G01 X9.5820 Y-57.2512 
G01 X9.5945 Y-57.2674 
G01 X9.6023 Y-57.2862 
G01 X9.6124 Y-57.3039 
G01 X9.6177 Y-57.3236 
G01 X9.6255 Y-57.3424 
G01 X9.6282 Y-57.3626 
G01 X9.6334 Y-57.3823 
G01 X9.6334 Y-57.4026 
G01 X9.6361 Y-57.4228 
G01 X9.6334 Y-57.4430 
G01 X9.6334 Y-57.4634 
G01 X9.6282 Y-57.4831 
G01 X9.6255 Y-57.5033 
G01 X9.6177 Y-57.5221 
G01 X9.6124 Y-57.5418 
G01 X9.6022 Y-57.5594 
G01 X9.5945 Y-57.5783 
G01 X9.5820 Y-57.5944 
G01 X9.5719 Y-57.6121 
G01 X9.5575 Y-57.6265 
G01 X9.5450 Y-57.6426 
G01 X9.5289 Y-57.6551 
G01 X9.4773 Y-57.7066 
G01 X9.3760 Y-57.8461 
G01 X9.2977 Y-57.9997 
G01 X9.2684 Y-58.0900 
G01 X9.4696 Y-58.0900 
G01 X9.5105 Y-57.9913 
G01 X9.6095 Y-57.8431 
G01 X9.7356 Y-57.7170 
G01 X9.8838 Y-57.6180 
G01 X10.0485 Y-57.5498 
G01 X10.2234 Y-57.5150 
G01 X12.0016 Y-57.5150 
G01 X12.1765 Y-57.5498 
G01 X12.3412 Y-57.6180 
G01 X12.4894 Y-57.7170 
G01 X12.6155 Y-57.8431 
G01 X12.7145 Y-57.9913 
G01 X12.7554 Y-58.0900 
G01 X12.9566 Y-58.0900 
G01 X12.9273 Y-57.9997 
G01 X12.8490 Y-57.8461 
G01 X12.7477 Y-57.7066 
G01 X12.6961 Y-57.6551 
G01 X12.6799 Y-57.6426 
G01 X12.6675 Y-57.6265 
G01 X12.6531 Y-57.6121 
G01 X12.6429 Y-57.5944 
G01 X12.6305 Y-57.5783 
G01 X12.6227 Y-57.5594 
G01 X12.6126 Y-57.5418 
G01 X12.6073 Y-57.5221 
G01 X12.5995 Y-57.5033 
G01 X12.5968 Y-57.4831 
G01 X12.5916 Y-57.4634 
G01 X12.5916 Y-57.4430 
G01 X12.5889 Y-57.4228 
G01 X12.5916 Y-57.4026 
G01 X12.5916 Y-57.3823 
G01 X12.5968 Y-57.3626 
G01 X12.5995 Y-57.3424 
G01 X12.6073 Y-57.3236 
G01 X12.6126 Y-57.3039 
G01 X12.6227 Y-57.2862 
G01 X12.6305 Y-57.2674 
G01 X12.6430 Y-57.2512 
G01 X12.6531 Y-57.2336 
G01 X12.6675 Y-57.2192 
G01 X12.6799 Y-57.2030 
G01 X12.6961 Y-57.1906 
G01 X12.7105 Y-57.1762 
G01 X12.7282 Y-57.1660 
G01 X12.7443 Y-57.1536 
G01 X12.7593 Y-57.1474 
G01 X13.1799 Y-56.7268 
G01 X13.4075 Y-56.1774 
G01 X13.4075 Y-55.5826 
G01 X13.1799 Y-55.0331 
G01 X13.0034 Y-54.8566 
G01 X12.9484 Y-54.8016 
G01 X12.9054 Y-54.7290 
G01 X12.8844 Y-54.6506 
G01 X12.8844 Y-54.5694 
G01 X12.9054 Y-54.4910 
G01 X12.9460 Y-54.4208 
G01 X13.0025 Y-54.3643 
G01 X13.1799 Y-54.1868 
G01 X13.4075 Y-53.6374 
G01 X13.4075 Y-53.0426 
G01 X13.1799 Y-52.4932 
G01 X12.7594 Y-52.0726 
G01 X12.2625 Y-51.8668 
G01 X12.2428 Y-51.8615 
G01 X12.2252 Y-51.8513 
G01 X12.2063 Y-51.8435 
G01 X12.1902 Y-51.8311 
G01 X12.1725 Y-51.8209 
G01 X12.1581 Y-51.8065 
G01 X12.1420 Y-51.7941 
G01 X12.1296 Y-51.7780 
G01 X12.1151 Y-51.7636 
G01 X12.1050 Y-51.7459 
G01 X12.0926 Y-51.7298 
G01 X12.0848 Y-51.7109 
G01 X12.0746 Y-51.6933 
G01 X12.0693 Y-51.6736 
G01 X12.0615 Y-51.6548 
G01 X12.0588 Y-51.6346 
G01 X12.0536 Y-51.6149 
G01 X12.0536 Y-51.5945 
G01 X12.0509 Y-51.5743 
G01 X12.0536 Y-51.5541 
G01 X12.0536 Y-51.5338 
G01 X12.0588 Y-51.5141 
G01 X12.0615 Y-51.4939 
G01 X12.0693 Y-51.4750 
G01 X12.0746 Y-51.4554 
G01 X12.0848 Y-51.4377 
G01 X12.0926 Y-51.4189 
G01 X12.1050 Y-51.4027 
G01 X12.1151 Y-51.3851 
G01 X12.1296 Y-51.3707 
G01 X12.1420 Y-51.3545 
G01 X12.1581 Y-51.3421 
G01 X13.1941 Y-50.3061 
G01 X13.4615 Y-50.0388 
G01 X13.5982 Y-49.7087 
G01 X13.5982 Y-45.4169 
G01 X13.6036 Y-45.3968 
G01 X13.6192 Y-45.3385 
G01 X13.6598 Y-45.2683 
G01 X13.7172 Y-45.2109 
G01 X13.7874 Y-45.1703 
G01 X13.8320 Y-45.1584 
G01 X13.8658 Y-45.1493 
G01 X13.9470 Y-45.1493 
G01 X13.9671 Y-45.1547 
G01 X14.0254 Y-45.1703 
G01 X14.0956 Y-45.2109 
G01 X14.1530 Y-45.2683 
G01 X14.2534 Y-45.3687 
G01 X14.2940 Y-45.4389 
G01 X14.3063 Y-45.4849 
G01 X14.3150 Y-45.5173 
G01 X14.3150 Y-46.0074 
G01 X14.5350 Y-46.5385 
G01 X14.7972 Y-46.8008 
G01 X14.8378 Y-46.8710 
G01 X14.8588 Y-46.9494 
G01 X14.8588 Y-47.0306 
G01 X14.8378 Y-47.1090 
G01 X14.7981 Y-47.1777 
G01 X14.7398 Y-47.2366 
G01 X14.5350 Y-47.4415 
G01 X14.3150 Y-47.9726 
G01 X14.3150 Y-48.5474 
G01 X14.5350 Y-49.0785 
G01 X14.7972 Y-49.3408 
G01 X14.8378 Y-49.4110 
G01 X14.8588 Y-49.4894 
G01 X14.8588 Y-49.5706 
G01 X14.8378 Y-49.6490 
G01 X14.7981 Y-49.7177 
G01 X14.7398 Y-49.7766 
G01 X14.5350 Y-49.9815 
G01 X14.3150 Y-50.5126 
G01 X14.3150 Y-51.0874 
G01 X14.5350 Y-51.6185 
G01 X14.7972 Y-51.8808 
G01 X14.8378 Y-51.9510 
G01 X14.8588 Y-52.0294 
G01 X14.8588 Y-52.1106 
G01 X14.8378 Y-52.1890 
G01 X14.7981 Y-52.2577 
G01 X14.7398 Y-52.3166 
G01 X14.5350 Y-52.5215 
G01 X14.3150 Y-53.0526 
G01 X14.3150 Y-53.6274 
G01 X14.5350 Y-54.1585 
G01 X14.7972 Y-54.4208 
G01 X14.8378 Y-54.4910 
G01 X14.8588 Y-54.5694 
G01 X14.8588 Y-54.6506 
G01 X14.8378 Y-54.7290 
G01 X14.7981 Y-54.7977 
G01 X14.7398 Y-54.8566 
G01 X14.5350 Y-55.0615 
G01 X14.3150 Y-55.5926 
G01 X14.3150 Y-56.1674 
G01 X14.5350 Y-56.6985 
G01 X14.9415 Y-57.1050 
G01 X15.4726 Y-57.3250 
G01 X17.5474 Y-57.3250 
G01 X18.0785 Y-57.1050 
G01 X18.4850 Y-56.6985 
G01 X18.7050 Y-56.1674 
G01 X18.7050 Y-55.5926 
G01 X18.4850 Y-55.0615 
G01 X18.2802 Y-54.8566 
G01 X18.2254 Y-54.8018 
G01 X18.2228 Y-54.7992 
G01 X18.1822 Y-54.7290 
G01 X18.1612 Y-54.6506 
G01 X18.1612 Y-54.5694 
G01 X18.1813 Y-54.4944 
G01 X18.1822 Y-54.4910 
G01 X18.2228 Y-54.4208 
G01 X18.2793 Y-54.3643 
G01 X18.4850 Y-54.1585 
G01 X18.7050 Y-53.6274 
G01 X18.7050 Y-53.0526 
G01 X18.4850 Y-52.5215 
G01 X18.2802 Y-52.3166 
G01 X18.2254 Y-52.2618 
G01 X18.2228 Y-52.2592 
G01 X18.1822 Y-52.1890 
G01 X18.1612 Y-52.1106 
G01 X18.1612 Y-52.0294 
G01 X18.1813 Y-51.9544 
G01 X18.1822 Y-51.9510 
G01 X18.2228 Y-51.8808 
G01 X18.2793 Y-51.8243 
G01 X18.4850 Y-51.6185 
G01 X18.7050 Y-51.0874 
G01 X18.7050 Y-50.5126 
G01 X18.4850 Y-49.9815 
G01 X18.2802 Y-49.7766 
G01 X18.2254 Y-49.7218 
G01 X18.2228 Y-49.7192 
G01 X18.1822 Y-49.6490 
G01 X18.1612 Y-49.5706 
G01 X18.1612 Y-49.4894 
G01 X18.1813 Y-49.4144 
G01 X18.1822 Y-49.4110 
G01 X18.2228 Y-49.3408 
G01 X18.2793 Y-49.2843 
G01 X18.4850 Y-49.0785 
G01 X18.7050 Y-48.5474 
G01 X18.7050 Y-47.9726 
G01 X18.4850 Y-47.4415 
G01 X18.2802 Y-47.2366 
G01 X18.2254 Y-47.1818 
G01 X18.2228 Y-47.1792 
G01 X18.1822 Y-47.1090 
G01 X18.1612 Y-47.0306 
G01 X18.1612 Y-46.9494 
G01 X18.1813 Y-46.8744 
G01 X18.1822 Y-46.8710 
G01 X18.2228 Y-46.8008 
G01 X18.2793 Y-46.7443 
G01 X18.4850 Y-46.5385 
G01 X18.7050 Y-46.0074 
G01 X18.7050 Y-45.4326 
G01 X18.4850 Y-44.9015 
G01 X18.2802 Y-44.6966 
G01 X18.2254 Y-44.6418 
G01 X18.2228 Y-44.6392 
G01 X18.1822 Y-44.5690 
G01 X18.1612 Y-44.4906 
G01 X18.1612 Y-44.4094 
G01 X18.1813 Y-44.3344 
G01 X18.1822 Y-44.3310 
G01 X18.2228 Y-44.2608 
G01 X18.2793 Y-44.2043 
G01 X18.4850 Y-43.9985 
G01 X18.7050 Y-43.4674 
G01 X18.7050 Y-42.8926 
G01 X18.4850 Y-42.3615 
G01 X18.2802 Y-42.1566 
G01 X18.2254 Y-42.1018 
G01 X18.2228 Y-42.0992 
G01 X18.1822 Y-42.0290 
G01 X18.1612 Y-41.9506 
G01 X18.1612 Y-41.8694 
G01 X18.1813 Y-41.7944 
G01 X18.1822 Y-41.7910 
G01 X18.2228 Y-41.7208 
G01 X18.2793 Y-41.6643 
G01 X18.4850 Y-41.4585 
G01 X18.7050 Y-40.9274 
G01 X18.7050 Y-40.3526 
G01 X18.4850 Y-39.8215 
G01 X18.2802 Y-39.6166 
G01 X18.2254 Y-39.5618 
G01 X18.2228 Y-39.5592 
G01 X18.1822 Y-39.4890 
G01 X18.1612 Y-39.4106 
G01 X18.1612 Y-39.3294 
G01 X18.1813 Y-39.2544 
G01 X18.1822 Y-39.2510 
G01 X18.2228 Y-39.1808 
G01 X18.2793 Y-39.1243 
G01 X18.4850 Y-38.9185 
G01 X18.7050 Y-38.3874 
G01 X18.7050 Y-37.8126 
G01 X18.4850 Y-37.2815 
G01 X18.2802 Y-37.0766 
G01 X18.2254 Y-37.0218 
G01 X18.2228 Y-37.0192 
G01 X18.1822 Y-36.9490 
G01 X18.1612 Y-36.8706 
G01 X18.1612 Y-36.7894 
G01 X18.1813 Y-36.7144 
G01 X18.1822 Y-36.7110 
G01 X18.2228 Y-36.6408 
G01 X18.2793 Y-36.5843 
G01 X18.4850 Y-36.3785 
G01 X18.7050 Y-35.8474 
G01 X18.7050 Y-35.2726 
G01 X18.4850 Y-34.7415 
G01 X18.2802 Y-34.5366 
G01 X18.2254 Y-34.4818 
G01 X18.2228 Y-34.4792 
G01 X18.1822 Y-34.4090 
G01 X18.1612 Y-34.3306 
G01 X18.1612 Y-34.2494 
G01 X18.1813 Y-34.1744 
G01 X18.1822 Y-34.1710 
G01 X18.2228 Y-34.1008 
G01 X18.2793 Y-34.0443 
G01 X18.4850 Y-33.8385 
G01 X18.7050 Y-33.3074 
G01 X18.7050 Y-32.7326 
G01 X18.4850 Y-32.2015 
G01 X18.2802 Y-31.9966 
G01 X18.2254 Y-31.9418 
G01 X18.2228 Y-31.9392 
G01 X18.1822 Y-31.8690 
G01 X18.1612 Y-31.7906 
G01 X18.1612 Y-31.7094 
G01 X18.1813 Y-31.6344 
G01 X18.1822 Y-31.6310 
G01 X18.2228 Y-31.5608 
G01 X18.2793 Y-31.5043 
G01 X18.4850 Y-31.2985 
G01 X18.7050 Y-30.7674 
G01 X18.7050 Y-30.1926 
G01 X18.4850 Y-29.6615 
G01 X18.2802 Y-29.4566 
G01 X18.2228 Y-29.3992 
G01 X18.1831 Y-29.3305 
G01 X18.1612 Y-29.2506 
G01 X18.1612 Y-29.1694 
G01 X18.1822 Y-29.0910 
G01 X18.1974 Y-29.0648 
G01 X18.2228 Y-29.0208 
G01 X18.4391 Y-28.8045 
G01 X18.4514 Y-28.7883 
G01 X18.4676 Y-28.7759 
G01 X18.4820 Y-28.7615 
G01 X18.4997 Y-28.7513 
G01 X18.5158 Y-28.7389 
G01 X18.5346 Y-28.7311 
G01 X18.5523 Y-28.7209 
G01 X18.5720 Y-28.7157 
G01 X18.6063 Y-28.7015 
G01 X19.8616 Y-27.4461 
G01 X20.1290 Y-27.1788 
G01 X20.2657 Y-26.8487 
G01 X20.2657 Y-14.7466 
G01 X20.2867 Y-14.6682 
G01 X20.3273 Y-14.5980 
G01 X20.3847 Y-14.5406 
G01 X22.3514 Y-12.5738 
G01 X22.3638 Y-12.5577 
G01 X22.3800 Y-12.5453 
G01 X22.3944 Y-12.5308 
G01 X22.4120 Y-12.5207 
G01 X22.4282 Y-12.5083 
G01 X22.4470 Y-12.5005 
G01 X22.4647 Y-12.4903 
G01 X22.4844 Y-12.4850 
G01 X22.5032 Y-12.4772 
G01 X22.5234 Y-12.4745 
G01 X22.5431 Y-12.4693 
G01 X22.5634 Y-12.4693 
G01 X22.5836 Y-12.4666 
G01 X22.6038 Y-12.4693 
G01 X22.6242 Y-12.4693 
G01 X22.6439 Y-12.4745 
G01 X22.6641 Y-12.4772 
G01 X22.6829 Y-12.4850 
G01 X22.7026 Y-12.4903 
G01 X22.7202 Y-12.5005 
G01 X22.9968 Y-12.6150 
G01 X23.9932 Y-12.6150 
G01 X24.0056 Y-12.6099 
G01 X24.0495 Y-12.5917 
G01 X24.1300 Y-12.5811 
G01 X24.2105 Y-12.5917 
G01 X24.2668 Y-12.6150 
G01 X25.2632 Y-12.6150 
G01 X25.3195 Y-12.5917 
G01 X25.4000 Y-12.5811 
G01 X25.4068 Y-12.5820 
G01 X25.4805 Y-12.5917 
G01 X25.5219 Y-12.6089 
G01 X25.5368 Y-12.6150 
G01 X26.5332 Y-12.6150 
G01 X26.7887 Y-12.5092 
G01 X26.9639 Y-12.3340 
G01 X26.9979 Y-12.3000 
G01 X27.0010 Y-12.2881 
G01 X27.0028 Y-12.2718 
G01 X27.0115 Y-12.2491 
G01 X27.0178 Y-12.2256 
G01 X27.0260 Y-12.2113 
G01 X27.0319 Y-12.1960 
G01 X27.0462 Y-12.1763 
G01 X27.0584 Y-12.1553 
G01 X27.0700 Y-12.1437 
G01 X27.0797 Y-12.1304 
G01 X27.0986 Y-12.1151 
G01 X27.1158 Y-12.0979 
G01 X27.1300 Y-12.0897 
G01 X27.1428 Y-12.0793 
G01 X27.1650 Y-12.0695 
G01 X27.1861 Y-12.0573 
G01 X27.2019 Y-12.0531 
G01 X27.2169 Y-12.0464 
G01 X27.2409 Y-12.0426 
G01 X27.2644 Y-12.0363 
G01 X27.2809 Y-12.0363 
G01 X27.2971 Y-12.0337 
G01 X27.3213 Y-12.0363 
G01 X27.3456 Y-12.0363 
G01 X27.3615 Y-12.0406 
G01 X27.3778 Y-12.0423 
G01 X27.4005 Y-12.0510 
G01 X27.4240 Y-12.0573 
G01 X27.4382 Y-12.0655 
G01 X27.4535 Y-12.0714 
G01 X27.4732 Y-12.0857 
G01 X27.4943 Y-12.0979 
G01 X27.5059 Y-12.1095 
G01 X27.5191 Y-12.1192 
G01 X27.5344 Y-12.1381 
G01 X27.5516 Y-12.1553 
G01 X27.5598 Y-12.1695 
G01 X27.5702 Y-12.1823 
G01 X27.5800 Y-12.2045 
G01 X27.5861 Y-12.2150 
G01 X27.6941 Y-12.2150 
G01 X27.7510 Y-12.2037 
G01 X27.8047 Y-12.1814 
G01 X27.8530 Y-12.1491 
G01 X27.8941 Y-12.1080 
G01 X27.9264 Y-12.0597 
G01 X27.9487 Y-12.0060 
G01 X27.9600 Y-11.9490 
G01 X27.9600 Y-11.4782 
G01 X27.7700 Y-11.4782 
G01 X27.7700 Y-11.9409 
G01 X27.7540 Y-11.9795 
G01 X27.7245 Y-12.0090 
G01 X27.6859 Y-12.0250 
G01 X26.9241 Y-12.0250 
G01 X26.8855 Y-12.0090 
G01 X26.8560 Y-11.9795 
G01 X26.8400 Y-11.9409 
G01 X26.8400 Y-10.3991 
G01 X26.8560 Y-10.3605 
G01 X26.8855 Y-10.3310 
G01 X26.9241 Y-10.3150 
G01 X27.6859 Y-10.3150 
G01 X27.7245 Y-10.3310 
G01 X27.7540 Y-10.3605 
G01 X27.7700 Y-10.3991 
G01 X27.7700 Y-10.8618 
G01 X27.9600 Y-10.8618 
G01 X27.9600 Y-10.3909 
G01 X27.9487 Y-10.3339 
G01 X27.9264 Y-10.2803 
G01 X27.8941 Y-10.2319 
G01 X27.8530 Y-10.1909 
G01 X27.8047 Y-10.1586 
G01 X27.7510 Y-10.1363 
G01 X27.6941 Y-10.1250 
G01 X27.5861 Y-10.1250 
G01 X27.5800 Y-10.1355 
G01 X27.5702 Y-10.1577 
G01 X27.5598 Y-10.1705 
G01 X27.5516 Y-10.1847 
G01 X27.5344 Y-10.2019 
G01 X27.5191 Y-10.2208 
G01 X27.5059 Y-10.2305 
G01 X27.4943 Y-10.2421 
G01 X27.4732 Y-10.2543 
G01 X27.4535 Y-10.2686 
G01 X27.4382 Y-10.2745 
G01 X27.4240 Y-10.2827 
G01 X27.4005 Y-10.2890 
G01 X27.3778 Y-10.2977 
G01 X27.3615 Y-10.2994 
G01 X27.3456 Y-10.3037 
G01 X27.3213 Y-10.3037 
G01 X27.2971 Y-10.3062 
G01 X27.2809 Y-10.3037 
G01 X27.2644 Y-10.3037 
G01 X27.2409 Y-10.2974 
G01 X27.2169 Y-10.2936 
G01 X27.2019 Y-10.2869 
G01 X27.1861 Y-10.2827 
G01 X27.1650 Y-10.2705 
G01 X27.1428 Y-10.2606 
G01 X27.1300 Y-10.2503 
G01 X27.1158 Y-10.2421 
G01 X27.0986 Y-10.2249 
G01 X27.0797 Y-10.2096 
G01 X27.0700 Y-10.1963 
G01 X27.0584 Y-10.1847 
G01 X27.0462 Y-10.1637 
G01 X27.0319 Y-10.1440 
G01 X27.0260 Y-10.1287 
G01 X27.0178 Y-10.1144 
G01 X27.0115 Y-10.0909 
G01 X27.0028 Y-10.0682 
G01 X27.0010 Y-10.0518 
G01 X26.9968 Y-10.0360 
G01 X26.9968 Y-10.0117 
G01 X26.9964 Y-10.0076 
G01 X26.9773 Y-9.9758 
G01 X26.9542 Y-9.9358 
G01 X26.9406 Y-9.8849 
G01 X26.9332 Y-9.8574 
G01 X26.9332 Y-9.8173 
G01 X26.9332 Y-9.7762 
G01 X26.9332 Y-9.0288 
G01 X26.7965 Y-8.6987 
G01 X25.2236 Y-7.1259 
G01 X24.9563 Y-6.8585 
G01 X24.6262 Y-6.7218 
G01 X18.2363 Y-6.7218 
G01 X17.9062 Y-6.8585 
G01 X17.5815 Y-7.1832 
G01 X16.0613 Y-8.7034 
G01 X15.9911 Y-8.7440 
G01 X15.9127 Y-8.7650 
G01 X15.5975 Y-8.7650 
G01 X15.0848 Y-8.9774 
G01 X14.6924 Y-9.3698 
G01 X14.6622 Y-9.4427 
G01 X14.6615 Y-9.4467 
G01 X14.6467 Y-9.4802 
G01 X14.6327 Y-9.5139 
G01 X14.6302 Y-9.5171 
G01 X14.6285 Y-9.5209 
G01 X14.6055 Y-9.5493 
G01 X14.5833 Y-9.5783 
G01 X14.5800 Y-9.5808 
G01 X14.5775 Y-9.5839 
G01 X14.5479 Y-9.6054 
G01 X14.5189 Y-9.6277 
G01 X14.5151 Y-9.6292 
G01 X14.5118 Y-9.6316 
G01 X14.4777 Y-9.6447 
G01 X14.4439 Y-9.6587 
G01 X14.4399 Y-9.6593 
G01 X14.4360 Y-9.6607 
G01 X14.3997 Y-9.6645 
G01 X14.3635 Y-9.6693 
G01 X14.3594 Y-9.6688 
G01 X14.3553 Y-9.6692 
G01 X14.3193 Y-9.6635 
G01 X14.2830 Y-9.6587 
G01 X14.2792 Y-9.6571 
G01 X14.2752 Y-9.6565 
G01 X14.2418 Y-9.6416 
G01 X14.2081 Y-9.6277 
G01 X14.2048 Y-9.6252 
G01 X14.2011 Y-9.6235 
G01 X14.1726 Y-9.6005 
G01 X14.1437 Y-9.5783 
G01 X14.1412 Y-9.5750 
G01 X14.1380 Y-9.5724 
G01 X14.1165 Y-9.5429 
G01 X14.0943 Y-9.5139 
G01 X14.0930 Y-9.5109 
G01 X13.9832 Y-9.4011 
G01 X13.8565 Y-9.3090 
G01 X13.7169 Y-9.2379 
G01 X13.6432 Y-9.2139 
G01 X13.6432 Y-9.4163 
G01 X13.7163 Y-9.4466 
G01 X13.8482 Y-9.5347 
G01 X13.9603 Y-9.6468 
G01 X14.0484 Y-9.7787 
G01 X14.1091 Y-9.9252 
G01 X14.1400 Y-10.0807 
G01 X14.1400 Y-10.2393 
G01 X14.1091 Y-10.3948 
G01 X14.0484 Y-10.5413 
G01 X13.9603 Y-10.6732 
G01 X13.8482 Y-10.7853 
G01 X13.7163 Y-10.8734 
G01 X13.6432 Y-10.9037 
G01 X13.6432 Y-11.2374 
G01 X13.6797 Y-11.2740 
G01 X13.7203 Y-11.3442 
G01 X13.7413 Y-11.4226 
G01 X13.7413 Y-11.5038 
G01 X13.7203 Y-11.5822 
G01 X13.6797 Y-11.6524 
G01 X13.6224 Y-11.7098 
G01 X13.5816 Y-11.7505 
G01 X13.5242 Y-11.8079 
G01 X13.4540 Y-11.8485 
G01 X13.4489 Y-11.8499 
G01 X13.3756 Y-11.8695 
G01 X13.2944 Y-11.8695 
G01 X13.2860 Y-11.8672 
G01 X13.2160 Y-11.8485 
G01 X13.1458 Y-11.8079 
G01 X13.0476 Y-11.7098 
G01 X12.9927 Y-11.6549 
G01 X12.9615 Y-11.6025 
G01 X12.9497 Y-11.5822 
G01 X12.9402 Y-11.5467 
G01 X12.9287 Y-11.5038 
G01 X12.9287 Y-11.4226 
G01 X12.9374 Y-11.3902 
G01 X12.9497 Y-11.3442 
G01 X12.9903 Y-11.2740 
G01 X13.0268 Y-11.2374 
G01 X13.0268 Y-10.9037 
G01 X12.9537 Y-10.8734 
G01 X12.8218 Y-10.7853 
G01 X12.7097 Y-10.6732 
G01 X12.6216 Y-10.5413 
G01 X12.5913 Y-10.4682 
G01 X12.3889 Y-10.4682 
G01 X12.4129 Y-10.5419 
G01 X12.4840 Y-10.6815 
G01 X12.5672 Y-10.7960 
G01 X12.5788 Y-10.8076 
G01 X12.5910 Y-10.8287 
G01 X12.6053 Y-10.8485 
G01 X12.6112 Y-10.8637 
G01 X12.6193 Y-10.8778 
G01 X12.6256 Y-10.9014 
G01 X12.6344 Y-10.9242 
G01 X12.6361 Y-10.9405 
G01 X12.6403 Y-10.9562 
G01 X12.6403 Y-10.9806 
G01 X12.6429 Y-11.0049 
G01 X12.6403 Y-11.0211 
G01 X12.6403 Y-11.0374 
G01 X12.6340 Y-11.0610 
G01 X12.6302 Y-11.0851 
G01 X12.6235 Y-11.1000 
G01 X12.6193 Y-11.1158 
G01 X12.6071 Y-11.1369 
G01 X12.5972 Y-11.1592 
G01 X12.5869 Y-11.1719 
G01 X12.5788 Y-11.1860 
G01 X12.5615 Y-11.2033 
G01 X12.5461 Y-11.2223 
G01 X12.5329 Y-11.2319 
G01 X12.5214 Y-11.2434 
G01 X12.5002 Y-11.2556 
G01 X12.4805 Y-11.2700 
G01 X12.4652 Y-11.2758 
G01 X12.4511 Y-11.2840 
G01 X12.4275 Y-11.2903 
G01 X12.4047 Y-11.2991 
G01 X12.3885 Y-11.3008 
G01 X12.3727 Y-11.3050 
G01 X12.3483 Y-11.3050 
G01 X12.3240 Y-11.3076 
G01 X12.3079 Y-11.3050 
G01 X11.7875 Y-11.3050 
G01 X11.2748 Y-11.5174 
G01 X10.8824 Y-11.9098 
G01 X10.6700 Y-12.4225 
G01 X10.6700 Y-12.9775 
G01 X10.8824 Y-13.4902 
G01 X11.2748 Y-13.8826 
G01 X11.7875 Y-14.0950 
G01 X12.3425 Y-14.0950 
G01 X12.8552 Y-13.8826 
G01 X13.1458 Y-13.5921 
G01 X13.2160 Y-13.5515 
G01 X13.2944 Y-13.5305 
G01 X13.3756 Y-13.5305 
G01 X13.3789 Y-13.5314 
G01 X13.4540 Y-13.5515 
G01 X13.5227 Y-13.5912 
G01 X13.5816 Y-13.6494 
G01 X13.8148 Y-13.8826 
G01 X14.3275 Y-14.0950 
G01 X14.8825 Y-14.0950 
G01 X15.3952 Y-13.8826 
G01 X15.6284 Y-13.6494 
G01 X15.6801 Y-13.5977 
G01 X15.6858 Y-13.5921 
G01 X15.7560 Y-13.5515 
G01 X15.8344 Y-13.5305 
G01 X15.9156 Y-13.5305 
G01 X15.9906 Y-13.5506 
G01 X15.9940 Y-13.5515 
G01 X16.0642 Y-13.5921 
G01 X16.1216 Y-13.6494 
G01 X16.1852 Y-13.7130 
G01 X16.2258 Y-13.7833 
G01 X16.2468 Y-13.8617 
G01 X16.2468 Y-14.1459 
G01 X16.2258 Y-14.2243 
G01 X16.1852 Y-14.2945 
G01 X16.1278 Y-14.3519 
G01 X15.5763 Y-14.9034 
G01 X15.5061 Y-14.9440 
G01 X15.4277 Y-14.9650 
G01 X14.9818 Y-14.9650 
G01 X14.7263 Y-15.0708 
G01 X14.5308 Y-15.2663 
G01 X14.4250 Y-15.5218 
G01 X14.4250 Y-17.4982 
G01 X14.5308 Y-17.7537 
G01 X14.7263 Y-17.9492 
G01 X14.9818 Y-18.0550 
G01 X17.0582 Y-18.0550 
G01 X17.3137 Y-17.9492 
G01 X17.5092 Y-17.7537 
G01 X17.6150 Y-17.4982 
G01 X17.6150 Y-15.4923 
G01 X17.6360 Y-15.4139 
G01 X17.6766 Y-15.3437 
G01 X17.7340 Y-15.2863 
G01 X17.9145 Y-15.1058 
G01 X17.9696 Y-15.0507 
G01 X18.0421 Y-15.0078 
G01 X18.1205 Y-14.9868 
G01 X18.2017 Y-14.9868 
G01 X18.2801 Y-15.0078 
G01 X18.3503 Y-15.0484 
G01 X18.4068 Y-15.1049 
G01 X18.4483 Y-15.1760 
G01 X18.4693 Y-15.2544 
G01 X18.4693 Y-18.7754 
G01 X18.4720 Y-18.7956 
G01 X18.4693 Y-18.8158 
G01 X18.4693 Y-18.8362 
G01 X18.4640 Y-18.8559 
G01 X18.4614 Y-18.8761 
G01 X18.4536 Y-18.8949 
G01 X18.4483 Y-18.9146 
G01 X18.4381 Y-18.9322 
G01 X18.4303 Y-18.9510 
G01 X18.4179 Y-18.9672 
G01 X18.4077 Y-18.9848 
G01 X18.3933 Y-18.9992 
G01 X18.3809 Y-19.0154 
G01 X18.3647 Y-19.0278 
G01 X18.3503 Y-19.0422 
G01 X18.3327 Y-19.0524 
G01 X18.3165 Y-19.0648 
G01 X18.2977 Y-19.0726 
G01 X18.2801 Y-19.0828 
G01 X18.2604 Y-19.0881 
G01 X18.2416 Y-19.0959 
G01 X18.2213 Y-19.0985 
G01 X18.2017 Y-19.1038 
G01 X18.1813 Y-19.1038 
G01 X18.1611 Y-19.1065 
G01 X18.1409 Y-19.1038 
G01 X18.1205 Y-19.1038 
G01 X18.1008 Y-19.0985 
G01 X18.0806 Y-19.0959 
G01 X18.0618 Y-19.0881 
G01 X18.0421 Y-19.0828 
G01 X18.0245 Y-19.0726 
G01 X17.5474 Y-18.8750 
G01 X15.4726 Y-18.8750 
G01 X14.9415 Y-19.0950 
G01 X14.5350 Y-19.5015 
G01 X14.3150 Y-20.0326 
G01 X14.3150 Y-20.6074 
G01 X14.5350 Y-21.1385 
G01 X14.9415 Y-21.5450 
G01 X14.9603 Y-21.5528 
G01 X14.9800 Y-21.5581 
G01 X14.9976 Y-21.5683 
G01 X15.0164 Y-21.5761 
G01 X15.0326 Y-21.5885 
G01 X15.0503 Y-21.5987 
G01 X15.0647 Y-21.6131 
G01 X15.0808 Y-21.6255 
G01 X15.0932 Y-21.6416 
G01 X15.1076 Y-21.6560 
G01 X15.1178 Y-21.6737 
G01 X15.1302 Y-21.6898 
G01 X15.1380 Y-21.7087 
G01 X15.1482 Y-21.7263 
G01 X15.1535 Y-21.7460 
G01 X15.1613 Y-21.7648 
G01 X15.1639 Y-21.7850 
G01 X15.1692 Y-21.8047 
G01 X15.1692 Y-21.8251 
G01 X15.1719 Y-21.8453 
G01 X15.1692 Y-21.8655 
G01 X15.1692 Y-21.8858 
G01 X15.1639 Y-21.9055 
G01 X15.1613 Y-21.9257 
G01 X15.1535 Y-21.9445 
G01 X15.1482 Y-21.9642 
G01 X15.1380 Y-21.9819 
G01 X15.1302 Y-22.0007 
G01 X15.1178 Y-22.0169 
G01 X15.1076 Y-22.0345 
G01 X15.0932 Y-22.0489 
G01 X15.0808 Y-22.0651 
G01 X15.0647 Y-22.0775 
G01 X14.9629 Y-22.1792 
G01 X14.8662 Y-22.3123 
G01 X14.7916 Y-22.4589 
G01 X14.7684 Y-22.5300 
G01 X14.9712 Y-22.5300 
G01 X15.0023 Y-22.4550 
G01 X15.0959 Y-22.3150 
G01 X15.2150 Y-22.1959 
G01 X15.3550 Y-22.1023 
G01 X15.5106 Y-22.0379 
G01 X15.6758 Y-22.0050 
G01 X17.3442 Y-22.0050 
G01 X17.5094 Y-22.0379 
G01 X17.6650 Y-22.1023 
G01 X17.8050 Y-22.1959 
G01 X17.9241 Y-22.3150 
G01 X18.0177 Y-22.4550 
G01 X18.0821 Y-22.6106 
G01 X18.1150 Y-22.7758 
G01 X18.1150 Y-22.9442 
G01 X18.0821 Y-23.1094 
G01 X18.0177 Y-23.2650 
G01 X17.9241 Y-23.4050 
G01 X17.8050 Y-23.5241 
G01 X17.6650 Y-23.6177 
G01 X17.5094 Y-23.6821 
G01 X17.3442 Y-23.7150 
G01 X15.6758 Y-23.7150 
G01 X15.5106 Y-23.6821 
G01 X15.3550 Y-23.6177 
G01 X15.2150 Y-23.5241 
G01 X15.0959 Y-23.4050 
G01 X15.0023 Y-23.2650 
G01 X14.9712 Y-23.1900 
G01 X14.7684 Y-23.1900 
G01 X14.7916 Y-23.2611 
G01 X14.8662 Y-23.4077 
G01 X14.9629 Y-23.5408 
G01 X15.0647 Y-23.6425 
G01 X15.0808 Y-23.6549 
G01 X15.0932 Y-23.6711 
G01 X15.1076 Y-23.6855 
G01 X15.1178 Y-23.7031 
G01 X15.1302 Y-23.7193 
G01 X15.1380 Y-23.7381 
G01 X15.1482 Y-23.7558 
G01 X15.1535 Y-23.7754 
G01 X15.1613 Y-23.7943 
G01 X15.1639 Y-23.8145 
G01 X15.1692 Y-23.8341 
G01 X15.1692 Y-23.8545 
G01 X15.1719 Y-23.8747 
G01 X15.1692 Y-23.8949 
G01 X15.1692 Y-23.9153 
G01 X15.1639 Y-23.9350 
G01 X15.1613 Y-23.9552 
G01 X15.1535 Y-23.9740 
G01 X15.1482 Y-23.9937 
G01 X15.1380 Y-24.0113 
G01 X15.1302 Y-24.0302 
G01 X15.1178 Y-24.0463 
G01 X15.1076 Y-24.0640 
G01 X15.0932 Y-24.0784 
G01 X15.0808 Y-24.0945 
G01 X15.0647 Y-24.1069 
G01 X15.0503 Y-24.1213 
G01 X15.0326 Y-24.1315 
G01 X15.0164 Y-24.1439 
G01 X14.9976 Y-24.1517 
G01 X14.9800 Y-24.1619 
G01 X14.9603 Y-24.1672 
G01 X14.9415 Y-24.1750 
G01 X14.5350 Y-24.5815 
G01 X14.3150 Y-25.1126 
G01 X14.3150 Y-25.6874 
G01 X14.5350 Y-26.2185 
G01 X14.7972 Y-26.4808 
G01 X14.8378 Y-26.5510 
G01 X14.8588 Y-26.6294 
G01 X14.8588 Y-26.7106 
G01 X14.8378 Y-26.7890 
G01 X14.7981 Y-26.8577 
G01 X14.7398 Y-26.9166 
G01 X14.5350 Y-27.1215 
G01 X14.3871 Y-27.4786 
G01 X14.3818 Y-27.4982 
G01 X14.3716 Y-27.5159 
G01 X14.3638 Y-27.5347 
G01 X14.3514 Y-27.5509 
G01 X14.3412 Y-27.5685 
G01 X14.3268 Y-27.5829 
G01 X14.3144 Y-27.5991 
G01 X14.2982 Y-27.6115 
G01 X13.8049 Y-28.1048 
G01 X13.7347 Y-28.1454 
G01 X13.6563 Y-28.1664 
G01 X13.5751 Y-28.1664 
G01 X13.4967 Y-28.1454 
G01 X13.4265 Y-28.1048 
G01 X13.3691 Y-28.0474 
G01 X13.3285 Y-27.9772 
G01 X13.3075 Y-27.8988 
G01 X13.3075 Y-27.6350 
G01 X13.1175 Y-27.6350 
G01 X13.1175 Y-28.1259 
G01 X13.1015 Y-28.1645 
G01 X13.0720 Y-28.1940 
G01 X13.0334 Y-28.2100 
G01 X12.8925 Y-28.2100 
G01 X12.8925 Y-28.4255 
G01 X12.9549 Y-28.4616 
G01 X13.0123 Y-28.5190 
G01 X13.0529 Y-28.5892 
G01 X13.0739 Y-28.6676 
G01 X13.0739 Y-28.7488 
G01 X13.0529 Y-28.8272 
G01 X13.0123 Y-28.8974 
G01 X12.9549 Y-28.9548 
G01 X11.1195 Y-30.7902 
G01 X11.0493 Y-30.8308 
G01 X10.9709 Y-30.8518 
G01 X8.7858 Y-30.8518 
G01 X8.7074 Y-30.8308 
G01 X8.6372 Y-30.7902 
G01 X8.5798 Y-30.7328 
G01 X8.5392 Y-30.6626 
G01 X8.5182 Y-30.5842 
G01 X8.5182 Y-29.0511 
G01 X8.5155 Y-29.0309 
G01 X8.5182 Y-29.0107 
G01 X8.5182 Y-28.9903 
G01 X8.5235 Y-28.9707 
G01 X8.5261 Y-28.9505 
G01 X8.5339 Y-28.9316 
G01 X8.5392 Y-28.9120 
G01 X8.5494 Y-28.8943 
G01 X8.5572 Y-28.8755 
G01 X8.5696 Y-28.8593 
G01 X8.5798 Y-28.8417 
G01 X8.5942 Y-28.8273 
G01 X8.6066 Y-28.8111 
G01 X8.6227 Y-28.7987 
G01 X8.6372 Y-28.7843 
G01 X8.6548 Y-28.7741 
G01 X8.6710 Y-28.7617 
G01 X8.6898 Y-28.7539 
G01 X8.7074 Y-28.7437 
G01 X8.7271 Y-28.7385 
G01 X8.7459 Y-28.7307 
G01 X8.7661 Y-28.7280 
G01 X8.7858 Y-28.7227 
G01 X8.8062 Y-28.7227 
G01 X8.8264 Y-28.7201 
G01 X8.8466 Y-28.7227 
G01 X8.8670 Y-28.7227 
G01 X8.8867 Y-28.7280 
G01 X8.9069 Y-28.7307 
G01 X8.9257 Y-28.7385 
G01 X8.9454 Y-28.7437 
G01 X8.9630 Y-28.7539 
G01 X9.0743 Y-28.8000 
G01 X10.2507 Y-28.8000 
G01 X10.5062 Y-28.6942 
G01 X10.7017 Y-28.4987 
G01 X10.8075 Y-28.2432 
G01 X10.8075 Y-26.3668 
G01 X10.7017 Y-26.1113 
G01 X10.5062 Y-25.9158 
G01 X10.2507 Y-25.8100 
G01 X9.0743 Y-25.8100 
G01 X8.8188 Y-25.9158 
G01 X8.6717 Y-26.0629 
G01 X8.6429 Y-26.0795 
G01 X8.6015 Y-26.1035 
G01 X8.5231 Y-26.1245 
G01 X8.4419 Y-26.1245 
G01 X8.3635 Y-26.1035 
G01 X8.3239 Y-26.0805 
G01 X8.2933 Y-26.0629 
G01 X8.2359 Y-26.0055 
G01 X8.1041 Y-25.8737 
G01 X8.0864 Y-25.8431 
G01 X8.0635 Y-25.8034 
G01 X8.0425 Y-25.7250 
G01 X8.0425 Y-25.7082 
G01 X7.8525 Y-25.7082 
G01 X7.8525 Y-25.8209 
G01 X7.8365 Y-25.8595 
G01 X7.8070 Y-25.8890 
G01 X7.7684 Y-25.9050 
G01 X5.6007 Y-25.9050 
G01 X5.5495 Y-26.0287 
G01 X5.4505 Y-26.1769 
G01 X5.3244 Y-26.3030 
G01 X5.1762 Y-26.4020 
G01 X5.0115 Y-26.4702 
G01 X4.8366 Y-26.5050 
G01 X4.8089 Y-26.5050 
G01 X4.8089 Y-26.6950 
G01 X4.8337 Y-26.6950 
G01 X5.0039 Y-26.6680 
G01 X5.1678 Y-26.6148 
G01 X5.3214 Y-26.5365 
G01 X5.3435 Y-26.5205 
G01 X5.3551 Y-26.5089 
G01 X5.3762 Y-26.4967 
G01 X5.3960 Y-26.4824 
G01 X5.4112 Y-26.4765 
G01 X5.4253 Y-26.4683 
G01 X5.4489 Y-26.4620 
G01 X5.4717 Y-26.4533 
G01 X5.4880 Y-26.4516 
G01 X5.5037 Y-26.4473 
G01 X5.5281 Y-26.4473 
G01 X5.5524 Y-26.4448 
G01 X5.5685 Y-26.4473 
G01 X5.5849 Y-26.4473 
G01 X5.6085 Y-26.4537 
G01 X5.6326 Y-26.4575 
G01 X5.6475 Y-26.4641 
G01 X5.6633 Y-26.4683 
G01 X5.6844 Y-26.4805 
G01 X5.7067 Y-26.4905 
G01 X5.7194 Y-26.5008 
G01 X5.7335 Y-26.5089 
G01 X5.7508 Y-26.5262 
G01 X5.7698 Y-26.5415 
G01 X5.7794 Y-26.5548 
G01 X5.7909 Y-26.5663 
G01 X5.8031 Y-26.5874 
G01 X5.8175 Y-26.6072 
G01 X5.8233 Y-26.6224 
G01 X5.8315 Y-26.6366 
G01 X5.8378 Y-26.6602 
G01 X5.8466 Y-26.6830 
G01 X5.8483 Y-26.6992 
G01 X5.8525 Y-26.7150 
G01 X5.8525 Y-26.7394 
G01 X5.8551 Y-26.7637 
G01 X5.8525 Y-26.7798 
G01 X5.8525 Y-27.4382 
G01 X5.9583 Y-27.6937 
G01 X6.1538 Y-27.8892 
G01 X6.4093 Y-27.9950 
G01 X6.4542 Y-27.9950 
G01 X6.5326 Y-28.0160 
G01 X6.6028 Y-28.0566 
G01 X6.6602 Y-28.1140 
G01 X6.7008 Y-28.1842 
G01 X6.7218 Y-28.2626 
G01 X6.7218 Y-30.5842 
G01 X6.7008 Y-30.6626 
G01 X6.6602 Y-30.7328 
G01 X6.6028 Y-30.7902 
G01 X6.5326 Y-30.8308 
G01 X6.4542 Y-30.8518 
G01 X4.9013 Y-30.8518 
G01 X4.5712 Y-30.9885 
G01 X4.3039 Y-31.2559 
G01 X4.2465 Y-31.3133 
G01 X3.3159 Y-32.2439 
G01 X3.0485 Y-32.5112 
G01 X2.9118 Y-32.8413 
G01 X2.9118 Y-42.9806 
G01 X2.9118 Y-45.4223 
G00 Z0.8000 
G00 X20.3074 Y-10.1723 
G01 Z-0.0800 F100.00 
G01 X20.2372 Y-10.2129 F240.00 
G01 X20.1588 Y-10.2339 
G01 X20.0776 Y-10.2339 
G01 X19.9992 Y-10.2129 
G01 X19.9290 Y-10.1723 
G01 X19.8716 Y-10.1149 
G01 X19.8310 Y-10.0447 
G01 X19.8100 Y-9.9663 
G01 X19.8100 Y-9.8825 
G01 X19.5976 Y-9.3698 
G01 X19.3008 Y-9.0730 
G01 X19.2435 Y-9.0156 
G01 X19.2029 Y-8.9454 
G01 X19.1819 Y-8.8670 
G01 X19.1819 Y-8.7858 
G01 X19.2029 Y-8.7074 
G01 X19.2435 Y-8.6372 
G01 X19.3008 Y-8.5798 
G01 X19.3711 Y-8.5392 
G01 X19.4495 Y-8.5182 
G01 X21.2581 Y-8.5182 
G01 X21.3365 Y-8.5392 
G01 X21.4067 Y-8.5798 
G01 X21.4641 Y-8.6372 
G01 X21.5047 Y-8.7074 
G01 X21.5257 Y-8.7858 
G01 X21.5257 Y-8.8670 
G01 X21.5047 Y-8.9454 
G01 X21.4641 Y-9.0156 
G01 X21.4067 Y-9.0730 
G01 X20.3074 Y-10.1723 
G00 Z0.8000 
G00 X8.7008 Y-37.2280 
G01 Z-0.0800 F100.00 
G01 X8.7008 Y-37.2280 F240.00 
G01 X8.6434 Y-37.1706 
G01 X8.5494 Y-37.0766 
G01 X8.4920 Y-37.0192 
G01 X8.4764 Y-36.9922 
G01 X8.4514 Y-36.9490 
G01 X8.4304 Y-36.8706 
G01 X8.4304 Y-36.7894 
G01 X8.4514 Y-36.7110 
G01 X8.4733 Y-36.6731 
G01 X8.4920 Y-36.6408 
G01 X8.6434 Y-36.4894 
G01 X8.6975 Y-36.4352 
G01 X8.7008 Y-36.4320 
G01 X8.7296 Y-36.4153 
G01 X8.7710 Y-36.3914 
G01 X8.8494 Y-36.3704 
G01 X8.9306 Y-36.3704 
G01 X9.0090 Y-36.3914 
G01 X9.0486 Y-36.4143 
G01 X9.0792 Y-36.4320 
G01 X9.1366 Y-36.4894 
G01 X9.2880 Y-36.6408 
G01 X9.3047 Y-36.6696 
G01 X9.3286 Y-36.7110 
G01 X9.3496 Y-36.7894 
G01 X9.3496 Y-36.8706 
G01 X9.3286 Y-36.9490 
G01 X9.3057 Y-36.9886 
G01 X9.2880 Y-37.0192 
G01 X9.2306 Y-37.0766 
G01 X9.0792 Y-37.2280 
G01 X9.0486 Y-37.2457 
G01 X9.0090 Y-37.2686 
G01 X8.9306 Y-37.2896 
G01 X8.8494 Y-37.2896 
G01 X8.7710 Y-37.2686 
G01 X8.7296 Y-37.2446 
G01 X8.7008 Y-37.2280 
G00 Z0.8000 
G00 X14.7972 Y-34.1008 
G01 Z-0.0800 F100.00 
G01 X14.8378 Y-34.1710 F240.00 
G01 X14.8588 Y-34.2494 
G01 X14.8588 Y-34.3306 
G01 X14.8378 Y-34.4090 
G01 X14.7972 Y-34.4792 
G01 X14.7398 Y-34.5366 
G01 X14.6762 Y-34.6002 
G01 X14.6060 Y-34.6408 
G01 X14.5276 Y-34.6618 
G01 X14.4291 Y-34.6618 
G01 X14.3507 Y-34.6408 
G01 X14.2805 Y-34.6002 
G01 X14.2231 Y-34.5428 
G01 X13.2088 Y-33.5285 
G01 X12.8787 Y-33.3918 
G01 X8.7113 Y-33.3918 
G01 X8.3812 Y-33.5285 
G01 X8.0565 Y-33.8532 
G01 X7.7921 Y-34.1176 
G01 X7.7219 Y-34.1582 
G01 X7.6435 Y-34.1792 
G01 X7.0481 Y-34.1792 
G01 X6.2392 Y-34.9881 
G01 X6.2392 Y-36.1319 
G01 X6.7480 Y-36.6408 
G01 X6.7886 Y-36.7110 
G01 X6.8096 Y-36.7894 
G01 X6.8096 Y-36.8706 
G01 X6.7886 Y-36.9490 
G01 X6.7480 Y-37.0192 
G01 X6.6906 Y-37.0766 
G01 X6.2392 Y-37.5281 
G01 X6.2392 Y-38.6719 
G01 X6.7480 Y-39.1808 
G01 X6.7886 Y-39.2510 
G01 X6.8096 Y-39.3294 
G01 X6.8096 Y-39.4106 
G01 X6.7886 Y-39.4890 
G01 X6.7480 Y-39.5592 
G01 X6.6906 Y-39.6166 
G01 X6.2392 Y-40.0681 
G01 X6.2392 Y-41.2119 
G01 X6.6906 Y-41.6634 
G01 X6.7471 Y-41.7199 
G01 X6.7818 Y-41.7793 
G01 X6.7886 Y-41.7910 
G01 X6.7981 Y-41.8265 
G01 X6.8096 Y-41.8694 
G01 X6.8096 Y-41.9506 
G01 X6.7986 Y-41.9917 
G01 X6.7886 Y-42.0290 
G01 X6.7480 Y-42.0992 
G01 X6.6270 Y-42.2202 
G01 X6.5667 Y-42.2550 
G01 X6.5568 Y-42.2608 
G01 X6.5195 Y-42.2708 
G01 X6.4784 Y-42.2818 
G01 X4.9758 Y-42.2818 
G01 X4.8974 Y-42.2608 
G01 X4.8272 Y-42.2202 
G01 X4.7698 Y-42.1628 
G01 X4.7292 Y-42.0926 
G01 X4.7082 Y-42.0142 
G01 X4.7082 Y-33.4791 
G01 X4.7292 Y-33.4007 
G01 X4.7698 Y-33.3305 
G01 X4.8272 Y-33.2731 
G01 X5.3905 Y-32.7098 
G01 X5.4607 Y-32.6692 
G01 X5.5391 Y-32.6482 
G01 X11.6087 Y-32.6482 
G01 X11.9388 Y-32.5115 
G01 X12.2061 Y-32.2441 
G01 X12.2635 Y-32.1867 
G01 X13.7894 Y-30.6608 
G01 X13.8018 Y-30.6447 
G01 X13.8180 Y-30.6323 
G01 X13.8324 Y-30.6179 
G01 X13.8500 Y-30.6077 
G01 X13.8662 Y-30.5953 
G01 X13.8850 Y-30.5875 
G01 X13.9027 Y-30.5773 
G01 X13.9223 Y-30.5720 
G01 X13.9412 Y-30.5642 
G01 X13.9614 Y-30.5616 
G01 X13.9810 Y-30.5563 
G01 X14.0014 Y-30.5563 
G01 X14.0216 Y-30.5536 
G01 X14.0418 Y-30.5563 
G01 X14.0622 Y-30.5563 
G01 X14.0819 Y-30.5616 
G01 X14.1021 Y-30.5642 
G01 X14.1209 Y-30.5720 
G01 X14.1406 Y-30.5773 
G01 X14.1582 Y-30.5875 
G01 X14.1770 Y-30.5953 
G01 X14.1932 Y-30.6077 
G01 X14.2109 Y-30.6179 
G01 X14.2253 Y-30.6323 
G01 X14.2414 Y-30.6447 
G01 X14.2538 Y-30.6608 
G01 X14.2682 Y-30.6752 
G01 X14.2784 Y-30.6929 
G01 X14.2908 Y-30.7091 
G01 X14.2986 Y-30.7279 
G01 X14.3088 Y-30.7455 
G01 X14.3141 Y-30.7652 
G01 X14.5350 Y-31.2985 
G01 X14.7972 Y-31.5608 
G01 X14.8378 Y-31.6310 
G01 X14.8588 Y-31.7094 
G01 X14.8588 Y-31.7906 
G01 X14.8378 Y-31.8690 
G01 X14.7981 Y-31.9377 
G01 X14.7398 Y-31.9966 
G01 X14.5350 Y-32.2015 
G01 X14.3150 Y-32.7326 
G01 X14.3150 Y-33.3074 
G01 X14.5350 Y-33.8385 
G01 X14.7972 Y-34.1008 
G00 Z0.8000 
G00 X26.5000 Y-10.3991 
G01 Z-0.0800 F100.00 
G01 X26.5000 Y-11.9409 F240.00 
G01 X26.4840 Y-11.9795 
G01 X26.4545 Y-12.0090 
G01 X26.4159 Y-12.0250 
G01 X25.6541 Y-12.0250 
G01 X25.6155 Y-12.0090 
G01 X25.5860 Y-11.9795 
G01 X25.5700 Y-11.9409 
G01 X25.5700 Y-10.3991 
G01 X25.5860 Y-10.3605 
G01 X25.6155 Y-10.3310 
G01 X25.6541 Y-10.3150 
G01 X25.7268 Y-10.3150 
G01 X25.7268 Y-9.3352 
G01 X24.3198 Y-7.9282 
G01 X18.5427 Y-7.9282 
G01 X16.6188 Y-9.8521 
G01 X16.6491 Y-9.9252 
G01 X16.6800 Y-10.0807 
G01 X16.6800 Y-10.2393 
G01 X16.6491 Y-10.3948 
G01 X16.5884 Y-10.5413 
G01 X16.5003 Y-10.6732 
G01 X16.3882 Y-10.7853 
G01 X16.2563 Y-10.8734 
G01 X16.1098 Y-10.9341 
G01 X15.9543 Y-10.9650 
G01 X15.7957 Y-10.9650 
G01 X15.6402 Y-10.9341 
G01 X15.4937 Y-10.8734 
G01 X15.3618 Y-10.7853 
G01 X15.2497 Y-10.6732 
G01 X15.1616 Y-10.5413 
G01 X15.1009 Y-10.3948 
G01 X15.0700 Y-10.2393 
G01 X15.0700 Y-10.0807 
G01 X15.1009 Y-9.9252 
G01 X15.1616 Y-9.7787 
G01 X15.2497 Y-9.6468 
G01 X15.3618 Y-9.5347 
G01 X15.4937 Y-9.4466 
G01 X15.6402 Y-9.3859 
G01 X15.7957 Y-9.3550 
G01 X15.9543 Y-9.3550 
G01 X16.1098 Y-9.3859 
G01 X16.1829 Y-9.4162 
G01 X18.1684 Y-7.4308 
G01 X18.2258 Y-7.3734 
G01 X18.2960 Y-7.3328 
G01 X18.3744 Y-7.3118 
G01 X24.4881 Y-7.3118 
G01 X24.5665 Y-7.3328 
G01 X24.6367 Y-7.3734 
G01 X24.6941 Y-7.4308 
G01 X26.2816 Y-9.0183 
G01 X26.3222 Y-9.0885 
G01 X26.3432 Y-9.1669 
G01 X26.3432 Y-10.3150 
G01 X26.4159 Y-10.3150 
G01 X26.4545 Y-10.3310 
G01 X26.4840 Y-10.3605 
G01 X26.5000 Y-10.3991 
G00 Z0.8000 
G00 X25.2300 Y-10.3991 
G01 Z-0.0800 F100.00 
G01 X25.2300 Y-11.9409 F240.00 
G01 X25.2140 Y-11.9795 
G01 X25.1845 Y-12.0090 
G01 X25.1459 Y-12.0250 
G01 X24.3841 Y-12.0250 
G01 X24.3455 Y-12.0090 
G01 X24.3160 Y-11.9795 
G01 X24.3000 Y-11.9409 
G01 X24.3000 Y-10.3991 
G01 X24.3160 Y-10.3605 
G01 X24.3455 Y-10.3310 
G01 X24.3841 Y-10.3150 
G01 X24.4568 Y-10.3150 
G01 X24.4568 Y-9.6527 
G01 X24.0023 Y-9.1982 
G01 X22.9877 Y-9.1982 
G01 X20.5092 Y-11.6766 
G01 X20.4390 Y-11.7172 
G01 X20.3606 Y-11.7382 
G01 X16.3202 Y-11.7382 
G01 X15.4100 Y-12.6484 
G01 X15.4100 Y-12.7793 
G01 X15.3791 Y-12.9348 
G01 X15.3184 Y-13.0813 
G01 X15.2303 Y-13.2132 
G01 X15.1182 Y-13.3253 
G01 X14.9863 Y-13.4134 
G01 X14.8398 Y-13.4741 
G01 X14.6843 Y-13.5050 
G01 X14.5257 Y-13.5050 
G01 X14.3702 Y-13.4741 
G01 X14.2237 Y-13.4134 
G01 X14.0918 Y-13.3253 
G01 X13.9797 Y-13.2132 
G01 X13.8916 Y-13.0813 
G01 X13.8309 Y-12.9348 
G01 X13.8000 Y-12.7793 
G01 X13.8000 Y-12.6207 
G01 X13.8309 Y-12.4652 
G01 X13.8916 Y-12.3187 
G01 X13.9797 Y-12.1868 
G01 X14.0918 Y-12.0747 
G01 X14.2237 Y-11.9866 
G01 X14.3702 Y-11.9259 
G01 X14.5257 Y-11.8950 
G01 X14.6843 Y-11.8950 
G01 X14.8398 Y-11.9259 
G01 X14.9863 Y-11.9866 
G01 X15.1144 Y-12.0722 
G01 X15.9459 Y-11.2408 
G01 X16.0033 Y-11.1834 
G01 X16.0735 Y-11.1428 
G01 X16.1519 Y-11.1218 
G01 X20.1923 Y-11.1218 
G01 X22.6708 Y-8.6434 
G01 X22.7410 Y-8.6028 
G01 X22.8194 Y-8.5818 
G01 X24.1706 Y-8.5818 
G01 X24.2490 Y-8.6028 
G01 X24.3192 Y-8.6434 
G01 X24.9542 Y-9.2784 
G01 X25.0116 Y-9.3358 
G01 X25.0522 Y-9.4060 
G01 X25.0732 Y-9.4844 
G01 X25.0732 Y-10.3150 
G01 X25.1459 Y-10.3150 
G01 X25.1845 Y-10.3310 
G01 X25.2140 Y-10.3605 
G01 X25.2300 Y-10.3991 
G00 Z0.8000 
G00 X17.3442 Y-21.1750 
G01 Z-0.0800 F100.00 
G01 X15.6758 Y-21.1750 F240.00 
G01 X15.5106 Y-21.1421 
G01 X15.3550 Y-21.0777 
G01 X15.2150 Y-20.9841 
G01 X15.0959 Y-20.8650 
G01 X15.0023 Y-20.7250 
G01 X14.9379 Y-20.5694 
G01 X14.9050 Y-20.4042 
G01 X14.9050 Y-20.2358 
G01 X14.9379 Y-20.0706 
G01 X15.0023 Y-19.9150 
G01 X15.0959 Y-19.7750 
G01 X15.2150 Y-19.6559 
G01 X15.3550 Y-19.5623 
G01 X15.5106 Y-19.4979 
G01 X15.6758 Y-19.4650 
G01 X17.3442 Y-19.4650 
G01 X17.5094 Y-19.4979 
G01 X17.6650 Y-19.5623 
G01 X17.8050 Y-19.6559 
G01 X17.9241 Y-19.7750 
G01 X18.0177 Y-19.9150 
G01 X18.0821 Y-20.0706 
G01 X18.1150 Y-20.2358 
G01 X18.1150 Y-20.4042 
G01 X18.0821 Y-20.5694 
G01 X18.0177 Y-20.7250 
G01 X17.9241 Y-20.8650 
G01 X17.8050 Y-20.9841 
G01 X17.6650 Y-21.0777 
G01 X17.5094 Y-21.1421 
G01 X17.3442 Y-21.1750 
G00 Z0.8000 
G00 X17.3442 Y-26.2550 
G01 Z-0.0800 F100.00 
G01 X15.6758 Y-26.2550 F240.00 
G01 X15.5106 Y-26.2221 
G01 X15.3550 Y-26.1577 
G01 X15.2150 Y-26.0641 
G01 X15.0959 Y-25.9450 
G01 X15.0023 Y-25.8050 
G01 X14.9379 Y-25.6494 
G01 X14.9050 Y-25.4842 
G01 X14.9050 Y-25.3158 
G01 X14.9379 Y-25.1506 
G01 X15.0023 Y-24.9950 
G01 X15.0959 Y-24.8550 
G01 X15.2150 Y-24.7359 
G01 X15.3550 Y-24.6423 
G01 X15.5106 Y-24.5779 
G01 X15.6758 Y-24.5450 
G01 X17.3442 Y-24.5450 
G01 X17.5094 Y-24.5779 
G01 X17.6650 Y-24.6423 
G01 X17.8050 Y-24.7359 
G01 X17.9241 Y-24.8550 
G01 X18.0177 Y-24.9950 
G01 X18.0821 Y-25.1506 
G01 X18.1150 Y-25.3158 
G01 X18.1150 Y-25.4842 
G01 X18.0821 Y-25.6494 
G01 X18.0177 Y-25.8050 
G01 X17.9241 Y-25.9450 
G01 X17.8050 Y-26.0641 
G01 X17.6650 Y-26.1577 
G01 X17.5094 Y-26.2221 
G01 X17.3442 Y-26.2550 
G00 Z0.8000 
G00 X17.3442 Y-31.3350 
G01 Z-0.0800 F100.00 
G01 X15.6758 Y-31.3350 F240.00 
G01 X15.5106 Y-31.3021 
G01 X15.3550 Y-31.2377 
G01 X15.2150 Y-31.1441 
G01 X15.0959 Y-31.0250 
G01 X15.0023 Y-30.8850 
G01 X14.9379 Y-30.7294 
G01 X14.9050 Y-30.5642 
G01 X14.9050 Y-30.3958 
G01 X14.9379 Y-30.2306 
G01 X15.0023 Y-30.0750 
G01 X15.0959 Y-29.9350 
G01 X15.2150 Y-29.8159 
G01 X15.3550 Y-29.7223 
G01 X15.5106 Y-29.6579 
G01 X15.6758 Y-29.6250 
G01 X17.3442 Y-29.6250 
G01 X17.5094 Y-29.6579 
G01 X17.6650 Y-29.7223 
G01 X17.8050 Y-29.8159 
G01 X17.9241 Y-29.9350 
G01 X18.0177 Y-30.0750 
G01 X18.0821 Y-30.2306 
G01 X18.1150 Y-30.3958 
G01 X18.1150 Y-30.5642 
G01 X18.0821 Y-30.7294 
G01 X18.0177 Y-30.8850 
G01 X17.9241 Y-31.0250 
G01 X17.8050 Y-31.1441 
G01 X17.6650 Y-31.2377 
G01 X17.5094 Y-31.3021 
G01 X17.3442 Y-31.3350 
G00 Z0.8000 
G00 X17.3442 Y-33.8750 
G01 Z-0.0800 F100.00 
G01 X15.6758 Y-33.8750 F240.00 
G01 X15.5106 Y-33.8421 
G01 X15.3550 Y-33.7777 
G01 X15.2150 Y-33.6841 
G01 X15.0959 Y-33.5650 
G01 X15.0023 Y-33.4250 
G01 X14.9379 Y-33.2694 
G01 X14.9050 Y-33.1042 
G01 X14.9050 Y-32.9358 
G01 X14.9379 Y-32.7706 
G01 X15.0023 Y-32.6150 
G01 X15.0959 Y-32.4750 
G01 X15.2150 Y-32.3559 
G01 X15.3550 Y-32.2623 
G01 X15.5106 Y-32.1979 
G01 X15.6758 Y-32.1650 
G01 X17.3442 Y-32.1650 
G01 X17.5094 Y-32.1979 
G01 X17.6650 Y-32.2623 
G01 X17.8050 Y-32.3559 
G01 X17.9241 Y-32.4750 
G01 X18.0177 Y-32.6150 
G01 X18.0821 Y-32.7706 
G01 X18.1150 Y-32.9358 
G01 X18.1150 Y-33.1042 
G01 X18.0821 Y-33.2694 
G01 X18.0177 Y-33.4250 
G01 X17.9241 Y-33.5650 
G01 X17.8050 Y-33.6841 
G01 X17.6650 Y-33.7777 
G01 X17.5094 Y-33.8421 
G01 X17.3442 Y-33.8750 
G00 Z0.8000 
G00 X17.3442 Y-49.1150 
G01 Z-0.0800 F100.00 
G01 X15.6758 Y-49.1150 F240.00 
G01 X15.5106 Y-49.0821 
G01 X15.3550 Y-49.0177 
G01 X15.2150 Y-48.9241 
G01 X15.0959 Y-48.8050 
G01 X15.0023 Y-48.6650 
G01 X14.9379 Y-48.5094 
G01 X14.9050 Y-48.3442 
G01 X14.9050 Y-48.1758 
G01 X14.9379 Y-48.0106 
G01 X15.0023 Y-47.8550 
G01 X15.0959 Y-47.7150 
G01 X15.2150 Y-47.5959 
G01 X15.3550 Y-47.5023 
G01 X15.5106 Y-47.4379 
G01 X15.6758 Y-47.4050 
G01 X17.3442 Y-47.4050 
G01 X17.5094 Y-47.4379 
G01 X17.6650 Y-47.5023 
G01 X17.8050 Y-47.5959 
G01 X17.9241 Y-47.7150 
G01 X18.0177 Y-47.8550 
G01 X18.0821 Y-48.0106 
G01 X18.1150 Y-48.1758 
G01 X18.1150 Y-48.3442 
G01 X18.0821 Y-48.5094 
G01 X18.0177 Y-48.6650 
G01 X17.9241 Y-48.8050 
G01 X17.8050 Y-48.9241 
G01 X17.6650 Y-49.0177 
G01 X17.5094 Y-49.0821 
G01 X17.3442 Y-49.1150 
G00 Z0.8000 
G00 X17.3442 Y-51.6550 
G01 Z-0.0800 F100.00 
G01 X15.6758 Y-51.6550 F240.00 
G01 X15.5106 Y-51.6221 
G01 X15.3550 Y-51.5577 
G01 X15.2150 Y-51.4641 
G01 X15.0959 Y-51.3450 
G01 X15.0023 Y-51.2050 
G01 X14.9379 Y-51.0494 
G01 X14.9050 Y-50.8842 
G01 X14.9050 Y-50.7158 
G01 X14.9379 Y-50.5506 
G01 X15.0023 Y-50.3950 
G01 X15.0959 Y-50.2550 
G01 X15.2150 Y-50.1359 
G01 X15.3550 Y-50.0423 
G01 X15.5106 Y-49.9779 
G01 X15.6758 Y-49.9450 
G01 X17.3442 Y-49.9450 
G01 X17.5094 Y-49.9779 
G01 X17.6650 Y-50.0423 
G01 X17.8050 Y-50.1359 
G01 X17.9241 Y-50.2550 
G01 X18.0177 Y-50.3950 
G01 X18.0821 Y-50.5506 
G01 X18.1150 Y-50.7158 
G01 X18.1150 Y-50.8842 
G01 X18.0821 Y-51.0494 
G01 X18.0177 Y-51.2050 
G01 X17.9241 Y-51.3450 
G01 X17.8050 Y-51.4641 
G01 X17.6650 Y-51.5577 
G01 X17.5094 Y-51.6221 
G01 X17.3442 Y-51.6550 
G00 Z0.8000 
G00 X17.3442 Y-54.1950 
G01 Z-0.0800 F100.00 
G01 X15.6758 Y-54.1950 F240.00 
G01 X15.5106 Y-54.1621 
G01 X15.3550 Y-54.0977 
G01 X15.2150 Y-54.0041 
G01 X15.0959 Y-53.8850 
G01 X15.0023 Y-53.7450 
G01 X14.9379 Y-53.5894 
G01 X14.9050 Y-53.4242 
G01 X14.9050 Y-53.2558 
G01 X14.9379 Y-53.0906 
G01 X15.0023 Y-52.9350 
G01 X15.0959 Y-52.7950 
G01 X15.2150 Y-52.6759 
G01 X15.3550 Y-52.5823 
G01 X15.5106 Y-52.5179 
G01 X15.6758 Y-52.4850 
G01 X17.3442 Y-52.4850 
G01 X17.5094 Y-52.5179 
G01 X17.6650 Y-52.5823 
G01 X17.8050 Y-52.6759 
G01 X17.9241 Y-52.7950 
G01 X18.0177 Y-52.9350 
G01 X18.0821 Y-53.0906 
G01 X18.1150 Y-53.2558 
G01 X18.1150 Y-53.4242 
G01 X18.0821 Y-53.5894 
G01 X18.0177 Y-53.7450 
G01 X17.9241 Y-53.8850 
G01 X17.8050 Y-54.0041 
G01 X17.6650 Y-54.0977 
G01 X17.5094 Y-54.1621 
G01 X17.3442 Y-54.1950 
G00 Z0.8000 
G00 X17.3442 Y-56.7350 
G01 Z-0.0800 F100.00 
G01 X15.6758 Y-56.7350 F240.00 
G01 X15.5106 Y-56.7021 
G01 X15.3550 Y-56.6377 
G01 X15.2150 Y-56.5441 
G01 X15.0959 Y-56.4250 
G01 X15.0023 Y-56.2850 
G01 X14.9379 Y-56.1294 
G01 X14.9050 Y-55.9642 
G01 X14.9050 Y-55.7958 
G01 X14.9379 Y-55.6306 
G01 X15.0023 Y-55.4750 
G01 X15.0959 Y-55.3350 
G01 X15.2150 Y-55.2159 
G01 X15.3550 Y-55.1223 
G01 X15.5106 Y-55.0579 
G01 X15.6758 Y-55.0250 
G01 X17.3442 Y-55.0250 
G01 X17.5094 Y-55.0579 
G01 X17.6650 Y-55.1223 
G01 X17.8050 Y-55.2159 
G01 X17.9241 Y-55.3350 
G01 X18.0177 Y-55.4750 
G01 X18.0821 Y-55.6306 
G01 X18.1150 Y-55.7958 
G01 X18.1150 Y-55.9642 
G01 X18.0821 Y-56.1294 
G01 X18.0177 Y-56.2850 
G01 X17.9241 Y-56.4250 
G01 X17.8050 Y-56.5441 
G01 X17.6650 Y-56.6377 
G01 X17.5094 Y-56.7021 
G01 X17.3442 Y-56.7350 
G00 Z0.8000 
G00 X17.9500 Y-12.6207 
G01 Z-0.0800 F100.00 
G01 X17.9500 Y-12.7793 F240.00 
G01 X17.9191 Y-12.9348 
G01 X17.8584 Y-13.0813 
G01 X17.7703 Y-13.2132 
G01 X17.6582 Y-13.3253 
G01 X17.5263 Y-13.4134 
G01 X17.4532 Y-13.4437 
G01 X17.4532 Y-14.6456 
G01 X17.4322 Y-14.7240 
G01 X17.3916 Y-14.7942 
G01 X16.6309 Y-15.5550 
G01 X16.9409 Y-15.5550 
G01 X16.9795 Y-15.5710 
G01 X17.0090 Y-15.6005 
G01 X17.0250 Y-15.6391 
G01 X17.0250 Y-17.3809 
G01 X17.0090 Y-17.4195 
G01 X16.9795 Y-17.4490 
G01 X16.9409 Y-17.4650 
G01 X15.0991 Y-17.4650 
G01 X15.0605 Y-17.4490 
G01 X15.0310 Y-17.4195 
G01 X15.0150 Y-17.3809 
G01 X15.0150 Y-15.6391 
G01 X15.0310 Y-15.6005 
G01 X15.0605 Y-15.5710 
G01 X15.0991 Y-15.5550 
G01 X15.7652 Y-15.5550 
G01 X15.7734 Y-15.5408 
G01 X16.8368 Y-14.4773 
G01 X16.8368 Y-13.4437 
G01 X16.7637 Y-13.4134 
G01 X16.6318 Y-13.3253 
G01 X16.5197 Y-13.2132 
G01 X16.4316 Y-13.0813 
G01 X16.3709 Y-12.9348 
G01 X16.3400 Y-12.7793 
G01 X16.3400 Y-12.6207 
G01 X16.3709 Y-12.4652 
G01 X16.4316 Y-12.3187 
G01 X16.5197 Y-12.1868 
G01 X16.6318 Y-12.0747 
G01 X16.7637 Y-11.9866 
G01 X16.9102 Y-11.9259 
G01 X17.0657 Y-11.8950 
G01 X17.2243 Y-11.8950 
G01 X17.3798 Y-11.9259 
G01 X17.5263 Y-11.9866 
G01 X17.6582 Y-12.0747 
G01 X17.7703 Y-12.1868 
G01 X17.8584 Y-12.3187 
G01 X17.9191 Y-12.4652 
G01 X17.9500 Y-12.6207 
G00 Z0.8000 
G00 X12.8700 Y-12.6207 
G01 Z-0.0800 F100.00 
G01 X12.8700 Y-12.7793 F240.00 
G01 X12.8391 Y-12.9348 
G01 X12.7784 Y-13.0813 
G01 X12.6903 Y-13.2132 
G01 X12.5782 Y-13.3253 
G01 X12.4463 Y-13.4134 
G01 X12.2998 Y-13.4741 
G01 X12.1443 Y-13.5050 
G01 X11.9857 Y-13.5050 
G01 X11.8302 Y-13.4741 
G01 X11.6837 Y-13.4134 
G01 X11.5518 Y-13.3253 
G01 X11.4397 Y-13.2132 
G01 X11.3516 Y-13.0813 
G01 X11.2909 Y-12.9348 
G01 X11.2600 Y-12.7793 
G01 X11.2600 Y-12.6207 
G01 X11.2909 Y-12.4652 
G01 X11.3516 Y-12.3187 
G01 X11.4397 Y-12.1868 
G01 X11.5518 Y-12.0747 
G01 X11.6837 Y-11.9866 
G01 X11.8302 Y-11.9259 
G01 X11.9857 Y-11.8950 
G01 X12.1443 Y-11.8950 
G01 X12.2998 Y-11.9259 
G01 X12.4463 Y-11.9866 
G01 X12.5782 Y-12.0747 
G01 X12.6903 Y-12.1868 
G01 X12.7784 Y-12.3187 
G01 X12.8391 Y-12.4652 
G01 X12.8700 Y-12.6207 
G00 Z0.8000 
G00 X19.2200 Y-10.0807 
G01 Z-0.0800 F100.00 
G01 X19.2200 Y-10.2393 F240.00 
G01 X19.1891 Y-10.3948 
G01 X19.1284 Y-10.5413 
G01 X19.0403 Y-10.6732 
G01 X18.9282 Y-10.7853 
G01 X18.7963 Y-10.8734 
G01 X18.6498 Y-10.9341 
G01 X18.4943 Y-10.9650 
G01 X18.3357 Y-10.9650 
G01 X18.1802 Y-10.9341 
G01 X18.0337 Y-10.8734 
G01 X17.9018 Y-10.7853 
G01 X17.7897 Y-10.6732 
G01 X17.7016 Y-10.5413 
G01 X17.6409 Y-10.3948 
G01 X17.6100 Y-10.2393 
G01 X17.6100 Y-10.0807 
G01 X17.6409 Y-9.9252 
G01 X17.7016 Y-9.7787 
G01 X17.7897 Y-9.6468 
G01 X17.9018 Y-9.5347 
G01 X18.0337 Y-9.4466 
G01 X18.1802 Y-9.3859 
G01 X18.3357 Y-9.3550 
G01 X18.4943 Y-9.3550 
G01 X18.6498 Y-9.3859 
G01 X18.7963 Y-9.4466 
G01 X18.9282 Y-9.5347 
G01 X19.0403 Y-9.6468 
G01 X19.1284 Y-9.7787 
G01 X19.1891 Y-9.9252 
G01 X19.2200 Y-10.0807 
G00 Z0.8000 
G00 X8.4108 Y-40.3124 
G01 Z-0.0800 F100.00 
G01 X8.4108 Y-40.9676 F240.00 
G01 X8.3971 Y-40.9812 
G01 X9.0177 Y-41.6018 
G01 X12.1056 Y-41.6018 
G01 X12.1840 Y-41.6228 
G01 X12.2542 Y-41.6634 
G01 X12.3116 Y-41.7208 
G01 X15.4951 Y-44.9043 
G01 X15.5106 Y-44.8979 
G01 X15.6758 Y-44.8650 
G01 X17.3442 Y-44.8650 
G01 X17.5094 Y-44.8979 
G01 X17.6650 Y-44.9623 
G01 X17.8050 Y-45.0559 
G01 X17.9241 Y-45.1750 
G01 X18.0177 Y-45.3150 
G01 X18.0821 Y-45.4706 
G01 X18.1150 Y-45.6358 
G01 X18.1150 Y-45.8042 
G01 X18.0821 Y-45.9694 
G01 X18.0177 Y-46.1250 
G01 X17.9241 Y-46.2650 
G01 X17.8050 Y-46.3841 
G01 X17.6650 Y-46.4777 
G01 X17.5094 Y-46.5421 
G01 X17.3442 Y-46.5750 
G01 X15.6758 Y-46.5750 
G01 X15.5106 Y-46.5421 
G01 X15.3550 Y-46.4777 
G01 X15.2150 Y-46.3841 
G01 X15.0959 Y-46.2650 
G01 X15.0023 Y-46.1250 
G01 X14.9379 Y-45.9694 
G01 X14.9050 Y-45.8042 
G01 X14.9050 Y-45.6358 
G01 X14.9379 Y-45.4706 
G01 X15.0023 Y-45.3150 
G01 X15.0151 Y-45.2959 
G01 X11.9373 Y-42.2182 
G01 X8.8494 Y-42.2182 
G01 X8.7710 Y-42.1972 
G01 X8.7008 Y-42.1566 
G01 X7.9612 Y-41.4171 
G01 X7.9476 Y-41.4308 
G01 X7.2924 Y-41.4308 
G01 X6.8292 Y-40.9676 
G01 X6.8292 Y-40.3124 
G01 X7.2924 Y-39.8492 
G01 X7.9476 Y-39.8492 
G01 X8.4108 Y-40.3124 
G00 Z0.8000 
G00 X10.9508 Y-40.3124 
G01 Z-0.0800 F100.00 
G01 X10.9508 Y-40.3318 F240.00 
G01 X12.7406 Y-40.3318 
G01 X12.8190 Y-40.3528 
G01 X12.8892 Y-40.3934 
G01 X15.1134 Y-42.6175 
G01 X15.2150 Y-42.5159 
G01 X15.3550 Y-42.4223 
G01 X15.5106 Y-42.3579 
G01 X15.6758 Y-42.3250 
G01 X17.3442 Y-42.3250 
G01 X17.5094 Y-42.3579 
G01 X17.6650 Y-42.4223 
G01 X17.8050 Y-42.5159 
G01 X17.9241 Y-42.6350 
G01 X18.0177 Y-42.7750 
G01 X18.0821 Y-42.9306 
G01 X18.1150 Y-43.0958 
G01 X18.1150 Y-43.2642 
G01 X18.0821 Y-43.4294 
G01 X18.0177 Y-43.5850 
G01 X17.9241 Y-43.7250 
G01 X17.8050 Y-43.8441 
G01 X17.6650 Y-43.9377 
G01 X17.5094 Y-44.0021 
G01 X17.3442 Y-44.0350 
G01 X15.6758 Y-44.0350 
G01 X15.5106 Y-44.0021 
G01 X15.3550 Y-43.9377 
G01 X15.2150 Y-43.8441 
G01 X15.0959 Y-43.7250 
G01 X15.0023 Y-43.5850 
G01 X14.9379 Y-43.4294 
G01 X14.9091 Y-43.2850 
G01 X12.5723 Y-40.9482 
G01 X10.9508 Y-40.9482 
G01 X10.9508 Y-40.9676 
G01 X10.4876 Y-41.4308 
G01 X9.8324 Y-41.4308 
G01 X9.3692 Y-40.9676 
G01 X9.3692 Y-40.3124 
G01 X9.8324 Y-39.8492 
G01 X10.4876 Y-39.8492 
G01 X10.9508 Y-40.3124 
G00 Z0.8000 
G00 X8.4108 Y-37.7724 
G01 Z-0.0800 F100.00 
G01 X8.4108 Y-38.4276 F240.00 
G01 X8.3971 Y-38.4412 
G01 X9.0177 Y-39.0618 
G01 X13.3756 Y-39.0618 
G01 X13.4540 Y-39.0828 
G01 X13.5242 Y-39.1234 
G01 X14.7327 Y-40.3318 
G01 X14.9622 Y-40.3318 
G01 X15.0023 Y-40.2350 
G01 X15.0959 Y-40.0950 
G01 X15.2150 Y-39.9759 
G01 X15.3550 Y-39.8823 
G01 X15.5106 Y-39.8179 
G01 X15.6758 Y-39.7850 
G01 X17.3442 Y-39.7850 
G01 X17.5094 Y-39.8179 
G01 X17.6650 Y-39.8823 
G01 X17.8050 Y-39.9759 
G01 X17.9241 Y-40.0950 
G01 X18.0177 Y-40.2350 
G01 X18.0821 Y-40.3906 
G01 X18.1150 Y-40.5558 
G01 X18.1150 Y-40.7242 
G01 X18.0821 Y-40.8894 
G01 X18.0177 Y-41.0450 
G01 X17.9241 Y-41.1850 
G01 X17.8050 Y-41.3041 
G01 X17.6650 Y-41.3977 
G01 X17.5094 Y-41.4621 
G01 X17.3442 Y-41.4950 
G01 X15.6758 Y-41.4950 
G01 X15.5106 Y-41.4621 
G01 X15.3550 Y-41.3977 
G01 X15.2150 Y-41.3041 
G01 X15.0959 Y-41.1850 
G01 X15.0023 Y-41.0450 
G01 X14.9622 Y-40.9482 
G01 X14.5644 Y-40.9482 
G01 X14.4860 Y-40.9272 
G01 X14.4158 Y-40.8866 
G01 X14.3584 Y-40.8292 
G01 X13.2073 Y-39.6782 
G01 X8.8494 Y-39.6782 
G01 X8.7710 Y-39.6572 
G01 X8.7008 Y-39.6166 
G01 X8.6434 Y-39.5592 
G01 X7.9612 Y-38.8771 
G01 X7.9476 Y-38.8908 
G01 X7.2924 Y-38.8908 
G01 X6.8292 Y-38.4276 
G01 X6.8292 Y-37.7724 
G01 X7.2924 Y-37.3092 
G01 X7.9476 Y-37.3092 
G01 X8.4108 Y-37.7724 
G00 Z0.8000 
G00 X10.9508 Y-37.7724 
G01 Z-0.0800 F100.00 
G01 X10.9508 Y-37.7918 F240.00 
G01 X14.9622 Y-37.7918 
G01 X15.0023 Y-37.6950 
G01 X15.0959 Y-37.5550 
G01 X15.2150 Y-37.4359 
G01 X15.3550 Y-37.3423 
G01 X15.5106 Y-37.2779 
G01 X15.6758 Y-37.2450 
G01 X17.3442 Y-37.2450 
G01 X17.5094 Y-37.2779 
G01 X17.6650 Y-37.3423 
G01 X17.8050 Y-37.4359 
G01 X17.9241 Y-37.5550 
G01 X18.0177 Y-37.6950 
G01 X18.0821 Y-37.8506 
G01 X18.1150 Y-38.0158 
G01 X18.1150 Y-38.1842 
G01 X18.0821 Y-38.3494 
G01 X18.0177 Y-38.5050 
G01 X17.9241 Y-38.6450 
G01 X17.8050 Y-38.7641 
G01 X17.6650 Y-38.8577 
G01 X17.5094 Y-38.9221 
G01 X17.3442 Y-38.9550 
G01 X15.6758 Y-38.9550 
G01 X15.5106 Y-38.9221 
G01 X15.3550 Y-38.8577 
G01 X15.2150 Y-38.7641 
G01 X15.0959 Y-38.6450 
G01 X15.0023 Y-38.5050 
G01 X14.9622 Y-38.4082 
G01 X10.9508 Y-38.4082 
G01 X10.9508 Y-38.4276 
G01 X10.4876 Y-38.8908 
G01 X9.8324 Y-38.8908 
G01 X9.3692 Y-38.4276 
G01 X9.3692 Y-37.7724 
G01 X9.8324 Y-37.3092 
G01 X10.4876 Y-37.3092 
G01 X10.9508 Y-37.7724 
G00 Z0.8000 
G00 X8.4108 Y-35.2324 
G01 Z-0.0800 F100.00 
G01 X8.4108 Y-35.8876 F240.00 
G01 X7.9476 Y-36.3508 
G01 X7.2924 Y-36.3508 
G01 X6.8292 Y-35.8876 
G01 X6.8292 Y-35.2324 
G01 X7.2924 Y-34.7692 
G01 X7.9476 Y-34.7692 
G01 X7.9612 Y-34.7829 
G01 X8.6434 Y-34.1008 
G01 X8.7008 Y-34.0434 
G01 X8.7710 Y-34.0028 
G01 X8.8494 Y-33.9818 
G01 X12.7406 Y-33.9818 
G01 X12.8190 Y-34.0028 
G01 X12.8892 Y-34.0434 
G01 X14.0977 Y-35.2518 
G01 X14.9622 Y-35.2518 
G01 X15.0023 Y-35.1550 
G01 X15.0959 Y-35.0150 
G01 X15.2150 Y-34.8959 
G01 X15.3550 Y-34.8023 
G01 X15.5106 Y-34.7379 
G01 X15.6758 Y-34.7050 
G01 X17.3442 Y-34.7050 
G01 X17.5094 Y-34.7379 
G01 X17.6650 Y-34.8023 
G01 X17.8050 Y-34.8959 
G01 X17.9241 Y-35.0150 
G01 X18.0177 Y-35.1550 
G01 X18.0821 Y-35.3106 
G01 X18.1150 Y-35.4758 
G01 X18.1150 Y-35.6442 
G01 X18.0821 Y-35.8094 
G01 X18.0177 Y-35.9650 
G01 X17.9241 Y-36.1050 
G01 X17.8050 Y-36.2241 
G01 X17.6650 Y-36.3177 
G01 X17.5094 Y-36.3821 
G01 X17.3442 Y-36.4150 
G01 X15.6758 Y-36.4150 
G01 X15.5106 Y-36.3821 
G01 X15.3550 Y-36.3177 
G01 X15.2150 Y-36.2241 
G01 X15.0959 Y-36.1050 
G01 X15.0023 Y-35.9650 
G01 X14.9622 Y-35.8682 
G01 X13.9294 Y-35.8682 
G01 X13.8510 Y-35.8472 
G01 X13.7808 Y-35.8066 
G01 X13.7234 Y-35.7492 
G01 X12.5723 Y-34.5982 
G01 X9.0177 Y-34.5982 
G01 X8.3971 Y-35.2188 
G01 X8.4108 Y-35.2324 
G00 Z0.8000 
G00 X10.9508 Y-35.2324 
G01 Z-0.0800 F100.00 
G01 X10.9508 Y-35.8876 F240.00 
G01 X10.4876 Y-36.3508 
G01 X9.8324 Y-36.3508 
G01 X9.3692 Y-35.8876 
G01 X9.3692 Y-35.2324 
G01 X9.8324 Y-34.7692 
G01 X10.4876 Y-34.7692 
G01 X10.9508 Y-35.2324 
G00 Z0.8000 
G00 X12.0016 Y-54.2450 
G01 Z-0.0800 F100.00 
G01 X11.4207 Y-54.2450 F240.00 
G01 X11.4207 Y-54.9750 
G01 X12.0016 Y-54.9750 
G01 X12.1765 Y-55.0098 
G01 X12.3412 Y-55.0780 
G01 X12.4894 Y-55.1770 
G01 X12.6155 Y-55.3031 
G01 X12.7145 Y-55.4513 
G01 X12.7827 Y-55.6160 
G01 X12.8175 Y-55.7909 
G01 X12.8175 Y-55.9691 
G01 X12.7827 Y-56.1440 
G01 X12.7145 Y-56.3087 
G01 X12.6155 Y-56.4569 
G01 X12.4894 Y-56.5830 
G01 X12.3412 Y-56.6820 
G01 X12.1765 Y-56.7502 
G01 X12.0016 Y-56.7850 
G01 X10.2234 Y-56.7850 
G01 X10.0485 Y-56.7502 
G01 X9.8838 Y-56.6820 
G01 X9.7356 Y-56.5830 
G01 X9.6095 Y-56.4569 
G01 X9.5105 Y-56.3087 
G01 X9.4423 Y-56.1440 
G01 X9.4075 Y-55.9691 
G01 X9.4075 Y-55.7909 
G01 X9.4423 Y-55.6160 
G01 X9.5105 Y-55.4513 
G01 X9.6095 Y-55.3031 
G01 X9.7356 Y-55.1770 
G01 X9.8838 Y-55.0780 
G01 X10.0485 Y-55.0098 
G01 X10.2234 Y-54.9750 
G01 X10.8043 Y-54.9750 
G01 X10.8043 Y-54.2450 
G01 X10.2234 Y-54.2450 
G01 X10.0485 Y-54.2102 
G01 X9.8838 Y-54.1420 
G01 X9.7356 Y-54.0430 
G01 X9.6095 Y-53.9169 
G01 X9.5105 Y-53.7687 
G01 X9.4423 Y-53.6040 
G01 X9.4075 Y-53.4291 
G01 X9.4075 Y-53.2509 
G01 X9.4423 Y-53.0760 
G01 X9.5105 Y-52.9113 
G01 X9.6095 Y-52.7631 
G01 X9.7356 Y-52.6370 
G01 X9.8838 Y-52.5380 
G01 X10.0485 Y-52.4698 
G01 X10.2234 Y-52.4350 
G01 X10.8043 Y-52.4350 
G01 X10.8043 Y-51.0769 
G01 X10.8253 Y-50.9985 
G01 X10.8659 Y-50.9283 
G01 X10.9233 Y-50.8709 
G01 X12.3918 Y-49.4023 
G01 X12.3918 Y-44.5777 
G01 X11.3023 Y-43.4882 
G01 X10.9508 Y-43.4882 
G01 X10.9508 Y-43.5076 
G01 X10.4876 Y-43.9708 
G01 X9.8324 Y-43.9708 
G01 X9.3692 Y-43.5076 
G01 X9.3692 Y-43.4882 
G01 X8.4108 Y-43.4882 
G01 X8.4108 Y-43.5076 
G01 X7.9476 Y-43.9708 
G01 X7.2924 Y-43.9708 
G01 X6.8292 Y-43.5076 
G01 X6.8292 Y-43.4882 
G01 X4.1182 Y-43.4882 
G01 X4.1182 Y-46.2550 
G01 X4.6309 Y-46.2550 
G01 X4.6695 Y-46.2710 
G01 X4.6990 Y-46.3005 
G01 X4.7150 Y-46.3391 
G01 X4.7150 Y-47.2809 
G01 X4.6990 Y-47.3195 
G01 X4.6695 Y-47.3490 
G01 X4.6309 Y-47.3650 
G01 X2.9891 Y-47.3650 
G01 X2.9505 Y-47.3490 
G01 X2.9210 Y-47.3195 
G01 X2.9050 Y-47.2809 
G01 X2.9050 Y-46.3391 
G01 X2.9210 Y-46.3005 
G01 X2.9505 Y-46.2710 
G01 X2.9891 Y-46.2550 
G01 X3.5018 Y-46.2550 
G01 X3.5018 Y-32.9794 
G01 X3.5228 Y-32.9010 
G01 X3.5634 Y-32.8308 
G01 X4.8908 Y-31.5034 
G01 X4.9610 Y-31.4628 
G01 X5.0394 Y-31.4418 
G01 X7.3118 Y-31.4418 
G01 X7.3118 Y-27.4468 
G01 X7.2631 Y-27.4050 
G01 X6.5266 Y-27.4050 
G01 X6.4880 Y-27.3890 
G01 X6.4585 Y-27.3595 
G01 X6.4425 Y-27.3209 
G01 X6.4425 Y-26.4791 
G01 X6.4585 Y-26.4405 
G01 X6.4880 Y-26.4110 
G01 X6.5266 Y-26.3950 
G01 X7.7684 Y-26.3950 
G01 X7.8070 Y-26.4110 
G01 X7.8365 Y-26.4405 
G01 X7.8525 Y-26.4791 
G01 X7.8525 Y-26.9968 
G01 X9.1075 Y-26.9968 
G01 X9.1075 Y-26.4841 
G01 X9.1235 Y-26.4455 
G01 X9.1530 Y-26.4160 
G01 X9.1916 Y-26.4000 
G01 X10.1334 Y-26.4000 
G01 X10.1720 Y-26.4160 
G01 X10.2015 Y-26.4455 
G01 X10.2175 Y-26.4841 
G01 X10.2175 Y-28.1259 
G01 X10.2015 Y-28.1645 
G01 X10.1720 Y-28.1940 
G01 X10.1334 Y-28.2100 
G01 X9.1916 Y-28.2100 
G01 X9.1530 Y-28.1940 
G01 X9.1235 Y-28.1645 
G01 X9.1075 Y-28.1259 
G01 X9.1075 Y-27.6132 
G01 X7.9282 Y-27.6132 
G01 X7.9282 Y-31.4418 
G01 X11.3023 Y-31.4418 
G01 X14.9091 Y-27.8350 
G01 X14.9379 Y-27.6906 
G01 X15.0023 Y-27.5350 
G01 X15.0959 Y-27.3950 
G01 X15.2150 Y-27.2759 
G01 X15.3550 Y-27.1823 
G01 X15.5106 Y-27.1179 
G01 X15.6758 Y-27.0850 
G01 X17.3442 Y-27.0850 
G01 X17.5094 Y-27.1179 
G01 X17.6650 Y-27.1823 
G01 X17.8050 Y-27.2759 
G01 X17.9241 Y-27.3950 
G01 X18.0177 Y-27.5350 
G01 X18.0320 Y-27.5696 
G01 X19.0593 Y-26.5423 
G01 X19.0593 Y-14.2469 
G01 X19.0803 Y-14.1685 
G01 X19.1209 Y-14.0983 
G01 X22.2958 Y-10.9234 
G01 X22.3660 Y-10.8828 
G01 X22.4444 Y-10.8618 
G01 X23.0300 Y-10.8618 
G01 X23.0300 Y-10.3991 
G01 X23.0460 Y-10.3605 
G01 X23.0755 Y-10.3310 
G01 X23.1141 Y-10.3150 
G01 X23.8759 Y-10.3150 
G01 X23.9145 Y-10.3310 
G01 X23.9440 Y-10.3605 
G01 X23.9600 Y-10.3991 
G01 X23.9600 Y-11.9409 
G01 X23.9440 Y-11.9795 
G01 X23.9145 Y-12.0090 
G01 X23.8759 Y-12.0250 
G01 X23.1141 Y-12.0250 
G01 X23.0755 Y-12.0090 
G01 X23.0460 Y-11.9795 
G01 X23.0300 Y-11.9409 
G01 X23.0300 Y-11.4782 
G01 X22.6127 Y-11.4782 
G01 X19.6757 Y-14.4152 
G01 X19.6757 Y-26.7106 
G01 X19.6547 Y-26.7890 
G01 X19.6141 Y-26.8592 
G01 X19.5567 Y-26.9166 
G01 X18.2867 Y-28.1866 
G01 X18.2165 Y-28.2272 
G01 X18.1381 Y-28.2482 
G01 X18.0578 Y-28.2482 
G01 X18.0177 Y-28.3450 
G01 X17.9241 Y-28.4850 
G01 X17.8050 Y-28.6041 
G01 X17.6650 Y-28.6977 
G01 X17.5094 Y-28.7621 
G01 X17.3442 Y-28.7950 
G01 X15.6758 Y-28.7950 
G01 X15.5106 Y-28.7621 
G01 X15.3550 Y-28.6977 
G01 X15.2150 Y-28.6041 
G01 X15.1134 Y-28.5025 
G01 X11.6766 Y-31.9392 
G01 X11.6192 Y-31.9966 
G01 X11.5490 Y-32.0372 
G01 X11.4706 Y-32.0582 
G01 X5.2077 Y-32.0582 
G01 X4.1182 Y-33.1477 
G01 X4.1182 Y-42.8718 
G01 X6.8292 Y-42.8718 
G01 X6.8292 Y-42.8524 
G01 X7.2924 Y-42.3892 
G01 X7.9476 Y-42.3892 
G01 X8.4108 Y-42.8524 
G01 X8.4108 Y-42.8718 
G01 X9.3692 Y-42.8718 
G01 X9.3692 Y-42.8524 
G01 X9.8324 Y-42.3892 
G01 X10.4876 Y-42.3892 
G01 X10.9508 Y-42.8524 
G01 X10.9508 Y-42.8718 
G01 X11.4706 Y-42.8718 
G01 X11.5490 Y-42.8928 
G01 X11.6192 Y-42.9334 
G01 X11.6766 Y-42.9908 
G01 X12.9466 Y-44.2608 
G01 X12.9872 Y-44.3310 
G01 X13.0082 Y-44.4094 
G01 X13.0082 Y-49.5706 
G01 X12.9872 Y-49.6490 
G01 X12.9466 Y-49.7192 
G01 X12.8892 Y-49.7766 
G01 X11.4207 Y-51.2452 
G01 X11.4207 Y-52.4350 
G01 X12.0016 Y-52.4350 
G01 X12.1765 Y-52.4698 
G01 X12.3412 Y-52.5380 
G01 X12.4894 Y-52.6370 
G01 X12.6155 Y-52.7631 
G01 X12.7145 Y-52.9113 
G01 X12.7827 Y-53.0760 
G01 X12.8175 Y-53.2509 
G01 X12.8175 Y-53.4291 
G01 X12.7827 Y-53.6040 
G01 X12.7145 Y-53.7687 
G01 X12.6155 Y-53.9169 
G01 X12.4894 Y-54.0430 
G01 X12.3412 Y-54.1420 
G01 X12.1765 Y-54.2102 
G01 X12.0016 Y-54.2450 
G00 Z0.8000 
G00 X14.6762 Y-36.5198 
G01 Z-0.0800 F100.00 
G01 X14.7878 Y-36.6313 F240.00 
G01 X14.7972 Y-36.6408 
G01 X14.8264 Y-36.6912 
G01 X14.8378 Y-36.7110 
G01 X14.8452 Y-36.7385 
G01 X14.8588 Y-36.7894 
G01 X14.8588 Y-36.8706 
G01 X14.8499 Y-36.9036 
G01 X14.8378 Y-36.9490 
G01 X14.7972 Y-37.0192 
G01 X14.7488 Y-37.0677 
G01 X14.6762 Y-37.1402 
G01 X14.6060 Y-37.1808 
G01 X14.5276 Y-37.2018 
G01 X11.3016 Y-37.2018 
G01 X11.2232 Y-37.1808 
G01 X11.1530 Y-37.1402 
G01 X11.0956 Y-37.0828 
G01 X11.0320 Y-37.0192 
G01 X10.9914 Y-36.9490 
G01 X10.9704 Y-36.8706 
G01 X10.9704 Y-36.7894 
G01 X10.9914 Y-36.7110 
G01 X11.0320 Y-36.6408 
G01 X11.0894 Y-36.5834 
G01 X11.5408 Y-36.1319 
G01 X11.5408 Y-35.4558 
G01 X11.5618 Y-35.3774 
G01 X11.6024 Y-35.3072 
G01 X11.6598 Y-35.2498 
G01 X11.7300 Y-35.2092 
G01 X11.8084 Y-35.1882 
G01 X12.2409 Y-35.1882 
G01 X12.3193 Y-35.2092 
G01 X12.3895 Y-35.2498 
G01 X12.4469 Y-35.3072 
G01 X13.1939 Y-36.0541 
G01 X13.4612 Y-36.3215 
G01 X13.7913 Y-36.4582 
G01 X14.5276 Y-36.4582 
G01 X14.5687 Y-36.4692 
G01 X14.6060 Y-36.4792 
G01 X14.6762 Y-36.5198 
G00 Z0.8000 
G00 X14.6327 Y-10.8061 
G01 Z-0.0800 F100.00 
G01 X14.6467 Y-10.8399 F240.00 
G01 X14.6578 Y-10.8650 
G01 X14.6653 Y-10.8778 
G01 X14.6706 Y-10.8975 
G01 X14.6784 Y-10.9163 
G01 X14.6810 Y-10.9365 
G01 X14.6863 Y-10.9562 
G01 X14.6863 Y-10.9766 
G01 X14.6889 Y-10.9968 
G01 X14.6863 Y-11.0170 
G01 X14.6863 Y-11.0374 
G01 X14.6810 Y-11.0571 
G01 X14.6783 Y-11.0773 
G01 X14.6706 Y-11.0961 
G01 X14.6653 Y-11.1158 
G01 X14.6551 Y-11.1334 
G01 X14.6473 Y-11.1522 
G01 X14.6349 Y-11.1684 
G01 X14.6247 Y-11.1860 
G01 X14.6103 Y-11.2004 
G01 X14.5979 Y-11.2166 
G01 X14.5817 Y-11.2290 
G01 X14.5673 Y-11.2434 
G01 X14.5497 Y-11.2536 
G01 X14.5335 Y-11.2660 
G01 X14.5147 Y-11.2738 
G01 X14.4970 Y-11.2840 
G01 X14.4774 Y-11.2893 
G01 X14.4585 Y-11.2971 
G01 X14.4383 Y-11.2997 
G01 X14.4187 Y-11.3050 
G01 X14.3983 Y-11.3050 
G01 X14.3781 Y-11.3077 
G01 X14.3602 Y-11.3053 
G01 X14.3460 Y-11.3076 
G01 X14.3217 Y-11.3050 
G01 X14.2973 Y-11.3050 
G01 X14.2815 Y-11.3008 
G01 X14.2653 Y-11.2991 
G01 X14.2425 Y-11.2903 
G01 X14.2189 Y-11.2840 
G01 X14.2048 Y-11.2758 
G01 X14.1895 Y-11.2700 
G01 X14.1698 Y-11.2556 
G01 X14.1486 Y-11.2434 
G01 X14.1371 Y-11.2319 
G01 X14.1239 Y-11.2223 
G01 X14.1085 Y-11.2033 
G01 X14.0912 Y-11.1860 
G01 X14.0831 Y-11.1719 
G01 X14.0728 Y-11.1592 
G01 X14.0629 Y-11.1369 
G01 X14.0507 Y-11.1158 
G01 X14.0464 Y-11.1000 
G01 X14.0398 Y-11.0851 
G01 X14.0360 Y-11.0610 
G01 X14.0297 Y-11.0374 
G01 X14.0297 Y-11.0211 
G01 X14.0271 Y-11.0049 
G01 X14.0297 Y-10.9806 
G01 X14.0297 Y-10.9562 
G01 X14.0339 Y-10.9405 
G01 X14.0356 Y-10.9242 
G01 X14.0444 Y-10.9014 
G01 X14.0507 Y-10.8778 
G01 X14.0588 Y-10.8637 
G01 X14.0647 Y-10.8485 
G01 X14.0790 Y-10.8287 
G01 X14.0912 Y-10.8076 
G01 X14.0995 Y-10.7993 
G01 X14.1165 Y-10.7771 
G01 X14.1380 Y-10.7476 
G01 X14.1412 Y-10.7450 
G01 X14.1437 Y-10.7417 
G01 X14.1727 Y-10.7194 
G01 X14.2011 Y-10.6965 
G01 X14.2048 Y-10.6948 
G01 X14.2081 Y-10.6923 
G01 X14.2419 Y-10.6783 
G01 X14.2752 Y-10.6635 
G01 X14.2792 Y-10.6628 
G01 X14.2830 Y-10.6613 
G01 X14.3193 Y-10.6565 
G01 X14.3553 Y-10.6508 
G01 X14.3594 Y-10.6512 
G01 X14.3635 Y-10.6507 
G01 X14.3997 Y-10.6555 
G01 X14.4361 Y-10.6593 
G01 X14.4399 Y-10.6607 
G01 X14.4439 Y-10.6613 
G01 X14.4777 Y-10.6753 
G01 X14.5118 Y-10.6884 
G01 X14.5151 Y-10.6908 
G01 X14.5189 Y-10.6923 
G01 X14.5479 Y-10.7146 
G01 X14.5775 Y-10.7361 
G01 X14.5800 Y-10.7392 
G01 X14.5833 Y-10.7417 
G01 X14.6056 Y-10.7708 
G01 X14.6285 Y-10.7991 
G01 X14.6302 Y-10.8029 
G01 X14.6327 Y-10.8061 
G00 Z0.8000 
G00 X18.0808 Y-24.1759 
G01 Z-0.0800 F100.00 
G01 X18.0619 Y-24.1681 F240.00 
G01 X18.0421 Y-24.1628 
G01 X18.0226 Y-24.1518 
G01 X18.0037 Y-24.1440 
G01 X17.9876 Y-24.1316 
G01 X17.9699 Y-24.1215 
G01 X17.9555 Y-24.1071 
G01 X17.9393 Y-24.0947 
G01 X17.9269 Y-24.0785 
G01 X17.9125 Y-24.0641 
G01 X17.9023 Y-24.0465 
G01 X17.8899 Y-24.0303 
G01 X17.8821 Y-24.0115 
G01 X17.8719 Y-23.9939 
G01 X17.8666 Y-23.9742 
G01 X17.8588 Y-23.9553 
G01 X17.8561 Y-23.9352 
G01 X17.8508 Y-23.9155 
G01 X17.8508 Y-23.8951 
G01 X17.8481 Y-23.8749 
G01 X17.8508 Y-23.8547 
G01 X17.8508 Y-23.8344 
G01 X17.8560 Y-23.8147 
G01 X17.8587 Y-23.7944 
G01 X17.8665 Y-23.7756 
G01 X17.8717 Y-23.7560 
G01 X17.8819 Y-23.7383 
G01 X17.8897 Y-23.7194 
G01 X17.9021 Y-23.7033 
G01 X17.9122 Y-23.6857 
G01 X17.9267 Y-23.6711 
G01 X17.9391 Y-23.6550 
G01 X17.9552 Y-23.6426 
G01 X17.9717 Y-23.6261 
G01 X17.9920 Y-23.6144 
G01 X18.0034 Y-23.6056 
G01 X18.0167 Y-23.6001 
G01 X18.0419 Y-23.5855 
G01 X18.0702 Y-23.5779 
G01 X18.0784 Y-23.5745 
G01 X18.0872 Y-23.5733 
G01 X18.1203 Y-23.5644 
G01 X18.1547 Y-23.5644 
G01 X18.1588 Y-23.5639 
G01 X18.1629 Y-23.5644 
G01 X18.2014 Y-23.5644 
G01 X18.2388 Y-23.5744 
G01 X18.2798 Y-23.5853 
G01 X18.3146 Y-23.6053 
G01 X18.3502 Y-23.6258 
G01 X18.3775 Y-23.6532 
G01 X18.3808 Y-23.6557 
G01 X18.3833 Y-23.6590 
G01 X18.4076 Y-23.6832 
G01 X18.4248 Y-23.7130 
G01 X18.4302 Y-23.7200 
G01 X18.4336 Y-23.7282 
G01 X18.4482 Y-23.7534 
G01 X18.4558 Y-23.7817 
G01 X18.4613 Y-23.7950 
G01 X18.4632 Y-23.8093 
G01 X18.4693 Y-23.8318 
G01 X18.4693 Y-23.8553 
G01 X18.4720 Y-23.8754 
G01 X18.4693 Y-23.8956 
G01 X18.4693 Y-23.9130 
G01 X18.4693 Y-23.9162 
G01 X18.4640 Y-23.9358 
G01 X18.4614 Y-23.9559 
G01 X18.4536 Y-23.9748 
G01 X18.4483 Y-23.9946 
G01 X18.4382 Y-24.0121 
G01 X18.4304 Y-24.0309 
G01 X18.4179 Y-24.0471 
G01 X18.4077 Y-24.0648 
G01 X18.3934 Y-24.0792 
G01 X18.3810 Y-24.0953 
G01 X18.3648 Y-24.1078 
G01 X18.3503 Y-24.1222 
G01 X18.3328 Y-24.1324 
G01 X18.3167 Y-24.1447 
G01 X18.2978 Y-24.1526 
G01 X18.2801 Y-24.1628 
G01 X18.2605 Y-24.1680 
G01 X18.2417 Y-24.1758 
G01 X18.2214 Y-24.1785 
G01 X18.2017 Y-24.1838 
G01 X18.1814 Y-24.1838 
G01 X18.1613 Y-24.1865 
G01 X18.1410 Y-24.1838 
G01 X18.1205 Y-24.1838 
G01 X18.1009 Y-24.1785 
G01 X18.0808 Y-24.1759 
G00 Z0.8000 
G00 X17.9717 Y-22.0939 
G01 Z-0.0800 F100.00 
G01 X17.9552 Y-22.0774 F240.00 
G01 X17.9391 Y-22.0650 
G01 X17.9267 Y-22.0489 
G01 X17.9145 Y-22.0366 
G01 X17.9021 Y-22.0167 
G01 X17.8897 Y-22.0006 
G01 X17.8819 Y-21.9817 
G01 X17.8717 Y-21.9640 
G01 X17.8665 Y-21.9444 
G01 X17.8587 Y-21.9256 
G01 X17.8560 Y-21.9053 
G01 X17.8508 Y-21.8856 
G01 X17.8508 Y-21.8653 
G01 X17.8481 Y-21.8451 
G01 X17.8508 Y-21.8249 
G01 X17.8508 Y-21.8045 
G01 X17.8561 Y-21.7848 
G01 X17.8588 Y-21.7647 
G01 X17.8666 Y-21.7458 
G01 X17.8719 Y-21.7261 
G01 X17.8821 Y-21.7085 
G01 X17.8899 Y-21.6897 
G01 X17.9023 Y-21.6735 
G01 X17.9125 Y-21.6559 
G01 X17.9269 Y-21.6415 
G01 X17.9393 Y-21.6253 
G01 X17.9555 Y-21.6129 
G01 X17.9699 Y-21.5985 
G01 X17.9876 Y-21.5884 
G01 X18.0037 Y-21.5760 
G01 X18.0226 Y-21.5682 
G01 X18.0402 Y-21.5580 
G01 X18.0619 Y-21.5519 
G01 X18.0808 Y-21.5441 
G01 X18.1009 Y-21.5415 
G01 X18.1205 Y-21.5362 
G01 X18.1410 Y-21.5362 
G01 X18.1613 Y-21.5335 
G01 X18.1814 Y-21.5362 
G01 X18.2017 Y-21.5362 
G01 X18.2214 Y-21.5415 
G01 X18.2417 Y-21.5442 
G01 X18.2605 Y-21.5520 
G01 X18.2801 Y-21.5572 
G01 X18.2978 Y-21.5674 
G01 X18.3167 Y-21.5753 
G01 X18.3328 Y-21.5876 
G01 X18.3503 Y-21.5978 
G01 X18.3648 Y-21.6122 
G01 X18.3810 Y-21.6247 
G01 X18.3934 Y-21.6408 
G01 X18.4077 Y-21.6552 
G01 X18.4179 Y-21.6729 
G01 X18.4304 Y-21.6891 
G01 X18.4382 Y-21.7079 
G01 X18.4483 Y-21.7254 
G01 X18.4536 Y-21.7452 
G01 X18.4614 Y-21.7641 
G01 X18.4640 Y-21.7842 
G01 X18.4693 Y-21.8038 
G01 X18.4693 Y-21.8069 
G01 X18.4693 Y-21.8244 
G01 X18.4720 Y-21.8446 
G01 X18.4693 Y-21.8647 
G01 X18.4693 Y-21.8880 
G01 X18.4632 Y-21.9107 
G01 X18.4613 Y-21.9250 
G01 X18.4558 Y-21.9383 
G01 X18.4483 Y-21.9664 
G01 X18.4336 Y-21.9918 
G01 X18.4302 Y-22.0000 
G01 X18.4248 Y-22.0070 
G01 X18.4077 Y-22.0366 
G01 X18.3833 Y-22.0610 
G01 X18.3808 Y-22.0643 
G01 X18.3775 Y-22.0668 
G01 X18.3503 Y-22.0940 
G01 X18.3168 Y-22.1134 
G01 X18.2801 Y-22.1346 
G01 X18.2402 Y-22.1453 
G01 X18.2017 Y-22.1556 
G01 X18.1629 Y-22.1556 
G01 X18.1588 Y-22.1561 
G01 X18.1547 Y-22.1556 
G01 X18.1205 Y-22.1556 
G01 X18.0872 Y-22.1467 
G01 X18.0784 Y-22.1455 
G01 X18.0702 Y-22.1421 
G01 X18.0421 Y-22.1346 
G01 X18.0167 Y-22.1199 
G01 X18.0034 Y-22.1144 
G01 X17.9920 Y-22.1056 
G01 X17.9719 Y-22.0940 
G00 Z0.8000 
G00 X19.0366 Y-13.3481 
G01 Z-0.0800 F100.00 
G01 X19.0242 Y-13.3643 F240.00 
G01 X19.0081 Y-13.3767 
G01 X18.9937 Y-13.3911 
G01 X18.9760 Y-13.4013 
G01 X18.9598 Y-13.4137 
G01 X18.9410 Y-13.4215 
G01 X18.9234 Y-13.4317 
G01 X18.9037 Y-13.4369 
G01 X18.8849 Y-13.4447 
G01 X18.8647 Y-13.4474 
G01 X18.8450 Y-13.4527 
G01 X18.8246 Y-13.4527 
G01 X18.8044 Y-13.4553 
G01 X18.7842 Y-13.4527 
G01 X18.7638 Y-13.4527 
G01 X18.7442 Y-13.4474 
G01 X18.7240 Y-13.4447 
G01 X18.7051 Y-13.4369 
G01 X18.6855 Y-13.4317 
G01 X18.6678 Y-13.4215 
G01 X18.6490 Y-13.4137 
G01 X18.6328 Y-13.4013 
G01 X18.6152 Y-13.3911 
G01 X18.6008 Y-13.3767 
G01 X18.5846 Y-13.3643 
G01 X18.5722 Y-13.3481 
G01 X18.5578 Y-13.3337 
G01 X18.5476 Y-13.3161 
G01 X18.5352 Y-13.2999 
G01 X18.5274 Y-13.2811 
G01 X18.5172 Y-13.2634 
G01 X18.5119 Y-13.2437 
G01 X18.5041 Y-13.2249 
G01 X18.5015 Y-13.2047 
G01 X18.4962 Y-13.1850 
G01 X18.4962 Y-13.1647 
G01 X18.4936 Y-13.1445 
G01 X18.4962 Y-13.1243 
G01 X18.4962 Y-13.1039 
G01 X18.5015 Y-13.0842 
G01 X18.5042 Y-13.0640 
G01 X18.5120 Y-13.0452 
G01 X18.5172 Y-13.0255 
G01 X18.5274 Y-13.0079 
G01 X18.5400 Y-12.9775 
G01 X18.5400 Y-12.5958 
G01 X18.5610 Y-12.5174 
G01 X18.6016 Y-12.4472 
G01 X18.6590 Y-12.3898 
G01 X18.7292 Y-12.3492 
G01 X18.8076 Y-12.3282 
G01 X19.3531 Y-12.3282 
G01 X19.4315 Y-12.3492 
G01 X19.5017 Y-12.3898 
G01 X19.5591 Y-12.4472 
G01 X19.5997 Y-12.5174 
G01 X19.6207 Y-12.5958 
G01 X19.6207 Y-12.6770 
G01 X19.5997 Y-12.7554 
G01 X19.5591 Y-12.8256 
G01 X19.5017 Y-12.8830 
G01 X19.0366 Y-13.3481 
G00 Z0.8000 
G00 X2.9891 Y-50.2650 
G01 Z-0.0800 F100.00 
G01 X2.9505 Y-50.2490 F240.00 
G01 X2.9210 Y-50.2195 
G01 X2.9050 Y-50.1809 
G01 X2.9050 Y-50.0400 
G01 X2.7150 Y-50.0400 
G01 X2.7150 Y-50.1891 
G01 X2.7263 Y-50.2460 
G01 X2.7486 Y-50.2997 
G01 X2.7809 Y-50.3480 
G01 X2.8219 Y-50.3891 
G01 X2.8703 Y-50.4214 
G01 X2.9240 Y-50.4437 
G01 X2.9809 Y-50.4550 
G01 X3.4800 Y-50.4550 
G01 X3.4800 Y-50.2650 
G01 X2.9891 Y-50.2650 
G00 Z0.8000 
G00 X4.6309 Y-50.2650 
G01 Z-0.0800 F100.00 
G01 X4.1400 Y-50.2650 F240.00 
G01 X4.1400 Y-50.4550 
G01 X4.6391 Y-50.4550 
G01 X4.6960 Y-50.4437 
G01 X4.7497 Y-50.4214 
G01 X4.7980 Y-50.3891 
G01 X4.8391 Y-50.3480 
G01 X4.8714 Y-50.2997 
G01 X4.8937 Y-50.2460 
G01 X4.9050 Y-50.1891 
G01 X4.9050 Y-50.0400 
G01 X4.7150 Y-50.0400 
G01 X4.7150 Y-50.1809 
G01 X4.6990 Y-50.2195 
G01 X4.6695 Y-50.2490 
G01 X4.6309 Y-50.2650 
G00 Z0.8000 
G00 X4.9050 Y-49.2309 
G01 Z-0.0800 F100.00 
G01 X4.8937 Y-49.1740 F240.00 
G01 X4.8714 Y-49.1203 
G01 X4.8391 Y-49.0719 
G01 X4.7980 Y-49.0309 
G01 X4.7497 Y-48.9986 
G01 X4.6960 Y-48.9763 
G01 X4.6391 Y-48.9650 
G01 X4.1400 Y-48.9650 
G01 X4.1400 Y-49.1550 
G01 X4.6309 Y-49.1550 
G01 X4.6695 Y-49.1710 
G01 X4.6990 Y-49.2005 
G01 X4.7150 Y-49.2391 
G01 X4.7150 Y-49.3800 
G01 X4.9050 Y-49.3800 
G01 X4.9050 Y-49.2309 
G00 Z0.8000 
G00 X11.0651 Y-19.9451 
G01 Z-0.0800 F100.00 
G01 X11.0651 Y-20.0118 F240.00 
G01 X11.2551 Y-20.0118 
G01 X11.2551 Y-19.8664 
G01 X10.6136 Y-19.2249 
G01 X10.4682 Y-19.2249 
G01 X10.4682 Y-19.4149 
G01 X10.5349 Y-19.4149 
G01 X11.0651 Y-19.9451 
G00 Z0.8000 
G00 X12.0834 Y-26.2100 
G01 Z-0.0800 F100.00 
G01 X12.0265 Y-26.2213 F240.00 
G01 X11.9728 Y-26.2436 
G01 X11.9244 Y-26.2759 
G01 X11.8834 Y-26.3169 
G01 X11.8511 Y-26.3653 
G01 X11.8288 Y-26.4190 
G01 X11.8175 Y-26.4759 
G01 X11.8175 Y-26.9750 
G01 X12.0075 Y-26.9750 
G01 X12.0075 Y-26.4841 
G01 X12.0235 Y-26.4455 
G01 X12.0530 Y-26.4160 
G01 X12.0916 Y-26.4000 
G01 X12.2325 Y-26.4000 
G01 X12.2325 Y-26.2100 
G01 X12.0834 Y-26.2100 
G00 Z0.8000 
G00 X13.3075 Y-26.4759 
G01 Z-0.0800 F100.00 
G01 X13.2962 Y-26.4190 F240.00 
G01 X13.2739 Y-26.3652 
G01 X13.2416 Y-26.3169 
G01 X13.2006 Y-26.2759 
G01 X13.1522 Y-26.2436 
G01 X13.0985 Y-26.2213 
G01 X13.0416 Y-26.2100 
G01 X12.8925 Y-26.2100 
G01 X12.8925 Y-26.4000 
G01 X13.0334 Y-26.4000 
G01 X13.0720 Y-26.4160 
G01 X13.1015 Y-26.4455 
G01 X13.1175 Y-26.4841 
G01 X13.1175 Y-26.9750 
G01 X13.3075 Y-26.9750 
G01 X13.3075 Y-26.4759 
G00 Z0.8000 
G00 X11.8175 Y-28.1341 
G01 Z-0.0800 F100.00 
G01 X11.8288 Y-28.1910 F240.00 
G01 X11.8511 Y-28.2447 
G01 X11.8834 Y-28.2930 
G01 X11.9244 Y-28.3341 
G01 X11.9728 Y-28.3664 
G01 X12.0265 Y-28.3887 
G01 X12.0834 Y-28.4000 
G01 X12.2325 Y-28.4000 
G01 X12.2325 Y-28.2100 
G01 X12.0916 Y-28.2100 
G01 X12.0530 Y-28.1940 
G01 X12.0235 Y-28.1645 
G01 X12.0075 Y-28.1259 
G01 X12.0075 Y-27.6350 
G01 X11.8175 Y-27.6350 
G01 X11.8175 Y-28.1341 
G00 Z0.8000 
G00 X11.0651 Y-20.6949 
G01 Z-0.0800 F100.00 
G01 X10.5349 Y-21.2251 F240.00 
G01 X9.7851 Y-21.2251 
G01 X9.2549 Y-20.6949 
G01 X9.2549 Y-19.9451 
G01 X9.7851 Y-19.4149 
G01 X9.8518 Y-19.4149 
G01 X9.8518 Y-19.2249 
G01 X9.7064 Y-19.2249 
G01 X9.3951 Y-19.5362 
G01 X9.3827 Y-19.5524 
G01 X9.3665 Y-19.5648 
G01 X9.3521 Y-19.5792 
G01 X9.3345 Y-19.5894 
G01 X9.3183 Y-19.6018 
G01 X9.2995 Y-19.6096 
G01 X9.2818 Y-19.6198 
G01 X9.2621 Y-19.6250 
G01 X9.2433 Y-19.6328 
G01 X9.2231 Y-19.6355 
G01 X9.2034 Y-19.6408 
G01 X9.1831 Y-19.6408 
G01 X9.1629 Y-19.6434 
G01 X9.1427 Y-19.6408 
G01 X9.1223 Y-19.6408 
G01 X9.1026 Y-19.6355 
G01 X9.0824 Y-19.6328 
G01 X9.0636 Y-19.6250 
G01 X9.0439 Y-19.6198 
G01 X9.0263 Y-19.6096 
G01 X9.0074 Y-19.6018 
G01 X8.9913 Y-19.5894 
G01 X8.9736 Y-19.5792 
G01 X8.9592 Y-19.5648 
G01 X8.9431 Y-19.5524 
G01 X8.9307 Y-19.5362 
G01 X8.9162 Y-19.5218 
G01 X8.9061 Y-19.5041 
G01 X8.8937 Y-19.4880 
G01 X8.8875 Y-19.4731 
G01 X8.4669 Y-19.0525 
G01 X7.9174 Y-18.8249 
G01 X7.3226 Y-18.8249 
G01 X6.7731 Y-19.0525 
G01 X6.7522 Y-19.0734 
G01 X6.6819 Y-19.1140 
G01 X6.6035 Y-19.1350 
G01 X6.5223 Y-19.1350 
G01 X6.4440 Y-19.1140 
G01 X6.3737 Y-19.0734 
G01 X6.3163 Y-19.0161 
G01 X4.9218 Y-17.6216 
G01 X4.8813 Y-17.5513 
G01 X4.8603 Y-17.4729 
G01 X4.8603 Y-17.3918 
G01 X4.8813 Y-17.3134 
G01 X4.9210 Y-17.2447 
G01 X4.9792 Y-17.1857 
G01 X5.1146 Y-17.0504 
G01 X5.1146 Y-15.9696 
G01 X4.3504 Y-15.2054 
G01 X3.2696 Y-15.2054 
G01 X2.5054 Y-15.9696 
G01 X2.5054 Y-17.0504 
G01 X2.7928 Y-17.3378 
G01 X2.8430 Y-17.3880 
G01 X2.8502 Y-17.3952 
G01 X2.8908 Y-17.4655 
G01 X2.9118 Y-17.5439 
G01 X2.9118 Y-17.9587 
G01 X3.0485 Y-18.2888 
G01 X6.1515 Y-21.3917 
G01 X6.1585 Y-21.3988 
G01 X6.2089 Y-21.4491 
G01 X6.5482 Y-21.7885 
G01 X6.6602 Y-21.9005 
G01 X6.7008 Y-21.9707 
G01 X6.7218 Y-22.0491 
G01 X6.7218 Y-22.5384 
G01 X6.7008 Y-22.6168 
G01 X6.6602 Y-22.6870 
G01 X6.6028 Y-22.7444 
G01 X6.5326 Y-22.7850 
G01 X6.4542 Y-22.8060 
G01 X6.4093 Y-22.8060 
G01 X6.1538 Y-22.9118 
G01 X5.9583 Y-23.1073 
G01 X5.8525 Y-23.3628 
G01 X5.8525 Y-24.0202 
G01 X5.8551 Y-24.0363 
G01 X5.8525 Y-24.0606 
G01 X5.8525 Y-24.0850 
G01 X5.8483 Y-24.1008 
G01 X5.8466 Y-24.1170 
G01 X5.8378 Y-24.1398 
G01 X5.8315 Y-24.1634 
G01 X5.8233 Y-24.1776 
G01 X5.8175 Y-24.1928 
G01 X5.8031 Y-24.2125 
G01 X5.7909 Y-24.2337 
G01 X5.7794 Y-24.2452 
G01 X5.7698 Y-24.2584 
G01 X5.7508 Y-24.2738 
G01 X5.7335 Y-24.2911 
G01 X5.7194 Y-24.2992 
G01 X5.7067 Y-24.3095 
G01 X5.6844 Y-24.3194 
G01 X5.6633 Y-24.3317 
G01 X5.6475 Y-24.3359 
G01 X5.6326 Y-24.3425 
G01 X5.6085 Y-24.3463 
G01 X5.5849 Y-24.3527 
G01 X5.5685 Y-24.3527 
G01 X5.5524 Y-24.3552 
G01 X5.5281 Y-24.3527 
G01 X5.5037 Y-24.3527 
G01 X5.4880 Y-24.3484 
G01 X5.4717 Y-24.3467 
G01 X5.4489 Y-24.3380 
G01 X5.4253 Y-24.3317 
G01 X5.4112 Y-24.3235 
G01 X5.3960 Y-24.3176 
G01 X5.3762 Y-24.3033 
G01 X5.3551 Y-24.2911 
G01 X5.3435 Y-24.2795 
G01 X5.3214 Y-24.2635 
G01 X5.1678 Y-24.1852 
G01 X5.0039 Y-24.1320 
G01 X4.8337 Y-24.1050 
G01 X4.8089 Y-24.1050 
G01 X4.8089 Y-24.2950 
G01 X4.8366 Y-24.2950 
G01 X5.0115 Y-24.3298 
G01 X5.1762 Y-24.3980 
G01 X5.3244 Y-24.4970 
G01 X5.4505 Y-24.6231 
G01 X5.5495 Y-24.7713 
G01 X5.6007 Y-24.8950 
G01 X7.7684 Y-24.8950 
G01 X7.8070 Y-24.9110 
G01 X7.8365 Y-24.9405 
G01 X7.8525 Y-24.9791 
G01 X7.8525 Y-25.0918 
G01 X8.0425 Y-25.0918 
G01 X8.0425 Y-25.0760 
G01 X8.0635 Y-24.9976 
G01 X8.1041 Y-24.9273 
G01 X8.1615 Y-24.8699 
G01 X8.2938 Y-24.7376 
G01 X8.3226 Y-24.7210 
G01 X8.3640 Y-24.6970 
G01 X8.4424 Y-24.6760 
G01 X8.5236 Y-24.6760 
G01 X8.6020 Y-24.6970 
G01 X8.6416 Y-24.7200 
G01 X8.6722 Y-24.7376 
G01 X8.7296 Y-24.7950 
G01 X8.8188 Y-24.8842 
G01 X9.0743 Y-24.9900 
G01 X10.2507 Y-24.9900 
G01 X10.5062 Y-24.8842 
G01 X10.7017 Y-24.6887 
G01 X10.8075 Y-24.4332 
G01 X10.8075 Y-22.5568 
G01 X10.7017 Y-22.3013 
G01 X10.5062 Y-22.1058 
G01 X10.2888 Y-22.0158 
G01 X10.2691 Y-22.0105 
G01 X10.2515 Y-22.0003 
G01 X10.2327 Y-21.9925 
G01 X10.2165 Y-21.9801 
G01 X10.1988 Y-21.9699 
G01 X10.1844 Y-21.9555 
G01 X10.1683 Y-21.9431 
G01 X10.1559 Y-21.9269 
G01 X10.1415 Y-21.9125 
G01 X10.1313 Y-21.8949 
G01 X10.1189 Y-21.8787 
G01 X10.1111 Y-21.8599 
G01 X10.1009 Y-21.8423 
G01 X10.0956 Y-21.8226 
G01 X10.0878 Y-21.8038 
G01 X10.0852 Y-21.7836 
G01 X10.0799 Y-21.7639 
G01 X10.0799 Y-21.7435 
G01 X10.0772 Y-21.7233 
G01 X10.0799 Y-21.7031 
G01 X10.0799 Y-21.6827 
G01 X10.0852 Y-21.6630 
G01 X10.0878 Y-21.6428 
G01 X10.0956 Y-21.6240 
G01 X10.1009 Y-21.6043 
G01 X10.1111 Y-21.5867 
G01 X10.1189 Y-21.5679 
G01 X10.1313 Y-21.5517 
G01 X10.1415 Y-21.5341 
G01 X10.1559 Y-21.5196 
G01 X10.1683 Y-21.5035 
G01 X10.1844 Y-21.4911 
G01 X10.1988 Y-21.4767 
G01 X10.2165 Y-21.4665 
G01 X10.2326 Y-21.4541 
G01 X10.2515 Y-21.4463 
G01 X10.2691 Y-21.4361 
G01 X10.2888 Y-21.4308 
G01 X10.3076 Y-21.4230 
G01 X10.3278 Y-21.4204 
G01 X10.3475 Y-21.4151 
G01 X10.3679 Y-21.4151 
G01 X10.3881 Y-21.4124 
G01 X10.4083 Y-21.4151 
G01 X10.6136 Y-21.4151 
G01 X11.2551 Y-20.7736 
G01 X11.2551 Y-20.6282 
G01 X11.0651 Y-20.6282 
G01 X11.0651 Y-20.6949 
G00 Z0.8000 
G00 X8.8875 Y-21.1669 
G01 Z-0.0800 F100.00 
G01 X8.8937 Y-21.1520 F240.00 
G01 X8.9061 Y-21.1358 
G01 X8.9162 Y-21.1182 
G01 X8.9307 Y-21.1038 
G01 X8.9431 Y-21.0876 
G01 X8.9592 Y-21.0752 
G01 X8.9736 Y-21.0608 
G01 X8.9913 Y-21.0506 
G01 X9.0074 Y-21.0382 
G01 X9.0263 Y-21.0304 
G01 X9.0439 Y-21.0202 
G01 X9.0636 Y-21.0150 
G01 X9.0824 Y-21.0072 
G01 X9.1026 Y-21.0045 
G01 X9.1223 Y-20.9992 
G01 X9.1427 Y-20.9992 
G01 X9.1629 Y-20.9966 
G01 X9.1831 Y-20.9992 
G01 X9.2034 Y-20.9992 
G01 X9.2231 Y-21.0045 
G01 X9.2433 Y-21.0072 
G01 X9.2621 Y-21.0150 
G01 X9.2818 Y-21.0202 
G01 X9.2995 Y-21.0304 
G01 X9.3183 Y-21.0382 
G01 X9.3345 Y-21.0506 
G01 X9.3521 Y-21.0608 
G01 X9.3665 Y-21.0752 
G01 X9.3827 Y-21.0876 
G01 X9.3951 Y-21.1038 
G01 X9.7939 Y-21.5026 
G01 X9.8344 Y-21.5728 
G01 X9.8554 Y-21.6512 
G01 X9.8554 Y-21.7324 
G01 X9.8344 Y-21.8108 
G01 X9.7939 Y-21.8810 
G01 X9.7365 Y-21.9384 
G01 X9.6662 Y-21.9790 
G01 X9.5878 Y-22.0000 
G01 X9.0743 Y-22.0000 
G01 X8.9630 Y-22.0461 
G01 X8.9454 Y-22.0563 
G01 X8.9257 Y-22.0615 
G01 X8.9069 Y-22.0693 
G01 X8.8867 Y-22.0720 
G01 X8.8670 Y-22.0773 
G01 X8.8466 Y-22.0773 
G01 X8.8264 Y-22.0799 
G01 X8.8062 Y-22.0773 
G01 X8.7858 Y-22.0773 
G01 X8.7661 Y-22.0720 
G01 X8.7459 Y-22.0693 
G01 X8.7271 Y-22.0615 
G01 X8.7074 Y-22.0563 
G01 X8.6898 Y-22.0461 
G01 X8.6710 Y-22.0383 
G01 X8.6548 Y-22.0259 
G01 X8.6372 Y-22.0157 
G01 X8.6227 Y-22.0013 
G01 X8.6066 Y-21.9889 
G01 X8.5942 Y-21.9727 
G01 X8.5798 Y-21.9583 
G01 X8.5696 Y-21.9407 
G01 X8.5572 Y-21.9245 
G01 X8.5494 Y-21.9057 
G01 X8.5392 Y-21.8880 
G01 X8.5339 Y-21.8684 
G01 X8.5261 Y-21.8495 
G01 X8.5235 Y-21.8293 
G01 X8.5182 Y-21.8097 
G01 X8.5182 Y-21.7893 
G01 X8.5155 Y-21.7691 
G01 X8.5182 Y-21.7489 
G01 X8.5182 Y-21.6233 
G01 X8.5392 Y-21.5449 
G01 X8.5798 Y-21.4746 
G01 X8.6372 Y-21.4172 
G01 X8.8875 Y-21.1669 
G00 Z0.8000 
G00 X6.5266 Y-23.3960 
G01 Z-0.0800 F100.00 
G01 X7.2166 Y-23.3960 F240.00 
G01 X7.3118 Y-23.3008 
G01 X7.3118 Y-21.7177 
G01 X6.7958 Y-21.2016 
G01 X6.7384 Y-21.1442 
G01 X3.5634 Y-17.9692 
G01 X3.5228 Y-17.8990 
G01 X3.5018 Y-17.8206 
G01 X3.5018 Y-17.2124 
G01 X3.0954 Y-16.8060 
G01 X3.0954 Y-16.2140 
G01 X3.5140 Y-15.7954 
G01 X4.1060 Y-15.7954 
G01 X4.5246 Y-16.2140 
G01 X4.5246 Y-16.8060 
G01 X4.1182 Y-17.2124 
G01 X4.1182 Y-17.6523 
G01 X6.7149 Y-20.2490 
G01 X6.7149 Y-20.2309 
G01 X6.7497 Y-20.0560 
G01 X6.8179 Y-19.8913 
G01 X6.9170 Y-19.7430 
G01 X7.0430 Y-19.6170 
G01 X7.1913 Y-19.5179 
G01 X7.3560 Y-19.4497 
G01 X7.5309 Y-19.4149 
G01 X7.7091 Y-19.4149 
G01 X7.8840 Y-19.4497 
G01 X8.0487 Y-19.5179 
G01 X8.1970 Y-19.6170 
G01 X8.3230 Y-19.7430 
G01 X8.4221 Y-19.8913 
G01 X8.4903 Y-20.0560 
G01 X8.5251 Y-20.2309 
G01 X8.5251 Y-20.4091 
G01 X8.4903 Y-20.5840 
G01 X8.4221 Y-20.7487 
G01 X8.3230 Y-20.8970 
G01 X8.1970 Y-21.0230 
G01 X8.0487 Y-21.1221 
G01 X7.8840 Y-21.1903 
G01 X7.7091 Y-21.2251 
G01 X7.6910 Y-21.2251 
G01 X7.8666 Y-21.4008 
G01 X7.9072 Y-21.4710 
G01 X7.9282 Y-21.5494 
G01 X7.9282 Y-23.1868 
G01 X9.1075 Y-23.1868 
G01 X9.1075 Y-22.6741 
G01 X9.1235 Y-22.6355 
G01 X9.1530 Y-22.6060 
G01 X9.1916 Y-22.5900 
G01 X10.1334 Y-22.5900 
G01 X10.1720 Y-22.6060 
G01 X10.2015 Y-22.6355 
G01 X10.2175 Y-22.6741 
G01 X10.2175 Y-24.3159 
G01 X10.2015 Y-24.3545 
G01 X10.1720 Y-24.3840 
G01 X10.1334 Y-24.4000 
G01 X9.1916 Y-24.4000 
G01 X9.1530 Y-24.3840 
G01 X9.1235 Y-24.3545 
G01 X9.1075 Y-24.3159 
G01 X9.1075 Y-23.8032 
G01 X7.8525 Y-23.8032 
G01 X7.8525 Y-24.3219 
G01 X7.8365 Y-24.3605 
G01 X7.8070 Y-24.3900 
G01 X7.7684 Y-24.4060 
G01 X6.5266 Y-24.4060 
G01 X6.4880 Y-24.3900 
G01 X6.4585 Y-24.3605 
G01 X6.4425 Y-24.3219 
G01 X6.4425 Y-23.4801 
G01 X6.4585 Y-23.4415 
G01 X6.4880 Y-23.4120 
G01 X6.5266 Y-23.3960 
G00 Z0.8000 
G00 X21.2235 Y-2.4578 
G01 Z-0.0800 F100.00 
G01 X20.6373 Y-2.2150 F240.00 
G01 X20.0027 Y-2.2150 
G01 X19.4165 Y-2.4578 
G01 X18.9678 Y-2.9065 
G01 X18.7250 Y-3.4927 
G01 X18.7250 Y-4.1273 
G01 X18.9678 Y-4.7135 
G01 X19.4165 Y-5.1622 
G01 X20.0027 Y-5.4050 
G01 X20.6373 Y-5.4050 
G01 X21.2235 Y-5.1622 
G01 X21.6722 Y-4.7135 
G01 X21.9150 Y-4.1273 
G01 X21.9150 Y-3.4927 
G01 X21.6722 Y-2.9065 
G01 X21.2235 Y-2.4578 
G00 Z0.8000 
G00 X29.1153 Y-19.4218 
G01 Z-0.0800 F100.00 
G01 X29.0341 Y-19.4218 F240.00 
G01 X28.9557 Y-19.4008 
G01 X28.8855 Y-19.3602 
G01 X28.2648 Y-18.7395 
G01 X28.2242 Y-18.6693 
G01 X28.2032 Y-18.5909 
G01 X28.2032 Y-18.1328 
G01 X28.2032 Y-18.0923 
G01 X28.2032 Y-18.0518 
G01 X28.2133 Y-18.0141 
G01 X28.2242 Y-17.9734 
G01 X28.2428 Y-17.9411 
G01 X28.3600 Y-17.6582 
G01 X28.3600 Y-15.8818 
G01 X28.2542 Y-15.6263 
G01 X28.0587 Y-15.4308 
G01 X27.8032 Y-15.3250 
G01 X26.8068 Y-15.3250 
G01 X26.7944 Y-15.3301 
G01 X26.7505 Y-15.3483 
G01 X26.6700 Y-15.3589 
G01 X26.5895 Y-15.3483 
G01 X26.5332 Y-15.3250 
G01 X25.5723 Y-15.3250 
G01 X25.4939 Y-15.3040 
G01 X25.4237 Y-15.2634 
G01 X25.3663 Y-15.2060 
G01 X24.9061 Y-14.7459 
G01 X24.6388 Y-14.4785 
G01 X24.3087 Y-14.3418 
G01 X22.6813 Y-14.3418 
G01 X22.3512 Y-14.4785 
G01 X21.4635 Y-15.3662 
G01 X21.3268 Y-15.6963 
G01 X21.3268 Y-23.6737 
G01 X21.4635 Y-24.0038 
G01 X21.7882 Y-24.3285 
G01 X28.7012 Y-31.2415 
G01 X29.0313 Y-31.3782 
G01 X29.7676 Y-31.3782 
G01 X29.8105 Y-31.3897 
G01 X29.8460 Y-31.3992 
G01 X29.8577 Y-31.4060 
G01 X29.9162 Y-31.4398 
G01 X30.0372 Y-31.5608 
G01 X30.0778 Y-31.6310 
G01 X30.0873 Y-31.6665 
G01 X30.0988 Y-31.7094 
G01 X30.0988 Y-31.7906 
G01 X30.0878 Y-31.8317 
G01 X30.0778 Y-31.8690 
G01 X30.0720 Y-31.8789 
G01 X30.0372 Y-31.9392 
G01 X29.9798 Y-31.9966 
G01 X29.7750 Y-32.2015 
G01 X29.5550 Y-32.7326 
G01 X29.5550 Y-33.3074 
G01 X29.7750 Y-33.8385 
G01 X29.9798 Y-34.0434 
G01 X30.0346 Y-34.0982 
G01 X30.0372 Y-34.1008 
G01 X30.0778 Y-34.1710 
G01 X30.0988 Y-34.2494 
G01 X30.0988 Y-34.3306 
G01 X30.0787 Y-34.4056 
G01 X30.0778 Y-34.4090 
G01 X30.0372 Y-34.4792 
G01 X29.9807 Y-34.5357 
G01 X29.7750 Y-34.7415 
G01 X29.5550 Y-35.2726 
G01 X29.5550 Y-35.8474 
G01 X29.7750 Y-36.3785 
G01 X29.9798 Y-36.5834 
G01 X30.0372 Y-36.6408 
G01 X30.0685 Y-36.6949 
G01 X30.0778 Y-36.7110 
G01 X30.0988 Y-36.7894 
G01 X30.0988 Y-36.8706 
G01 X30.0778 Y-36.9490 
G01 X30.0372 Y-37.0192 
G01 X29.7750 Y-37.2815 
G01 X29.5550 Y-37.8126 
G01 X29.5550 Y-38.3874 
G01 X29.7750 Y-38.9185 
G01 X29.9798 Y-39.1234 
G01 X30.0346 Y-39.1782 
G01 X30.0372 Y-39.1808 
G01 X30.0778 Y-39.2510 
G01 X30.0988 Y-39.3294 
G01 X30.0988 Y-39.4106 
G01 X30.0787 Y-39.4856 
G01 X30.0778 Y-39.4890 
G01 X30.0372 Y-39.5592 
G01 X29.9807 Y-39.6157 
G01 X29.7750 Y-39.8215 
G01 X29.5550 Y-40.3526 
G01 X29.5550 Y-40.9274 
G01 X29.7750 Y-41.4585 
G01 X29.9798 Y-41.6634 
G01 X30.0346 Y-41.7182 
G01 X30.0372 Y-41.7208 
G01 X30.0778 Y-41.7910 
G01 X30.0988 Y-41.8694 
G01 X30.0988 Y-41.9506 
G01 X30.0787 Y-42.0256 
G01 X30.0778 Y-42.0290 
G01 X30.0372 Y-42.0992 
G01 X29.9807 Y-42.1557 
G01 X29.7750 Y-42.3615 
G01 X29.5550 Y-42.8926 
G01 X29.5550 Y-43.4674 
G01 X29.7750 Y-43.9985 
G01 X30.0372 Y-44.2608 
G01 X30.0778 Y-44.3310 
G01 X30.0988 Y-44.4094 
G01 X30.0988 Y-44.4906 
G01 X30.0778 Y-44.5690 
G01 X30.0381 Y-44.6377 
G01 X29.9798 Y-44.6966 
G01 X29.7750 Y-44.9015 
G01 X29.5550 Y-45.4326 
G01 X29.5550 Y-46.0074 
G01 X29.7750 Y-46.5385 
G01 X29.9798 Y-46.7434 
G01 X30.0346 Y-46.7982 
G01 X30.0372 Y-46.8008 
G01 X30.0778 Y-46.8710 
G01 X30.0988 Y-46.9494 
G01 X30.0988 Y-47.0306 
G01 X30.0787 Y-47.1056 
G01 X30.0778 Y-47.1090 
G01 X30.0372 Y-47.1792 
G01 X29.9807 Y-47.2357 
G01 X29.7750 Y-47.4415 
G01 X29.5550 Y-47.9726 
G01 X29.5550 Y-48.5474 
G01 X29.7750 Y-49.0785 
G01 X29.9798 Y-49.2834 
G01 X30.0346 Y-49.3382 
G01 X30.0372 Y-49.3408 
G01 X30.0778 Y-49.4110 
G01 X30.0988 Y-49.4894 
G01 X30.0988 Y-49.5706 
G01 X30.0787 Y-49.6456 
G01 X30.0778 Y-49.6490 
G01 X30.0372 Y-49.7192 
G01 X29.9807 Y-49.7757 
G01 X29.7750 Y-49.9815 
G01 X29.5550 Y-50.5126 
G01 X29.5550 Y-51.0874 
G01 X29.7750 Y-51.6185 
G01 X29.9798 Y-51.8234 
G01 X30.0346 Y-51.8782 
G01 X30.0372 Y-51.8808 
G01 X30.0778 Y-51.9510 
G01 X30.0988 Y-52.0294 
G01 X30.0988 Y-52.1106 
G01 X30.0787 Y-52.1856 
G01 X30.0778 Y-52.1890 
G01 X30.0372 Y-52.2592 
G01 X29.9807 Y-52.3157 
G01 X29.7750 Y-52.5215 
G01 X29.5550 Y-53.0526 
G01 X29.5550 Y-53.6274 
G01 X29.7750 Y-54.1585 
G01 X29.9798 Y-54.3634 
G01 X30.0346 Y-54.4182 
G01 X30.0372 Y-54.4208 
G01 X30.0778 Y-54.4910 
G01 X30.0988 Y-54.5694 
G01 X30.0988 Y-54.6506 
G01 X30.0787 Y-54.7256 
G01 X30.0778 Y-54.7290 
G01 X30.0372 Y-54.7992 
G01 X29.9807 Y-54.8557 
G01 X29.7750 Y-55.0615 
G01 X29.7216 Y-55.1903 
G01 X29.7163 Y-55.2100 
G01 X29.7062 Y-55.2277 
G01 X29.6984 Y-55.2465 
G01 X29.6859 Y-55.2627 
G01 X29.6758 Y-55.2803 
G01 X29.6614 Y-55.2947 
G01 X29.6490 Y-55.3109 
G01 X29.6328 Y-55.3233 
G01 X29.6184 Y-55.3377 
G01 X29.6007 Y-55.3479 
G01 X29.5846 Y-55.3603 
G01 X29.5658 Y-55.3681 
G01 X29.5481 Y-55.3783 
G01 X29.5284 Y-55.3835 
G01 X29.5096 Y-55.3913 
G01 X29.4894 Y-55.3940 
G01 X29.4697 Y-55.3993 
G01 X29.4493 Y-55.3993 
G01 X29.4291 Y-55.4019 
G01 X29.4089 Y-55.3993 
G01 X29.3886 Y-55.3993 
G01 X29.3689 Y-55.3940 
G01 X29.3487 Y-55.3913 
G01 X29.3299 Y-55.3835 
G01 X29.3102 Y-55.3783 
G01 X29.2925 Y-55.3681 
G01 X29.2737 Y-55.3603 
G01 X29.2575 Y-55.3479 
G01 X29.2399 Y-55.3377 
G01 X29.2255 Y-55.3233 
G01 X29.2093 Y-55.3109 
G01 X29.1969 Y-55.2947 
G01 X29.1825 Y-55.2803 
G01 X29.1723 Y-55.2626 
G01 X29.1599 Y-55.2465 
G01 X29.1521 Y-55.2277 
G01 X28.8935 Y-54.7797 
G01 X28.2203 Y-54.1065 
G01 X27.3957 Y-53.6304 
G01 X26.4761 Y-53.3840 
G01 X25.5239 Y-53.3840 
G01 X24.6043 Y-53.6304 
G01 X23.7797 Y-54.1065 
G01 X23.1065 Y-54.7797 
G01 X22.6304 Y-55.6043 
G01 X22.3840 Y-56.5239 
G01 X22.3840 Y-57.4761 
G01 X22.6304 Y-58.3957 
G01 X23.1065 Y-59.2203 
G01 X23.7797 Y-59.8935 
G01 X24.6043 Y-60.3696 
G01 X24.6753 Y-60.3886 
G01 X24.7537 Y-60.4096 
G01 X24.7934 Y-60.4325 
G01 X24.8240 Y-60.4502 
G01 X24.8813 Y-60.5076 
G01 X24.8980 Y-60.5364 
G01 X24.9219 Y-60.5778 
G01 X24.9429 Y-60.6562 
G01 X24.9429 Y-60.7374 
G01 X24.9219 Y-60.8158 
G01 X24.8990 Y-60.8554 
G01 X24.8813 Y-60.8860 
G01 X24.8240 Y-60.9434 
G01 X24.7951 Y-60.9601 
G01 X24.7537 Y-60.9840 
G01 X24.6753 Y-61.0050 
G01 X5.3247 Y-61.0050 
G01 X5.2463 Y-60.9840 
G01 X5.2066 Y-60.9611 
G01 X5.1760 Y-60.9434 
G01 X5.1187 Y-60.8860 
G01 X5.1020 Y-60.8572 
G01 X5.0781 Y-60.8158 
G01 X5.0571 Y-60.7374 
G01 X5.0571 Y-60.6562 
G01 X5.0781 Y-60.5778 
G01 X5.1010 Y-60.5382 
G01 X5.1187 Y-60.5076 
G01 X5.1760 Y-60.4502 
G01 X5.2049 Y-60.4335 
G01 X5.2463 Y-60.4096 
G01 X5.3247 Y-60.3886 
G01 X5.3957 Y-60.3696 
G01 X6.2203 Y-59.8935 
G01 X6.8935 Y-59.2203 
G01 X7.3696 Y-58.3957 
G01 X7.6160 Y-57.4761 
G01 X7.6160 Y-56.5239 
G01 X7.3696 Y-55.6043 
G01 X6.8935 Y-54.7797 
G01 X6.2203 Y-54.1065 
G01 X5.3957 Y-53.6304 
G01 X4.4761 Y-53.3840 
G01 X3.5239 Y-53.3840 
G01 X2.6043 Y-53.6304 
G01 X1.7797 Y-54.1065 
G01 X1.1065 Y-54.7797 
G01 X0.6304 Y-55.6043 
G01 X0.6114 Y-55.6753 
G01 X0.5904 Y-55.7537 
G01 X0.5675 Y-55.7934 
G01 X0.5498 Y-55.8240 
G01 X0.4924 Y-55.8813 
G01 X0.4636 Y-55.8980 
G01 X0.4222 Y-55.9219 
G01 X0.3438 Y-55.9429 
G01 X0.2626 Y-55.9429 
G01 X0.1842 Y-55.9219 
G01 X0.1446 Y-55.8990 
G01 X0.1140 Y-55.8813 
G01 X0.0566 Y-55.8240 
G01 X0.0399 Y-55.7951 
G01 X0.0160 Y-55.7537 
G01 X-0.0050 Y-55.6753 
G01 X-0.0050 Y-5.3247 
G01 X0.0160 Y-5.2463 
G01 X0.0566 Y-5.1760 
G01 X0.1140 Y-5.1187 
G01 X0.1750 Y-5.0834 
G01 X0.1842 Y-5.0781 
G01 X0.2626 Y-5.0571 
G01 X0.3438 Y-5.0571 
G01 X0.4222 Y-5.0781 
G01 X0.4924 Y-5.1187 
G01 X0.5498 Y-5.1760 
G01 X0.5850 Y-5.2370 
G01 X0.5904 Y-5.2463 
G01 X0.6017 Y-5.2885 
G01 X0.6114 Y-5.3247 
G01 X0.6304 Y-5.3957 
G01 X1.1065 Y-6.2203 
G01 X1.7797 Y-6.8935 
G01 X2.6043 Y-7.3696 
G01 X3.5239 Y-7.6160 
G01 X4.4761 Y-7.6160 
G01 X5.3957 Y-7.3696 
G01 X6.2203 Y-6.8935 
G01 X6.8935 Y-6.2203 
G01 X7.3696 Y-5.3957 
G01 X7.6160 Y-4.4761 
G01 X7.6160 Y-3.5239 
G01 X7.3696 Y-2.6043 
G01 X6.8935 Y-1.7797 
G01 X6.2203 Y-1.1065 
G01 X5.3957 Y-0.6304 
G01 X5.3247 Y-0.6114 
G01 X5.2463 Y-0.5904 
G01 X5.2066 Y-0.5675 
G01 X5.1760 Y-0.5498 
G01 X5.1187 Y-0.4924 
G01 X5.1020 Y-0.4636 
G01 X5.0781 Y-0.4222 
G01 X5.0571 Y-0.3438 
G01 X5.0571 Y-0.2626 
G01 X5.0781 Y-0.1842 
G01 X5.1010 Y-0.1446 
G01 X5.1187 Y-0.1140 
G01 X5.1760 Y-0.0566 
G01 X5.2048 Y-0.0399 
G01 X5.2463 Y-0.0160 
G01 X5.3247 Y0.0050 
G01 X29.6753 Y0.0050 
G01 X29.7537 Y-0.0160 
G01 X29.7934 Y-0.0389 
G01 X29.8240 Y-0.0566 
G01 X29.8813 Y-0.1140 
G01 X29.8980 Y-0.1428 
G01 X29.9219 Y-0.1842 
G01 X29.9429 Y-0.2626 
G01 X29.9429 Y-0.3438 
G01 X29.9219 Y-0.4222 
G01 X29.8990 Y-0.4618 
G01 X29.8813 Y-0.4924 
G01 X29.8240 Y-0.5498 
G01 X29.7951 Y-0.5665 
G01 X29.7537 Y-0.5904 
G01 X29.6753 Y-0.6114 
G01 X29.6043 Y-0.6304 
G01 X28.7797 Y-1.1065 
G01 X28.1065 Y-1.7797 
G01 X27.6304 Y-2.6043 
G01 X27.3840 Y-3.5239 
G01 X27.3840 Y-4.4761 
G01 X27.6304 Y-5.3957 
G01 X28.1065 Y-6.2203 
G01 X28.7797 Y-6.8935 
G01 X29.6043 Y-7.3696 
G01 X30.5239 Y-7.6160 
G01 X31.4761 Y-7.6160 
G01 X32.3957 Y-7.3696 
G01 X33.2203 Y-6.8935 
G01 X33.8935 Y-6.2203 
G01 X34.3696 Y-5.3957 
G01 X34.3886 Y-5.3247 
G01 X34.4096 Y-5.2463 
G01 X34.4325 Y-5.2066 
