(.../Eagle_ulp/mill_new/pcb-gcode.ulp)
(Copyright 2005 - 2012 by John Johnson)
(See readme.txt for licensing terms.)
(This file generated from the board:)
(.../IO_master/DPS/IO_master_nano2.brd)
(Current profile is .../Eagle_ulp/mill_new/profiles/GRBL.pp  )
(This file generated 03.01.2023 15:20:02)
(Settings from pcb-machine.h)
(  Tool Size)
(0.1900 )
(Z Axis Settings)
(  High     Up        Down     Drill)
(3.0000 	0.8000 	-0.0800 	-4.0000 )
(spindle on time = 2.0000)
(milling depth = -3.0000)
(text depth = -0.1000)
(tool change at 0.0000 20.0000 14.0000 )
(feed rate xy = F240.00 )
(feed rate z  = F100.00 )
( Tool|   Size   |  Min Sub |  Max Sub |   Count )
( T02     0.800mm 0.0315in 0.0236in 0.0320in 0011)
( T03     0.900mm 0.0354in 0.0354in 0.0360in 0044)
G21
(Absolute Coordinates)
G90
M05
G00 Z14.0000 
G00 X10.0000 Y20.0000 
T02  ; 0.8000 
M00
G00 X3.8100 Y-11.4300 
M03
G04 P2.00
G00 Z0.8000 
G00 Z1.200000
G00 X3.8100 Y-11.4300 
G01 Z-4.0000 F200.00 
G04 P0.300000 ; wait at bottom of hole
G00 Z0.8000 ; wait 0.30
G00 X3.8100 Y-16.5100 
G01 Z-4.000000
G04 P0.300000
G00 Z1.200000
G00 X4.0000 Y-4.0000 
G01 Z-4.000000
G04 P0.300000
G00 Z1.200000
G00 X4.0000 Y-57.0000 
G01 Z-4.000000
G04 P0.300000
G00 Z1.200000
G00 X7.6200 Y-20.3200 
G01 Z-4.000000
G04 P0.300000
G00 Z1.200000
G00 X10.1600 Y-3.8100 
G01 Z-4.000000
G04 P0.300000
G00 Z1.200000
G00 X10.1600 Y-20.3200 
G01 Z-4.000000
G04 P0.300000
G00 Z1.200000
G00 X12.0650 Y-12.7000 
G01 Z-4.000000
G04 P0.300000
G00 Z1.200000
G00 X13.3350 Y-10.1600 
G01 Z-4.000000
G04 P0.300000
G00 Z1.200000
G00 X14.6050 Y-12.7000 
G01 Z-4.000000
G04 P0.300000
G00 Z1.200000
G00 X15.8750 Y-10.1600 
G01 Z-4.000000
G04 P0.300000
G00 Z1.200000
G00 X17.1450 Y-12.7000 
G01 Z-4.000000
G04 P0.300000
G00 Z1.200000
G00 X18.4150 Y-10.1600 
G01 Z-4.000000
G04 P0.300000
G00 Z1.200000
G00 X20.3200 Y-3.8100 
G01 Z-4.000000
G04 P0.300000
G00 Z1.200000
G00 X26.0000 Y-57.0000 
G01 Z-4.000000
G04 P0.300000
G00 Z1.200000
G00 X31.0000 Y-4.0000 
G01 Z-4.000000
G04 P0.300000
G00 Z1.200000
M05
G00 Z14.0000 
G00 X10.0000 Y20.0000 
T03  ; 0.9000 
M00
G00 X31.7500 Y-33.0200 
M03
G04 P2.00
G00 Z0.8000 
G00 Z1.200000
G00 X31.7500 Y-33.0200 
G01 Z-4.0000 F200.00 
G04 P0.300000 ; wait at bottom of hole
G00 Z0.8000 ; wait 0.30
G00 X31.7500 Y-35.5600 
G01 Z-4.000000
G04 P0.300000
G00 Z1.200000
G00 X31.7500 Y-38.1000 
G01 Z-4.000000
G04 P0.300000
G00 Z1.200000
G00 X31.7500 Y-40.6400 
G01 Z-4.000000
G04 P0.300000
G00 Z1.200000
G00 X31.7500 Y-43.1800 
G01 Z-4.000000
G04 P0.300000
G00 Z1.200000
G00 X31.7500 Y-45.7200 
G01 Z-4.000000
G04 P0.300000
G00 Z1.200000
G00 X31.7500 Y-48.2600 
G01 Z-4.000000
G04 P0.300000
G00 Z1.200000
G00 X31.7500 Y-50.8000 
G01 Z-4.000000
G04 P0.300000
G00 Z1.200000
G00 X31.7500 Y-53.3400 
G01 Z-4.000000
G04 P0.300000
G00 Z1.200000
G00 X31.7500 Y-55.8800 
G01 Z-4.000000
G04 P0.300000
G00 Z1.200000
G00 X31.7500 Y-20.3200 
G01 Z-4.000000
G04 P0.300000
G00 Z1.200000
G00 X31.7500 Y-22.8600 
G01 Z-4.000000
G04 P0.300000
G00 Z1.200000
G00 X31.7500 Y-25.4000 
G01 Z-4.000000
G04 P0.300000
G00 Z1.200000
G00 X31.7500 Y-27.9400 
G01 Z-4.000000
G04 P0.300000
G00 Z1.200000
G00 X31.7500 Y-30.4800 
G01 Z-4.000000
G04 P0.300000
G00 Z1.200000
G00 X7.6200 Y-35.5600 
G01 Z-4.000000
G04 P0.300000
G00 Z1.200000
G00 X7.6200 Y-38.1000 
G01 Z-4.000000
G04 P0.300000
G00 Z1.200000
G00 X7.6200 Y-40.6400 
G01 Z-4.000000
G04 P0.300000
G00 Z1.200000
G00 X7.6200 Y-43.1800 
G01 Z-4.000000
G04 P0.300000
G00 Z1.200000
G00 X7.6200 Y-45.7200 
G01 Z-4.000000
G04 P0.300000
G00 Z1.200000
G00 X10.1600 Y-35.5600 
G01 Z-4.000000
G04 P0.300000
G00 Z1.200000
G00 X10.1600 Y-38.1000 
G01 Z-4.000000
G04 P0.300000
G00 Z1.200000
G00 X10.1600 Y-40.6400 
G01 Z-4.000000
G04 P0.300000
G00 Z1.200000
G00 X10.1600 Y-43.1800 
G01 Z-4.000000
G04 P0.300000
G00 Z1.200000
G00 X10.1600 Y-45.7200 
G01 Z-4.000000
G04 P0.300000
G00 Z1.200000
G00 X11.1125 Y-53.3400 
G01 Z-4.000000
G04 P0.300000
G00 Z1.200000
G00 X11.1125 Y-55.8800 
G01 Z-4.000000
G04 P0.300000
G00 Z1.200000
G00 X11.1125 Y-58.4200 
G01 Z-4.000000
G04 P0.300000
G00 Z1.200000
G00 X16.5100 Y-33.0200 
G01 Z-4.000000
G04 P0.300000
G00 Z1.200000
G00 X16.5100 Y-35.5600 
G01 Z-4.000000
G04 P0.300000
G00 Z1.200000
G00 X16.5100 Y-38.1000 
G01 Z-4.000000
G04 P0.300000
G00 Z1.200000
G00 X16.5100 Y-40.6400 
G01 Z-4.000000
G04 P0.300000
G00 Z1.200000
G00 X16.5100 Y-43.1800 
G01 Z-4.000000
G04 P0.300000
G00 Z1.200000
G00 X16.5100 Y-45.7200 
G01 Z-4.000000
G04 P0.300000
G00 Z1.200000
G00 X16.5100 Y-48.2600 
G01 Z-4.000000
G04 P0.300000
G00 Z1.200000
G00 X16.5100 Y-50.8000 
G01 Z-4.000000
G04 P0.300000
G00 Z1.200000
G00 X16.5100 Y-53.3400 
G01 Z-4.000000
G04 P0.300000
G00 Z1.200000
G00 X16.5100 Y-55.8800 
G01 Z-4.000000
G04 P0.300000
G00 Z1.200000
G00 X16.5100 Y-20.3200 
G01 Z-4.000000
G04 P0.300000
G00 Z1.200000
G00 X16.5100 Y-22.8600 
G01 Z-4.000000
G04 P0.300000
G00 Z1.200000
G00 X16.5100 Y-25.4000 
G01 Z-4.000000
G04 P0.300000
G00 Z1.200000
G00 X16.5100 Y-27.9400 
G01 Z-4.000000
G04 P0.300000
G00 Z1.200000
G00 X16.5100 Y-30.4800 
G01 Z-4.000000
G04 P0.300000
G00 Z1.200000
T01 
G00 Z3.0000 
M05
G00 Z14.0000 
G00 X10.0000 Y20.0000 
M02
