(.../Eagle_ulp/mill_new/pcb-gcode.ulp)
(Copyright 2005 - 2012 by John Johnson)
(See readme.txt for licensing terms.)
(This file generated from the board:)
(.../IO_master/DPS/IO_master_nano.brd)
(Current profile is .../Eagle_ulp/mill_new/profiles/GRBL.pp  )
(This file generated 29.10.2022 14:20:50)
(Settings from pcb-machine.h)
(  Tool Size)
(0.1900 )
(Z Axis Settings)
(  High     Up        Down     Drill)
(3.0000 	1.0000 	-0.0800 	-4.0000 )
(spindle on time = 2.0000)
(milling depth = -3.0000)
(text depth = -0.1000)
(tool change at 20.0000 20.0000 14.0000 )
(feed rate xy = F240.00 )
(feed rate z  = F100.00 )
G21
(Absolute Coordinates)
G90
G00 X0.0000 Y0.0000 
M03
G04 P2.00
G00 Z1.0000 
G00 X12.4129 Y-10.5419 
G01 Z-0.0800 F100.00 
G01 X12.4840 Y-10.6815 F240.00 
G01 X12.5761 Y-10.8082 
G01 X12.6868 Y-10.9189 
G01 X12.8135 Y-11.0110 
G01 X12.9531 Y-11.0821 
G01 X13.0268 Y-11.1061 
G01 X13.0268 Y-10.9037 
G01 X12.9537 Y-10.8734 
G01 X12.8218 Y-10.7853 
G01 X12.7097 Y-10.6732 
G01 X12.6216 Y-10.5413 
G01 X12.5913 Y-10.4682 
G01 X12.3889 Y-10.4682 
G01 X12.4129 Y-10.5419 
G00 Z1.0000 
G00 X12.9531 Y-9.2379 
G01 Z-0.0800 F100.00 
G01 X12.8135 Y-9.3090 F240.00 
G01 X12.6868 Y-9.4011 
G01 X12.5761 Y-9.5118 
G01 X12.4840 Y-9.6385 
G01 X12.4129 Y-9.7781 
G01 X12.3889 Y-9.8518 
G01 X12.5913 Y-9.8518 
G01 X12.6216 Y-9.7787 
G01 X12.7097 Y-9.6468 
G01 X12.8218 Y-9.5347 
G01 X12.9537 Y-9.4466 
G01 X13.0268 Y-9.4163 
G01 X13.0268 Y-9.2139 
G01 X12.9531 Y-9.2379 
G00 Z1.0000 
G00 X11.0635 Y-2.4578 
G01 Z-0.0800 F100.00 
G01 X10.4773 Y-2.2150 F240.00 
G01 X9.8427 Y-2.2150 
G01 X9.2565 Y-2.4578 
G01 X8.8078 Y-2.9065 
G01 X8.5650 Y-3.4927 
G01 X8.5650 Y-4.1273 
G01 X8.8078 Y-4.7135 
G01 X9.2565 Y-5.1622 
G01 X9.8427 Y-5.4050 
G01 X10.4773 Y-5.4050 
G01 X11.0635 Y-5.1622 
G01 X11.5122 Y-4.7135 
G01 X11.7550 Y-4.1273 
G01 X11.7550 Y-3.4927 
G01 X11.5122 Y-2.9065 
G01 X11.0635 Y-2.4578 
G00 Z1.0000 
G00 X30.3100 Y-10.3991 
G01 Z-0.0800 F100.00 
G01 X30.3100 Y-10.8618 F240.00 
G01 X30.5000 Y-10.8618 
G01 X30.5000 Y-10.3909 
G01 X30.4887 Y-10.3339 
G01 X30.4664 Y-10.2803 
G01 X30.4341 Y-10.2319 
G01 X30.3930 Y-10.1909 
G01 X30.3447 Y-10.1586 
G01 X30.2910 Y-10.1363 
G01 X30.2340 Y-10.1250 
G01 X30.1532 Y-10.1250 
G01 X30.1532 Y-10.3150 
G01 X30.2259 Y-10.3150 
G01 X30.2645 Y-10.3310 
G01 X30.2940 Y-10.3605 
G01 X30.3100 Y-10.3991 
G00 Z1.0000 
G00 X30.3100 Y-11.9409 
G01 Z-0.0800 F100.00 
G01 X30.2940 Y-11.9795 F240.00 
G01 X30.2645 Y-12.0090 
G01 X30.2259 Y-12.0250 
G01 X30.1532 Y-12.0250 
G01 X30.1532 Y-12.2150 
G01 X30.2340 Y-12.2150 
G01 X30.2910 Y-12.2037 
G01 X30.3447 Y-12.1814 
G01 X30.3930 Y-12.1491 
G01 X30.4341 Y-12.1080 
G01 X30.4664 Y-12.0597 
G01 X30.4887 Y-12.0060 
G01 X30.5000 Y-11.9490 
G01 X30.5000 Y-11.4782 
G01 X30.3100 Y-11.4782 
G01 X30.3100 Y-11.9409 
G00 Z1.0000 
G00 X4.1091 Y-29.0350 
G01 Z-0.0800 F100.00 
G01 X4.1660 Y-29.0237 F240.00 
G01 X4.2197 Y-29.0014 
G01 X4.2680 Y-28.9691 
G01 X4.3091 Y-28.9280 
G01 X4.3414 Y-28.8797 
G01 X4.3637 Y-28.8260 
G01 X4.3750 Y-28.7691 
G01 X4.3750 Y-28.2700 
G01 X4.1850 Y-28.2700 
G01 X4.1850 Y-28.7609 
G01 X4.1690 Y-28.7995 
G01 X4.1395 Y-28.8290 
G01 X4.1009 Y-28.8450 
G01 X3.9600 Y-28.8450 
G01 X3.9600 Y-29.0350 
G01 X4.1091 Y-29.0350 
G00 Z1.0000 
G00 X3.0750 Y-28.7609 
G01 Z-0.0800 F100.00 
G01 X3.0750 Y-28.2700 F240.00 
G01 X2.8850 Y-28.2700 
G01 X2.8850 Y-28.7691 
G01 X2.8963 Y-28.8260 
G01 X2.9186 Y-28.8797 
G01 X2.9508 Y-28.9280 
G01 X2.9919 Y-28.9691 
G01 X3.0403 Y-29.0014 
G01 X3.0939 Y-29.0237 
G01 X3.1509 Y-29.0350 
G01 X3.3000 Y-29.0350 
G01 X3.3000 Y-28.8450 
G01 X3.1591 Y-28.8450 
G01 X3.1205 Y-28.8290 
G01 X3.0910 Y-28.7995 
G01 X3.0750 Y-28.7609 
G00 Z1.0000 
G00 X3.0750 Y-27.1191 
G01 Z-0.0800 F100.00 
G01 X3.0910 Y-27.0805 F240.00 
G01 X3.1205 Y-27.0510 
G01 X3.1591 Y-27.0350 
G01 X3.3000 Y-27.0350 
G01 X3.3000 Y-26.8450 
G01 X3.1509 Y-26.8450 
G01 X3.0939 Y-26.8563 
G01 X3.0403 Y-26.8786 
G01 X2.9919 Y-26.9109 
G01 X2.9509 Y-26.9519 
G01 X2.9186 Y-27.0003 
G01 X2.8963 Y-27.0540 
G01 X2.8850 Y-27.1109 
G01 X2.8850 Y-27.6100 
G01 X3.0750 Y-27.6100 
G01 X3.0750 Y-27.1191 
G00 Z1.0000 
G00 X4.9050 Y-50.5009 
G01 Z-0.0800 F100.00 
G01 X4.8937 Y-50.4440 F240.00 
G01 X4.8714 Y-50.3903 
G01 X4.8391 Y-50.3419 
G01 X4.7980 Y-50.3009 
G01 X4.7497 Y-50.2686 
G01 X4.6960 Y-50.2463 
G01 X4.6391 Y-50.2350 
G01 X4.1400 Y-50.2350 
G01 X4.1400 Y-50.4250 
G01 X4.6309 Y-50.4250 
G01 X4.6695 Y-50.4410 
G01 X4.6990 Y-50.4705 
G01 X4.7150 Y-50.5091 
G01 X4.7150 Y-50.6500 
G01 X4.9050 Y-50.6500 
G01 X4.9050 Y-50.5009 
G00 Z1.0000 
G00 X2.7809 Y-51.6180 
G01 Z-0.0800 F100.00 
G01 X2.8219 Y-51.6591 F240.00 
G01 X2.8703 Y-51.6914 
G01 X2.9240 Y-51.7137 
G01 X2.9809 Y-51.7250 
G01 X3.4800 Y-51.7250 
G01 X3.4800 Y-51.5350 
G01 X2.9891 Y-51.5350 
G01 X2.9505 Y-51.5190 
G01 X2.9210 Y-51.4895 
G01 X2.9050 Y-51.4509 
G01 X2.9050 Y-51.3100 
G01 X2.7150 Y-51.3100 
G01 X2.7150 Y-51.4591 
G01 X2.7263 Y-51.5160 
G01 X2.7486 Y-51.5697 
G01 X2.7809 Y-51.6180 
G00 Z1.0000 
G00 X4.6391 Y-51.7250 
G01 Z-0.0800 F100.00 
G01 X4.6960 Y-51.7137 F240.00 
G01 X4.7497 Y-51.6914 
G01 X4.7980 Y-51.6591 
G01 X4.8391 Y-51.6180 
G01 X4.8714 Y-51.5697 
G01 X4.8937 Y-51.5160 
G01 X4.9050 Y-51.4591 
G01 X4.9050 Y-51.3100 
G01 X4.7150 Y-51.3100 
G01 X4.7150 Y-51.4509 
G01 X4.6990 Y-51.4895 
G01 X4.6695 Y-51.5190 
G01 X4.6309 Y-51.5350 
G01 X4.1400 Y-51.5350 
G01 X4.1400 Y-51.7250 
G01 X4.6391 Y-51.7250 
G00 Z1.0000 
G00 X4.3750 Y-27.1109 
G01 Z-0.0800 F100.00 
G01 X4.3637 Y-27.0540 F240.00 
G01 X4.3414 Y-27.0003 
G01 X4.3091 Y-26.9519 
G01 X4.2680 Y-26.9109 
G01 X4.2197 Y-26.8786 
G01 X4.1660 Y-26.8563 
G01 X4.1090 Y-26.8450 
G01 X3.9600 Y-26.8450 
G01 X3.9600 Y-27.0350 
G01 X4.1009 Y-27.0350 
G01 X4.1395 Y-27.0510 
G01 X4.1690 Y-27.0805 
G01 X4.1850 Y-27.1191 
G01 X4.1850 Y-27.6100 
G01 X4.3750 Y-27.6100 
G01 X4.3750 Y-27.1109 
G00 Z1.0000 
G00 X2.9809 Y-50.2350 
G01 Z-0.0800 F100.00 
G01 X2.9240 Y-50.2463 F240.00 
G01 X2.8702 Y-50.2686 
G01 X2.8219 Y-50.3009 
G01 X2.7809 Y-50.3419 
G01 X2.7486 Y-50.3903 
G01 X2.7263 Y-50.4440 
G01 X2.7150 Y-50.5009 
G01 X2.7150 Y-50.6500 
G01 X2.9050 Y-50.6500 
G01 X2.9050 Y-50.5091 
G01 X2.9210 Y-50.4705 
G01 X2.9505 Y-50.4410 
G01 X2.9891 Y-50.4250 
G01 X3.4800 Y-50.4250 
G01 X3.4800 Y-50.2350 
G01 X2.9809 Y-50.2350 
G00 Z1.0000 
G00 X4.1091 Y-25.2250 
G01 Z-0.0800 F100.00 
G01 X4.1660 Y-25.2137 F240.00 
G01 X4.2197 Y-25.1914 
G01 X4.2680 Y-25.1591 
G01 X4.3091 Y-25.1180 
G01 X4.3414 Y-25.0697 
G01 X4.3637 Y-25.0160 
G01 X4.3750 Y-24.9591 
G01 X4.3750 Y-24.4600 
G01 X4.1850 Y-24.4600 
G01 X4.1850 Y-24.9509 
G01 X4.1690 Y-24.9895 
G01 X4.1395 Y-25.0190 
G01 X4.1009 Y-25.0350 
G01 X3.9600 Y-25.0350 
G01 X3.9600 Y-25.2250 
G01 X4.1091 Y-25.2250 
G00 Z1.0000 
G00 X3.0750 Y-24.9509 
G01 Z-0.0800 F100.00 
G01 X3.0750 Y-24.4600 F240.00 
G01 X2.8850 Y-24.4600 
G01 X2.8850 Y-24.9591 
G01 X2.8963 Y-25.0160 
G01 X2.9186 Y-25.0697 
G01 X2.9509 Y-25.1180 
G01 X2.9919 Y-25.1591 
G01 X3.0403 Y-25.1914 
G01 X3.0939 Y-25.2137 
G01 X3.1509 Y-25.2250 
G01 X3.3000 Y-25.2250 
G01 X3.3000 Y-25.0350 
G01 X3.1591 Y-25.0350 
G01 X3.1205 Y-25.0190 
G01 X3.0910 Y-24.9895 
G01 X3.0750 Y-24.9509 
G00 Z1.0000 
G00 X3.0750 Y-23.3091 
G01 Z-0.0800 F100.00 
G01 X3.0910 Y-23.2705 F240.00 
G01 X3.1205 Y-23.2410 
G01 X3.1591 Y-23.2250 
G01 X3.3000 Y-23.2250 
G01 X3.3000 Y-23.0350 
G01 X3.1509 Y-23.0350 
G01 X3.0939 Y-23.0463 
G01 X3.0403 Y-23.0686 
G01 X2.9919 Y-23.1009 
G01 X2.9508 Y-23.1419 
G01 X2.9186 Y-23.1903 
G01 X2.8963 Y-23.2440 
G01 X2.8850 Y-23.3009 
G01 X2.8850 Y-23.8000 
G01 X3.0750 Y-23.8000 
G01 X3.0750 Y-23.3091 
G00 Z1.0000 
G00 X4.3750 Y-23.3009 
G01 Z-0.0800 F100.00 
G01 X4.3637 Y-23.2440 F240.00 
G01 X4.3414 Y-23.1903 
G01 X4.3091 Y-23.1419 
G01 X4.2680 Y-23.1009 
G01 X4.2197 Y-23.0686 
G01 X4.1660 Y-23.0463 
G01 X4.1091 Y-23.0350 
G01 X3.9600 Y-23.0350 
G01 X3.9600 Y-23.2250 
G01 X4.1009 Y-23.2250 
G01 X4.1395 Y-23.2410 
G01 X4.1690 Y-23.2705 
G01 X4.1850 Y-23.3091 
G01 X4.1850 Y-23.8000 
G01 X4.3750 Y-23.8000 
G01 X4.3750 Y-23.3009 
G00 Z1.0000 
G00 X10.9942 Y-51.6550 
G01 Z-0.0800 F100.00 
G01 X10.4900 Y-51.6550 F240.00 
G01 X10.4900 Y-51.8450 
G01 X10.9922 Y-51.8450 
G01 X11.1547 Y-51.8193 
G01 X11.3111 Y-51.7684 
G01 X11.4577 Y-51.6938 
G01 X11.5908 Y-51.5971 
G01 X11.7071 Y-51.4808 
G01 X11.8038 Y-51.3477 
G01 X11.8784 Y-51.2011 
G01 X11.9016 Y-51.1300 
G01 X11.6988 Y-51.1300 
G01 X11.6677 Y-51.2050 
G01 X11.5741 Y-51.3450 
G01 X11.4550 Y-51.4641 
G01 X11.3150 Y-51.5577 
G01 X11.1594 Y-51.6221 
G01 X10.9942 Y-51.6550 
G00 Z1.0000 
G00 X9.3258 Y-51.6550 
G01 Z-0.0800 F100.00 
G01 X9.1606 Y-51.6221 F240.00 
G01 X9.0050 Y-51.5577 
G01 X8.8900 Y-51.4808 
G01 X8.7750 Y-51.5577 
G01 X8.6194 Y-51.6221 
G01 X8.4542 Y-51.6550 
G01 X7.9500 Y-51.6550 
G01 X7.9500 Y-51.8450 
G01 X8.4522 Y-51.8450 
G01 X8.6147 Y-51.8193 
G01 X8.7557 Y-51.7734 
G01 X8.7714 Y-51.7683 
G01 X8.7858 Y-51.7609 
G01 X8.8098 Y-51.7558 
G01 X8.8331 Y-51.7482 
G01 X8.8493 Y-51.7473 
G01 X8.8652 Y-51.7439 
G01 X8.8896 Y-51.7452 
G01 X8.9141 Y-51.7439 
G01 X8.9300 Y-51.7472 
G01 X8.9462 Y-51.7480 
G01 X8.9695 Y-51.7556 
G01 X8.9935 Y-51.7607 
G01 X9.0080 Y-51.7680 
G01 X9.0234 Y-51.7730 
G01 X9.1653 Y-51.8193 
G01 X9.3278 Y-51.8450 
G01 X9.8300 Y-51.8450 
G01 X9.8300 Y-51.6550 
G01 X9.3258 Y-51.6550 
G00 Z1.0000 
G00 X3.3564 Y-19.2249 
G01 Z-0.0800 F100.00 
G01 X2.7149 Y-19.8664 F240.00 
G01 X2.7149 Y-20.0118 
G01 X2.9049 Y-20.0118 
G01 X2.9049 Y-19.9451 
G01 X3.4351 Y-19.4149 
G01 X3.5018 Y-19.4149 
G01 X3.5018 Y-19.2249 
G01 X3.3564 Y-19.2249 
G00 Z1.0000 
G00 X13.9948 Y-26.0497 
G01 Z-0.0800 F100.00 
G01 X13.9165 Y-25.8961 F240.00 
G01 X13.8152 Y-25.7567 
G01 X13.6933 Y-25.6348 
G01 X13.5539 Y-25.5335 
G01 X13.4003 Y-25.4552 
G01 X13.2364 Y-25.4020 
G01 X13.0662 Y-25.3750 
G01 X13.0414 Y-25.3750 
G01 X13.0414 Y-25.5650 
G01 X13.0691 Y-25.5650 
G01 X13.2440 Y-25.5998 
G01 X13.4087 Y-25.6680 
G01 X13.5569 Y-25.7670 
G01 X13.6830 Y-25.8931 
G01 X13.7820 Y-26.0413 
G01 X13.8306 Y-26.1586 
G01 X14.0302 Y-26.1586 
G01 X13.9948 Y-26.0497 
G00 Z1.0000 
G00 X6.1123 Y-50.3950 
G01 Z-0.0800 F100.00 
G01 X6.2059 Y-50.2550 F240.00 
G01 X6.3250 Y-50.1359 
G01 X6.4650 Y-50.0423 
G01 X6.6206 Y-49.9779 
G01 X6.7858 Y-49.9450 
G01 X8.4542 Y-49.9450 
G01 X8.6194 Y-49.9779 
G01 X8.7750 Y-50.0423 
G01 X8.8900 Y-50.1192 
G01 X9.0050 Y-50.0423 
G01 X9.1606 Y-49.9779 
G01 X9.3258 Y-49.9450 
G01 X10.9942 Y-49.9450 
G01 X11.1594 Y-49.9779 
G01 X11.3150 Y-50.0423 
G01 X11.4550 Y-50.1359 
G01 X11.5741 Y-50.2550 
G01 X11.6677 Y-50.3950 
G01 X11.6988 Y-50.4700 
G01 X11.9016 Y-50.4700 
G01 X11.8784 Y-50.3989 
G01 X11.8038 Y-50.2523 
G01 X11.7071 Y-50.1192 
G01 X11.5908 Y-50.0029 
G01 X11.4577 Y-49.9062 
G01 X11.3115 Y-49.8317 
G01 X11.2997 Y-49.8302 
G01 X11.2734 Y-49.8193 
G01 X11.2464 Y-49.8105 
G01 X11.2361 Y-49.8038 
G01 X11.2247 Y-49.7991 
G01 X11.2022 Y-49.7818 
G01 X11.1783 Y-49.7663 
G01 X11.1701 Y-49.7572 
G01 X11.1604 Y-49.7497 
G01 X11.1430 Y-49.7272 
G01 X11.1240 Y-49.7060 
G01 X11.1184 Y-49.6951 
G01 X11.1110 Y-49.6854 
G01 X11.1001 Y-49.6591 
G01 X11.0872 Y-49.6337 
G01 X11.0846 Y-49.6217 
G01 X11.0799 Y-49.6104 
G01 X11.0762 Y-49.5822 
G01 X11.0703 Y-49.5543 
G01 X11.0709 Y-49.5421 
G01 X11.0693 Y-49.5299 
G01 X11.0730 Y-49.5017 
G01 X11.0745 Y-49.4733 
G01 X11.0783 Y-49.4616 
G01 X11.0799 Y-49.4495 
G01 X11.0908 Y-49.4232 
G01 X11.0996 Y-49.3961 
G01 X11.1063 Y-49.3858 
G01 X11.1110 Y-49.3745 
G01 X11.1283 Y-49.3519 
G01 X11.1438 Y-49.3281 
G01 X11.1529 Y-49.3199 
G01 X11.1604 Y-49.3101 
G01 X11.1830 Y-49.2928 
G01 X11.2041 Y-49.2738 
G01 X11.2150 Y-49.2682 
G01 X11.2247 Y-49.2607 
G01 X11.2510 Y-49.2498 
G01 X11.2764 Y-49.2369 
G01 X11.2884 Y-49.2344 
G01 X11.5019 Y-49.1459 
G01 X11.7959 Y-48.8519 
G01 X11.9550 Y-48.4679 
G01 X11.9550 Y-48.0521 
G01 X11.7959 Y-47.6681 
G01 X11.5019 Y-47.3741 
G01 X11.2996 Y-47.2903 
G01 X11.2246 Y-47.2592 
G01 X11.1602 Y-47.2098 
G01 X11.1326 Y-47.1739 
G01 X11.1108 Y-47.1454 
G01 X11.0976 Y-47.1135 
G01 X11.0798 Y-47.0705 
G01 X11.0707 Y-47.0015 
G01 X11.0692 Y-46.9900 
G01 X11.0798 Y-46.9095 
G01 X11.1108 Y-46.8346 
G01 X11.1602 Y-46.7702 
G01 X11.1961 Y-46.7426 
G01 X11.2246 Y-46.7208 
G01 X11.2861 Y-46.6953 
G01 X11.5019 Y-46.6059 
G01 X11.7707 Y-46.3372 
G01 X11.8219 Y-46.2860 
G01 X11.8281 Y-46.2798 
G01 X11.8983 Y-46.2392 
G01 X11.9767 Y-46.2182 
G01 X14.6933 Y-46.2182 
G01 X14.7716 Y-46.2392 
G01 X14.8419 Y-46.2798 
G01 X15.1680 Y-46.6059 
G01 X15.3874 Y-46.6968 
G01 X15.4454 Y-46.7208 
G01 X15.4729 Y-46.7418 
G01 X15.5098 Y-46.7702 
G01 X15.5592 Y-46.8346 
G01 X15.5902 Y-46.9095 
G01 X15.6008 Y-46.9900 
G01 X15.5996 Y-46.9997 
G01 X15.5902 Y-47.0705 
G01 X15.5717 Y-47.1153 
G01 X15.5592 Y-47.1454 
G01 X15.5381 Y-47.1729 
G01 X15.5098 Y-47.2098 
G01 X15.4454 Y-47.2592 
G01 X15.3704 Y-47.2903 
G01 X15.1681 Y-47.3741 
G01 X14.8741 Y-47.6681 
G01 X14.7150 Y-48.0521 
G01 X14.7150 Y-48.4679 
G01 X14.8741 Y-48.8519 
G01 X15.1680 Y-49.1459 
G01 X15.3874 Y-49.2368 
G01 X15.4454 Y-49.2608 
G01 X15.4729 Y-49.2819 
G01 X15.5098 Y-49.3102 
G01 X15.5592 Y-49.3746 
G01 X15.5902 Y-49.4495 
G01 X15.6008 Y-49.5300 
G01 X15.5996 Y-49.5397 
G01 X15.5902 Y-49.6105 
G01 X15.5717 Y-49.6553 
G01 X15.5592 Y-49.6854 
G01 X15.5381 Y-49.7129 
G01 X15.5098 Y-49.7498 
G01 X15.4454 Y-49.7992 
G01 X15.3704 Y-49.8303 
G01 X15.1681 Y-49.9141 
G01 X14.8741 Y-50.2081 
G01 X14.7150 Y-50.5921 
G01 X14.7150 Y-51.0079 
G01 X14.8741 Y-51.3919 
G01 X15.1680 Y-51.6859 
G01 X15.3874 Y-51.7768 
G01 X15.4454 Y-51.8008 
G01 X15.4729 Y-51.8219 
G01 X15.5098 Y-51.8502 
G01 X15.5592 Y-51.9146 
G01 X15.5902 Y-51.9895 
G01 X15.6008 Y-52.0700 
G01 X15.5996 Y-52.0797 
G01 X15.5902 Y-52.1505 
G01 X15.5717 Y-52.1953 
G01 X15.5592 Y-52.2254 
G01 X15.5381 Y-52.2529 
G01 X15.5098 Y-52.2898 
G01 X15.4454 Y-52.3392 
G01 X15.3704 Y-52.3703 
G01 X15.1681 Y-52.4541 
G01 X14.8741 Y-52.7481 
G01 X14.7150 Y-53.1321 
G01 X14.7150 Y-53.5479 
G01 X14.8741 Y-53.9319 
G01 X15.1680 Y-54.2259 
G01 X15.3874 Y-54.3168 
G01 X15.4454 Y-54.3408 
G01 X15.4729 Y-54.3619 
G01 X15.5098 Y-54.3902 
G01 X15.5592 Y-54.4546 
G01 X15.5902 Y-54.5295 
G01 X15.6008 Y-54.6100 
G01 X15.5996 Y-54.6197 
G01 X15.5902 Y-54.6905 
G01 X15.5717 Y-54.7353 
G01 X15.5592 Y-54.7654 
G01 X15.5381 Y-54.7929 
G01 X15.5098 Y-54.8298 
G01 X15.4454 Y-54.8792 
G01 X15.3704 Y-54.9103 
G01 X15.1681 Y-54.9941 
G01 X14.8741 Y-55.2881 
G01 X14.7150 Y-55.6721 
G01 X14.7150 Y-56.0879 
G01 X14.8741 Y-56.4719 
G01 X15.1681 Y-56.7659 
G01 X15.5521 Y-56.9250 
G01 X17.4679 Y-56.9250 
G01 X17.8519 Y-56.7659 
G01 X18.1459 Y-56.4719 
G01 X18.3050 Y-56.0879 
G01 X18.3050 Y-55.6721 
G01 X18.1459 Y-55.2881 
G01 X17.8519 Y-54.9941 
G01 X17.6496 Y-54.9103 
G01 X17.5746 Y-54.8792 
G01 X17.5102 Y-54.8298 
G01 X17.4826 Y-54.7939 
G01 X17.4608 Y-54.7654 
G01 X17.4476 Y-54.7335 
G01 X17.4298 Y-54.6905 
G01 X17.4207 Y-54.6215 
G01 X17.4192 Y-54.6100 
G01 X17.4298 Y-54.5295 
G01 X17.4608 Y-54.4546 
G01 X17.5102 Y-54.3902 
G01 X17.5461 Y-54.3626 
G01 X17.5746 Y-54.3408 
G01 X17.6361 Y-54.3153 
G01 X17.8519 Y-54.2259 
G01 X18.1459 Y-53.9319 
G01 X18.3050 Y-53.5479 
G01 X18.3050 Y-53.1321 
G01 X18.1459 Y-52.7481 
G01 X17.8519 Y-52.4541 
G01 X17.6496 Y-52.3703 
G01 X17.5746 Y-52.3392 
G01 X17.5102 Y-52.2898 
G01 X17.4826 Y-52.2539 
G01 X17.4608 Y-52.2254 
G01 X17.4476 Y-52.1935 
G01 X17.4298 Y-52.1505 
G01 X17.4207 Y-52.0815 
G01 X17.4192 Y-52.0700 
G01 X17.4298 Y-51.9895 
G01 X17.4608 Y-51.9146 
G01 X17.5102 Y-51.8502 
G01 X17.5461 Y-51.8226 
G01 X17.5746 Y-51.8008 
G01 X17.6361 Y-51.7753 
G01 X17.8519 Y-51.6859 
G01 X18.1459 Y-51.3919 
G01 X18.3050 Y-51.0079 
G01 X18.3050 Y-50.5921 
G01 X18.1459 Y-50.2081 
G01 X17.8519 Y-49.9141 
G01 X17.6496 Y-49.8303 
G01 X17.5746 Y-49.7992 
G01 X17.5102 Y-49.7498 
G01 X17.4826 Y-49.7139 
G01 X17.4608 Y-49.6854 
G01 X17.4476 Y-49.6535 
G01 X17.4298 Y-49.6105 
G01 X17.4207 Y-49.5415 
G01 X17.4192 Y-49.5300 
G01 X17.4298 Y-49.4495 
G01 X17.4608 Y-49.3746 
G01 X17.5102 Y-49.3102 
G01 X17.5461 Y-49.2826 
G01 X17.5746 Y-49.2608 
G01 X17.6361 Y-49.2353 
G01 X17.8519 Y-49.1459 
G01 X18.1459 Y-48.8519 
G01 X18.3050 Y-48.4679 
G01 X18.3050 Y-48.0521 
G01 X18.1459 Y-47.6681 
G01 X17.8519 Y-47.3741 
G01 X17.6496 Y-47.2903 
G01 X17.5746 Y-47.2592 
G01 X17.5102 Y-47.2098 
G01 X17.4826 Y-47.1739 
G01 X17.4608 Y-47.1454 
G01 X17.4476 Y-47.1135 
G01 X17.4298 Y-47.0705 
G01 X17.4207 Y-47.0015 
G01 X17.4192 Y-46.9900 
G01 X17.4298 Y-46.9095 
G01 X17.4608 Y-46.8346 
G01 X17.5102 Y-46.7702 
G01 X17.5461 Y-46.7426 
G01 X17.5746 Y-46.7208 
G01 X17.6361 Y-46.6953 
G01 X17.8519 Y-46.6059 
G01 X18.1459 Y-46.3119 
G01 X18.3050 Y-45.9279 
G01 X18.3050 Y-45.5121 
G01 X18.1459 Y-45.1281 
G01 X17.8519 Y-44.8341 
G01 X17.6496 Y-44.7503 
G01 X17.5746 Y-44.7192 
G01 X17.5102 Y-44.6698 
G01 X17.4826 Y-44.6339 
G01 X17.4608 Y-44.6054 
G01 X17.4476 Y-44.5735 
G01 X17.4298 Y-44.5305 
G01 X17.4207 Y-44.4615 
G01 X17.4192 Y-44.4500 
G01 X17.4298 Y-44.3695 
G01 X17.4608 Y-44.2946 
G01 X17.5102 Y-44.2302 
G01 X17.5461 Y-44.2026 
G01 X17.5746 Y-44.1808 
G01 X17.6361 Y-44.1553 
G01 X17.8519 Y-44.0659 
G01 X18.1459 Y-43.7719 
G01 X18.3050 Y-43.3879 
G01 X18.3050 Y-42.9721 
G01 X18.1459 Y-42.5881 
G01 X17.8519 Y-42.2941 
G01 X17.6496 Y-42.2103 
G01 X17.5746 Y-42.1792 
G01 X17.5102 Y-42.1298 
G01 X17.4826 Y-42.0939 
G01 X17.4608 Y-42.0654 
G01 X17.4476 Y-42.0335 
G01 X17.4298 Y-41.9905 
G01 X17.4207 Y-41.9215 
G01 X17.4192 Y-41.9100 
G01 X17.4298 Y-41.8295 
G01 X17.4608 Y-41.7546 
G01 X17.5102 Y-41.6902 
G01 X17.5461 Y-41.6626 
G01 X17.5746 Y-41.6408 
G01 X17.6361 Y-41.6153 
G01 X17.8519 Y-41.5259 
G01 X18.1459 Y-41.2319 
G01 X18.3050 Y-40.8479 
G01 X18.3050 Y-40.4321 
G01 X18.1459 Y-40.0481 
G01 X17.8519 Y-39.7541 
G01 X17.6496 Y-39.6703 
G01 X17.5746 Y-39.6392 
G01 X17.5102 Y-39.5898 
G01 X17.4826 Y-39.5539 
G01 X17.4608 Y-39.5254 
G01 X17.4476 Y-39.4935 
G01 X17.4298 Y-39.4505 
G01 X17.4207 Y-39.3815 
G01 X17.4192 Y-39.3700 
G01 X17.4298 Y-39.2895 
G01 X17.4608 Y-39.2146 
G01 X17.5102 Y-39.1502 
G01 X17.5461 Y-39.1226 
G01 X17.5746 Y-39.1008 
G01 X17.6361 Y-39.0753 
G01 X17.8519 Y-38.9859 
G01 X18.1459 Y-38.6919 
G01 X18.3050 Y-38.3079 
G01 X18.3050 Y-37.8921 
G01 X18.1459 Y-37.5081 
G01 X17.8519 Y-37.2141 
G01 X17.6496 Y-37.1303 
G01 X17.5746 Y-37.0992 
G01 X17.5102 Y-37.0498 
G01 X17.4826 Y-37.0139 
G01 X17.4608 Y-36.9854 
G01 X17.4476 Y-36.9535 
G01 X17.4298 Y-36.9105 
G01 X17.4207 Y-36.8415 
G01 X17.4192 Y-36.8300 
G01 X17.4298 Y-36.7495 
G01 X17.4608 Y-36.6746 
G01 X17.5102 Y-36.6102 
G01 X17.5461 Y-36.5826 
G01 X17.5746 Y-36.5608 
G01 X17.6361 Y-36.5353 
G01 X17.8519 Y-36.4459 
G01 X18.1459 Y-36.1519 
G01 X18.3050 Y-35.7679 
G01 X18.3050 Y-35.3521 
G01 X18.1459 Y-34.9681 
G01 X17.8519 Y-34.6741 
G01 X17.6496 Y-34.5903 
G01 X17.5746 Y-34.5592 
G01 X17.5102 Y-34.5098 
G01 X17.4826 Y-34.4739 
G01 X17.4608 Y-34.4454 
G01 X17.4476 Y-34.4135 
G01 X17.4298 Y-34.3705 
G01 X17.4207 Y-34.3015 
G01 X17.4192 Y-34.2900 
G01 X17.4298 Y-34.2095 
G01 X17.4608 Y-34.1346 
G01 X17.5102 Y-34.0702 
G01 X17.5461 Y-34.0426 
G01 X17.5746 Y-34.0208 
G01 X17.6361 Y-33.9953 
G01 X17.8519 Y-33.9059 
G01 X18.1459 Y-33.6119 
G01 X18.3050 Y-33.2279 
G01 X18.3050 Y-32.8121 
G01 X18.1459 Y-32.4281 
G01 X17.8519 Y-32.1341 
G01 X17.6496 Y-32.0503 
G01 X17.5746 Y-32.0192 
G01 X17.5102 Y-31.9698 
G01 X17.4826 Y-31.9339 
G01 X17.4608 Y-31.9054 
G01 X17.4476 Y-31.8735 
G01 X17.4298 Y-31.8305 
G01 X17.4207 Y-31.7615 
G01 X17.4192 Y-31.7500 
G01 X17.4298 Y-31.6695 
G01 X17.4608 Y-31.5946 
G01 X17.5102 Y-31.5302 
G01 X17.5461 Y-31.5026 
G01 X17.5746 Y-31.4808 
G01 X17.6361 Y-31.4553 
G01 X17.8519 Y-31.3659 
G01 X18.1459 Y-31.0719 
G01 X18.3050 Y-30.6879 
G01 X18.3050 Y-30.2721 
G01 X18.1459 Y-29.8881 
G01 X17.8519 Y-29.5941 
G01 X17.6496 Y-29.5103 
G01 X17.5746 Y-29.4792 
G01 X17.5102 Y-29.4298 
G01 X17.4687 Y-29.3757 
G01 X17.4608 Y-29.3654 
G01 X17.4298 Y-29.2905 
G01 X17.4192 Y-29.2100 
G01 X17.4298 Y-29.1295 
G01 X17.4608 Y-29.0546 
G01 X17.5102 Y-28.9902 
G01 X17.5643 Y-28.9487 
G01 X17.5746 Y-28.9408 
G01 X17.8519 Y-28.8259 
G01 X18.1207 Y-28.5572 
G01 X18.1719 Y-28.5060 
G01 X18.1781 Y-28.4998 
G01 X18.2483 Y-28.4592 
G01 X18.3267 Y-28.4382 
G01 X19.1491 Y-28.4382 
G01 X19.3322 Y-28.3624 
G01 X20.5875 Y-27.1070 
G01 X20.7424 Y-26.9522 
G01 X20.8182 Y-26.7691 
G01 X20.8182 Y-15.5334 
G01 X20.8392 Y-15.4551 
G01 X20.8798 Y-15.3848 
G01 X20.9372 Y-15.3274 
G01 X24.5348 Y-11.7298 
G01 X24.6051 Y-11.6892 
G01 X24.6834 Y-11.6682 
G01 X25.1124 Y-11.6682 
G01 X25.1908 Y-11.6892 
G01 X25.2610 Y-11.7298 
G01 X25.3184 Y-11.7872 
G01 X25.3590 Y-11.8574 
G01 X25.3800 Y-11.9358 
G01 X25.3800 Y-12.0422 
G01 X25.5528 Y-12.2150 
G01 X26.5439 Y-12.2150 
G01 X26.5510 Y-12.2109 
G01 X26.5809 Y-12.2029 
G01 X26.6294 Y-12.1899 
G01 X26.6695 Y-12.1898 
G01 X26.7106 Y-12.1898 
G01 X26.7573 Y-12.2024 
G01 X26.7889 Y-12.2108 
G01 X26.7961 Y-12.2150 
G01 X27.8139 Y-12.2150 
G01 X27.8210 Y-12.2109 
G01 X27.8509 Y-12.2028 
G01 X27.8994 Y-12.1898 
G01 X27.9396 Y-12.1898 
G01 X27.9806 Y-12.1898 
G01 X28.0273 Y-12.2024 
G01 X28.0590 Y-12.2109 
G01 X28.0661 Y-12.2150 
G01 X29.0636 Y-12.2150 
G01 X29.0822 Y-12.2012 
G01 X29.1010 Y-12.1934 
G01 X29.1186 Y-12.1832 
G01 X29.1383 Y-12.1780 
G01 X29.1572 Y-12.1702 
G01 X29.1773 Y-12.1675 
G01 X29.1970 Y-12.1622 
G01 X29.2174 Y-12.1622 
G01 X29.2376 Y-12.1596 
G01 X29.2578 Y-12.1622 
G01 X29.2782 Y-12.1622 
G01 X29.2979 Y-12.1675 
G01 X29.3181 Y-12.1702 
G01 X29.3369 Y-12.1780 
G01 X29.3566 Y-12.1832 
G01 X29.3742 Y-12.1934 
G01 X29.3989 Y-12.2037 
G01 X29.4559 Y-12.2150 
G01 X29.5368 Y-12.2150 
G01 X29.5368 Y-12.0250 
G01 X29.4641 Y-12.0250 
G01 X29.4255 Y-12.0090 
G01 X29.3960 Y-11.9795 
G01 X29.3800 Y-11.9409 
G01 X29.3800 Y-10.3991 
G01 X29.3960 Y-10.3605 
G01 X29.4255 Y-10.3310 
G01 X29.4641 Y-10.3150 
G01 X29.5368 Y-10.3150 
G01 X29.5368 Y-10.1250 
G01 X29.4559 Y-10.1250 
G01 X29.4514 Y-10.1259 
G01 X29.4220 Y-10.1338 
G01 X29.4118 Y-10.1338 
G01 X29.4017 Y-10.1358 
G01 X29.3713 Y-10.1338 
G01 X29.3408 Y-10.1338 
G01 X29.3310 Y-10.1311 
G01 X29.3208 Y-10.1305 
G01 X29.2919 Y-10.1207 
G01 X29.2624 Y-10.1128 
G01 X29.2536 Y-10.1077 
G01 X29.2439 Y-10.1044 
G01 X29.2186 Y-10.0875 
G01 X29.1922 Y-10.0722 
G01 X29.1849 Y-10.0650 
G01 X29.1764 Y-10.0593 
G01 X29.1563 Y-10.0364 
G01 X29.1348 Y-10.0148 
G01 X29.1297 Y-10.0060 
G01 X29.1229 Y-9.9983 
G01 X29.1094 Y-9.9709 
G01 X29.0942 Y-9.9446 
G01 X29.0916 Y-9.9347 
G01 X29.0870 Y-9.9255 
G01 X29.0811 Y-9.8956 
G01 X29.0732 Y-9.8662 
G01 X29.0732 Y-9.8559 
G01 X29.0712 Y-9.8459 
G01 X29.0732 Y-9.8155 
G01 X29.0732 Y-9.1084 
G01 X28.9974 Y-8.9253 
G01 X27.4245 Y-7.3524 
G01 X27.2697 Y-7.1976 
G01 X27.0866 Y-7.1218 
G01 X22.4434 Y-7.1218 
G01 X22.2603 Y-7.1976 
G01 X21.7627 Y-7.6952 
G01 X21.6924 Y-7.7358 
G01 X21.6141 Y-7.7568 
G01 X17.6809 Y-7.7568 
G01 X17.4978 Y-7.8326 
G01 X17.2856 Y-8.0448 
G01 X16.2270 Y-9.1034 
G01 X16.1567 Y-9.1440 
G01 X16.0784 Y-9.1650 
G01 X15.6771 Y-9.1650 
G01 X15.3114 Y-9.3165 
G01 X15.0315 Y-9.5964 
G01 X14.8950 Y-9.9259 
G01 X14.8924 Y-9.9379 
G01 X14.8795 Y-9.9633 
G01 X14.8686 Y-9.9896 
G01 X14.8611 Y-9.9993 
G01 X14.8556 Y-10.0102 
G01 X14.8365 Y-10.0314 
G01 X14.8192 Y-10.0540 
G01 X14.8095 Y-10.0614 
G01 X14.8013 Y-10.0705 
G01 X14.7774 Y-10.0860 
G01 X14.7548 Y-10.1034 
G01 X14.7435 Y-10.1081 
G01 X14.7332 Y-10.1147 
G01 X14.7061 Y-10.1235 
G01 X14.6799 Y-10.1344 
G01 X14.6677 Y-10.1360 
G01 X14.6560 Y-10.1398 
G01 X14.6276 Y-10.1413 
G01 X14.5994 Y-10.1450 
G01 X14.5872 Y-10.1434 
G01 X14.5750 Y-10.1441 
G01 X14.5472 Y-10.1381 
G01 X14.5189 Y-10.1344 
G01 X14.5076 Y-10.1297 
G01 X14.4956 Y-10.1272 
G01 X14.4703 Y-10.1143 
G01 X14.4440 Y-10.1034 
G01 X14.4342 Y-10.0959 
G01 X14.4233 Y-10.0904 
G01 X14.4022 Y-10.0713 
G01 X14.3796 Y-10.0540 
G01 X14.3721 Y-10.0443 
G01 X14.3630 Y-10.0361 
G01 X14.3475 Y-10.0122 
G01 X14.3302 Y-9.9896 
G01 X14.3255 Y-9.9783 
G01 X14.3188 Y-9.9680 
G01 X14.3100 Y-9.9409 
G01 X14.2991 Y-9.9146 
G01 X14.2975 Y-9.9025 
G01 X14.2571 Y-9.7781 
G01 X14.1860 Y-9.6385 
G01 X14.0939 Y-9.5118 
G01 X13.9832 Y-9.4011 
G01 X13.8565 Y-9.3090 
G01 X13.7169 Y-9.2379 
G01 X13.6432 Y-9.2139 
G01 X13.6432 Y-9.4163 
G01 X13.7163 Y-9.4466 
G01 X13.8482 Y-9.5347 
G01 X13.9603 Y-9.6468 
G01 X14.0484 Y-9.7787 
G01 X14.1091 Y-9.9252 
G01 X14.1400 Y-10.0807 
G01 X14.1400 Y-10.2393 
G01 X14.1091 Y-10.3948 
G01 X14.0484 Y-10.5413 
G01 X13.9603 Y-10.6732 
G01 X13.8482 Y-10.7853 
G01 X13.7163 Y-10.8734 
G01 X13.6432 Y-10.9037 
G01 X13.6432 Y-11.1061 
G01 X13.7169 Y-11.0821 
G01 X13.8565 Y-11.0110 
G01 X13.9832 Y-10.9189 
G01 X14.0939 Y-10.8082 
G01 X14.1860 Y-10.6815 
G01 X14.2571 Y-10.5419 
G01 X14.2975 Y-10.4175 
G01 X14.2991 Y-10.4054 
G01 X14.3100 Y-10.3791 
G01 X14.3188 Y-10.3520 
G01 X14.3255 Y-10.3417 
G01 X14.3302 Y-10.3304 
G01 X14.3475 Y-10.3078 
G01 X14.3630 Y-10.2839 
G01 X14.3721 Y-10.2757 
G01 X14.3796 Y-10.2660 
G01 X14.4022 Y-10.2487 
G01 X14.4233 Y-10.2296 
G01 X14.4342 Y-10.2241 
G01 X14.4440 Y-10.2166 
G01 X14.4703 Y-10.2057 
G01 X14.4956 Y-10.1928 
G01 X14.5076 Y-10.1903 
G01 X14.5189 Y-10.1856 
G01 X14.5472 Y-10.1819 
G01 X14.5750 Y-10.1759 
G01 X14.5872 Y-10.1766 
G01 X14.5994 Y-10.1750 
G01 X14.6276 Y-10.1787 
G01 X14.6560 Y-10.1802 
G01 X14.6677 Y-10.1840 
G01 X14.6799 Y-10.1856 
G01 X14.7061 Y-10.1965 
G01 X14.7332 Y-10.2053 
G01 X14.7435 Y-10.2119 
G01 X14.7548 Y-10.2166 
G01 X14.7774 Y-10.2340 
G01 X14.8013 Y-10.2495 
G01 X14.8095 Y-10.2586 
G01 X14.8192 Y-10.2660 
G01 X14.8365 Y-10.2886 
G01 X14.8556 Y-10.3098 
G01 X14.8611 Y-10.3207 
G01 X14.8686 Y-10.3304 
G01 X14.8795 Y-10.3567 
G01 X14.8924 Y-10.3821 
G01 X14.8950 Y-10.3941 
G01 X15.0315 Y-10.7236 
G01 X15.3114 Y-11.0035 
G01 X15.5175 Y-11.0889 
G01 X15.5372 Y-11.0942 
G01 X15.5548 Y-11.1044 
G01 X15.5736 Y-11.1121 
G01 X15.5898 Y-11.1246 
G01 X15.6074 Y-11.1347 
G01 X15.6219 Y-11.1492 
G01 X15.6380 Y-11.1616 
G01 X15.6504 Y-11.1777 
G01 X15.6648 Y-11.1921 
G01 X15.6750 Y-11.2098 
G01 X15.6874 Y-11.2259 
G01 X15.6952 Y-11.2447 
G01 X15.7054 Y-11.2624 
G01 X15.7107 Y-11.2821 
G01 X15.7185 Y-11.3009 
G01 X15.7211 Y-11.3211 
G01 X15.7264 Y-11.3408 
G01 X15.7264 Y-11.3612 
G01 X15.7291 Y-11.3814 
G01 X15.7264 Y-11.4016 
G01 X15.7264 Y-11.4219 
G01 X15.7211 Y-11.4416 
G01 X15.7185 Y-11.4618 
G01 X15.7107 Y-11.4807 
G01 X15.7054 Y-11.5003 
G01 X15.6952 Y-11.5180 
G01 X15.6874 Y-11.5368 
G01 X15.6750 Y-11.5530 
G01 X15.6648 Y-11.5706 
G01 X15.6504 Y-11.5850 
G01 X15.6380 Y-11.6012 
G01 X15.6219 Y-11.6136 
G01 X15.4772 Y-11.7582 
G01 X15.4648 Y-11.7744 
G01 X15.4487 Y-11.7868 
G01 X15.4343 Y-11.8012 
G01 X15.4166 Y-11.8113 
G01 X15.4005 Y-11.8238 
G01 X15.3816 Y-11.8315 
G01 X15.3640 Y-11.8417 
G01 X15.3443 Y-11.8470 
G01 X15.3255 Y-11.8548 
G01 X15.3053 Y-11.8575 
G01 X15.2856 Y-11.8627 
G01 X15.2652 Y-11.8627 
G01 X15.2450 Y-11.8654 
G01 X15.2248 Y-11.8627 
G01 X15.2045 Y-11.8627 
G01 X15.1848 Y-11.8575 
G01 X15.1646 Y-11.8548 
G01 X15.1458 Y-11.8470 
G01 X15.1261 Y-11.8417 
G01 X15.1084 Y-11.8315 
G01 X14.8029 Y-11.7050 
G01 X14.4071 Y-11.7050 
G01 X14.0414 Y-11.8565 
G01 X13.7615 Y-12.1364 
G01 X13.6353 Y-12.4411 
G01 X13.6042 Y-12.5161 
G01 X13.5548 Y-12.5804 
G01 X13.5189 Y-12.6080 
G01 X13.4904 Y-12.6298 
G01 X13.4585 Y-12.6431 
G01 X13.4155 Y-12.6609 
G01 X13.3465 Y-12.6700 
G01 X13.3350 Y-12.6715 
G01 X13.3253 Y-12.6702 
G01 X13.2545 Y-12.6609 
G01 X13.2097 Y-12.6423 
G01 X13.1796 Y-12.6298 
G01 X13.1152 Y-12.5804 
G01 X13.0876 Y-12.5445 
G01 X13.0658 Y-12.5161 
G01 X13.0366 Y-12.4456 
G01 X12.9085 Y-12.1364 
G01 X12.6286 Y-11.8565 
G01 X12.2629 Y-11.7050 
G01 X11.8671 Y-11.7050 
G01 X11.5014 Y-11.8565 
G01 X11.2215 Y-12.1364 
G01 X11.0700 Y-12.5021 
G01 X11.0700 Y-12.8979 
G01 X11.2215 Y-13.2636 
G01 X11.5014 Y-13.5435 
G01 X11.8671 Y-13.6950 
G01 X12.2629 Y-13.6950 
G01 X12.6286 Y-13.5435 
G01 X12.9085 Y-13.2636 
G01 X13.0382 Y-12.9504 
G01 X13.0658 Y-12.8839 
G01 X13.0869 Y-12.8565 
G01 X13.1152 Y-12.8196 
G01 X13.1796 Y-12.7702 
G01 X13.2115 Y-12.7569 
G01 X13.2545 Y-12.7391 
G01 X13.3235 Y-12.7300 
G01 X13.3350 Y-12.7285 
G01 X13.3447 Y-12.7298 
G01 X13.4155 Y-12.7391 
G01 X13.4603 Y-12.7577 
G01 X13.4904 Y-12.7702 
G01 X13.5179 Y-12.7912 
G01 X13.5548 Y-12.8196 
G01 X13.6042 Y-12.8839 
G01 X13.6353 Y-12.9589 
G01 X13.7615 Y-13.2636 
G01 X14.0414 Y-13.5435 
G01 X14.4071 Y-13.6950 
G01 X14.8029 Y-13.6950 
G01 X15.1686 Y-13.5435 
G01 X15.4485 Y-13.2636 
G01 X15.4651 Y-13.2236 
G01 X15.4704 Y-13.2039 
G01 X15.4806 Y-13.1862 
G01 X15.4884 Y-13.1674 
G01 X15.5008 Y-13.1512 
G01 X15.5110 Y-13.1336 
G01 X15.5254 Y-13.1192 
G01 X15.5378 Y-13.1030 
G01 X15.5539 Y-13.0906 
G01 X15.6914 Y-12.9531 
G01 X15.7038 Y-12.9370 
G01 X15.7200 Y-12.9246 
G01 X15.7344 Y-12.9102 
G01 X15.7520 Y-12.9000 
G01 X15.7682 Y-12.8876 
G01 X15.7870 Y-12.8798 
G01 X15.8047 Y-12.8696 
G01 X15.8243 Y-12.8643 
G01 X15.8432 Y-12.8565 
G01 X15.8634 Y-12.8539 
G01 X15.8831 Y-12.8486 
G01 X15.9034 Y-12.8486 
G01 X15.9236 Y-12.8459 
G01 X15.9438 Y-12.8486 
G01 X15.9642 Y-12.8486 
G01 X15.9839 Y-12.8539 
G01 X16.0041 Y-12.8565 
G01 X16.0229 Y-12.8643 
G01 X16.0426 Y-12.8696 
G01 X16.0602 Y-12.8798 
G01 X16.0791 Y-12.8876 
G01 X16.0952 Y-12.9000 
G01 X16.1129 Y-12.9102 
G01 X16.1273 Y-12.9246 
G01 X16.1434 Y-12.9370 
G01 X16.1558 Y-12.9531 
G01 X16.1703 Y-12.9675 
G01 X16.1804 Y-12.9852 
G01 X16.1928 Y-13.0014 
G01 X16.2006 Y-13.0202 
G01 X16.2108 Y-13.0378 
G01 X16.2161 Y-13.0575 
G01 X16.3015 Y-13.2636 
G01 X16.5852 Y-13.5474 
G01 X16.6258 Y-13.6176 
G01 X16.6468 Y-13.6960 
G01 X16.6468 Y-15.0916 
G01 X16.6258 Y-15.1699 
G01 X16.5852 Y-15.2402 
G01 X16.5278 Y-15.2976 
G01 X16.5220 Y-15.3034 
G01 X16.4517 Y-15.3440 
G01 X16.3734 Y-15.3650 
G01 X14.9978 Y-15.3650 
G01 X14.8250 Y-15.5378 
G01 X14.8250 Y-17.4822 
G01 X14.9978 Y-17.6550 
G01 X17.0422 Y-17.6550 
G01 X17.2150 Y-17.4822 
G01 X17.2150 Y-16.1066 
G01 X17.2360 Y-16.0283 
G01 X17.2766 Y-15.9580 
G01 X17.3340 Y-15.9006 
G01 X17.5674 Y-15.6672 
G01 X17.6432 Y-15.4841 
G01 X17.6432 Y-13.6960 
G01 X17.6642 Y-13.6176 
G01 X17.7048 Y-13.5474 
G01 X17.7622 Y-13.4900 
G01 X17.9885 Y-13.2636 
G01 X18.1400 Y-12.8979 
G01 X18.1400 Y-12.5021 
G01 X18.0865 Y-12.3730 
G01 X18.0763 Y-12.3554 
G01 X18.0711 Y-12.3357 
G01 X18.0633 Y-12.3169 
G01 X18.0606 Y-12.2967 
G01 X18.0553 Y-12.2770 
G01 X18.0553 Y-12.2566 
G01 X18.0527 Y-12.2364 
G01 X18.0553 Y-12.2162 
G01 X18.0553 Y-12.1958 
G01 X18.0606 Y-12.1761 
G01 X18.0633 Y-12.1559 
G01 X18.0711 Y-12.1371 
G01 X18.0763 Y-12.1174 
G01 X18.0865 Y-12.0998 
G01 X18.0943 Y-12.0810 
G01 X18.1067 Y-12.0648 
G01 X18.1169 Y-12.0472 
G01 X18.1313 Y-12.0328 
G01 X18.1437 Y-12.0166 
G01 X18.1599 Y-12.0042 
G01 X18.1743 Y-11.9898 
G01 X18.1920 Y-11.9796 
G01 X18.2081 Y-11.9672 
G01 X18.2269 Y-11.9594 
G01 X18.2446 Y-11.9492 
G01 X18.2643 Y-11.9439 
G01 X18.2831 Y-11.9361 
G01 X18.3033 Y-11.9335 
G01 X18.3230 Y-11.9282 
G01 X18.3433 Y-11.9282 
G01 X18.3635 Y-11.9255 
G01 X18.3837 Y-11.9282 
G01 X20.4191 Y-11.9282 
G01 X20.6022 Y-11.8524 
G01 X22.9474 Y-9.5072 
G01 X22.9662 Y-9.4883 
G01 X23.0048 Y-9.4498 
G01 X23.0751 Y-9.4092 
G01 X23.1534 Y-9.3882 
G01 X26.3766 Y-9.3882 
G01 X26.4549 Y-9.4092 
G01 X26.4964 Y-9.4331 
G01 X26.5252 Y-9.4498 
G01 X26.5280 Y-9.4525 
G01 X26.6456 Y-9.5702 
G01 X26.7002 Y-9.6248 
G01 X26.7030 Y-9.6276 
G01 X26.7196 Y-9.6564 
G01 X26.7436 Y-9.6978 
G01 X26.7646 Y-9.7762 
G01 X26.7646 Y-9.8574 
G01 X26.7436 Y-9.9358 
G01 X26.7207 Y-9.9754 
G01 X26.7030 Y-10.0060 
G01 X26.6456 Y-10.0634 
G01 X26.6168 Y-10.0800 
G01 X26.5753 Y-10.1040 
G01 X26.4970 Y-10.1250 
G01 X25.5528 Y-10.1250 
G01 X25.3800 Y-10.2978 
G01 X25.3800 Y-10.4042 
G01 X25.3590 Y-10.4826 
G01 X25.3184 Y-10.5528 
G01 X25.2610 Y-10.6102 
G01 X25.1908 Y-10.6508 
G01 X25.1124 Y-10.6718 
G01 X24.2909 Y-10.6718 
G01 X24.1078 Y-10.7476 
G01 X20.0525 Y-14.8030 
G01 X19.8976 Y-14.9578 
G01 X19.8218 Y-15.1409 
G01 X19.8218 Y-26.3766 
G01 X19.8008 Y-26.4549 
G01 X19.7602 Y-26.5252 
G01 X19.7028 Y-26.5826 
G01 X18.9052 Y-27.3802 
G01 X18.8349 Y-27.4208 
G01 X18.7566 Y-27.4418 
G01 X18.3267 Y-27.4418 
G01 X18.2483 Y-27.4208 
G01 X18.1781 Y-27.3802 
G01 X18.1207 Y-27.3228 
G01 X17.8519 Y-27.0541 
G01 X17.6496 Y-26.9703 
G01 X17.5746 Y-26.9392 
G01 X17.5102 Y-26.8898 
G01 X17.4826 Y-26.8539 
G01 X17.4608 Y-26.8254 
G01 X17.4476 Y-26.7935 
G01 X17.4298 Y-26.7505 
G01 X17.4207 Y-26.6815 
G01 X17.4192 Y-26.6700 
G01 X17.4298 Y-26.5895 
G01 X17.4608 Y-26.5146 
G01 X17.5102 Y-26.4502 
G01 X17.5461 Y-26.4226 
G01 X17.5746 Y-26.4008 
G01 X17.6361 Y-26.3753 
G01 X17.8519 Y-26.2859 
G01 X18.1459 Y-25.9919 
G01 X18.3050 Y-25.6079 
G01 X18.3050 Y-25.1921 
G01 X18.1459 Y-24.8081 
G01 X17.8519 Y-24.5141 
G01 X17.6384 Y-24.4256 
G01 X17.6264 Y-24.4231 
G01 X17.6010 Y-24.4102 
G01 X17.5747 Y-24.3993 
G01 X17.5650 Y-24.3918 
G01 X17.5541 Y-24.3862 
G01 X17.5330 Y-24.3672 
G01 X17.5104 Y-24.3499 
G01 X17.5029 Y-24.3401 
G01 X17.4938 Y-24.3319 
G01 X17.4783 Y-24.3081 
G01 X17.4610 Y-24.2855 
G01 X17.4563 Y-24.2742 
G01 X17.4496 Y-24.2639 
G01 X17.4408 Y-24.2368 
G01 X17.4299 Y-24.2105 
G01 X17.4283 Y-24.1984 
G01 X17.4245 Y-24.1867 
G01 X17.4230 Y-24.1583 
G01 X17.4193 Y-24.1301 
G01 X17.4209 Y-24.1179 
G01 X17.4203 Y-24.1057 
G01 X17.4262 Y-24.0778 
G01 X17.4299 Y-24.0496 
G01 X17.4346 Y-24.0383 
G01 X17.4372 Y-24.0263 
G01 X17.4501 Y-24.0009 
G01 X17.4610 Y-23.9746 
G01 X17.4684 Y-23.9649 
G01 X17.4740 Y-23.9540 
G01 X17.4930 Y-23.9328 
G01 X17.5104 Y-23.9103 
G01 X17.5201 Y-23.9028 
G01 X17.5283 Y-23.8937 
G01 X17.5522 Y-23.8782 
G01 X17.5747 Y-23.8609 
G01 X17.5861 Y-23.8562 
G01 X17.5964 Y-23.8495 
G01 X17.6234 Y-23.8407 
G01 X17.6497 Y-23.8298 
G01 X17.6615 Y-23.8282 
G01 X17.8077 Y-23.7538 
G01 X17.9408 Y-23.6571 
G01 X18.0571 Y-23.5408 
G01 X18.1538 Y-23.4077 
G01 X18.2284 Y-23.2611 
G01 X18.2516 Y-23.1900 
G01 X18.0488 Y-23.1900 
G01 X18.0177 Y-23.2650 
G01 X17.9241 Y-23.4050 
G01 X17.8050 Y-23.5241 
G01 X17.6650 Y-23.6177 
G01 X17.5094 Y-23.6821 
G01 X17.3442 Y-23.7150 
G01 X15.6758 Y-23.7150 
G01 X15.5106 Y-23.6821 
G01 X15.3550 Y-23.6177 
G01 X15.2150 Y-23.5241 
G01 X15.0959 Y-23.4050 
G01 X15.0023 Y-23.2650 
G01 X14.9712 Y-23.1900 
G01 X14.7684 Y-23.1900 
G01 X14.7916 Y-23.2611 
G01 X14.8662 Y-23.4077 
G01 X14.9629 Y-23.5408 
G01 X15.0792 Y-23.6571 
G01 X15.2123 Y-23.7538 
G01 X15.3585 Y-23.8282 
G01 X15.3703 Y-23.8298 
G01 X15.3966 Y-23.8407 
G01 X15.4236 Y-23.8495 
G01 X15.4339 Y-23.8562 
G01 X15.4452 Y-23.8609 
G01 X15.4678 Y-23.8782 
G01 X15.4917 Y-23.8937 
G01 X15.4999 Y-23.9028 
G01 X15.5096 Y-23.9103 
G01 X15.5270 Y-23.9328 
G01 X15.5460 Y-23.9540 
G01 X15.5516 Y-23.9649 
G01 X15.5590 Y-23.9746 
G01 X15.5699 Y-24.0009 
G01 X15.5828 Y-24.0263 
G01 X15.5854 Y-24.0383 
G01 X15.5901 Y-24.0496 
G01 X15.5938 Y-24.0778 
G01 X15.5997 Y-24.1057 
G01 X15.5991 Y-24.1179 
G01 X15.6007 Y-24.1301 
G01 X15.5970 Y-24.1583 
G01 X15.5955 Y-24.1867 
G01 X15.5917 Y-24.1984 
G01 X15.5901 Y-24.2105 
G01 X15.5792 Y-24.2368 
G01 X15.5704 Y-24.2639 
G01 X15.5637 Y-24.2742 
G01 X15.5590 Y-24.2855 
G01 X15.5417 Y-24.3081 
G01 X15.5262 Y-24.3319 
G01 X15.5171 Y-24.3401 
G01 X15.5096 Y-24.3499 
G01 X15.4870 Y-24.3672 
G01 X15.4659 Y-24.3862 
G01 X15.4550 Y-24.3918 
G01 X15.4452 Y-24.3993 
G01 X15.4190 Y-24.4102 
G01 X15.3936 Y-24.4231 
G01 X15.3816 Y-24.4256 
G01 X15.1680 Y-24.5141 
G01 X14.8741 Y-24.8081 
G01 X14.7150 Y-25.1921 
G01 X14.7150 Y-25.6079 
G01 X14.8741 Y-25.9919 
G01 X15.1680 Y-26.2859 
G01 X15.3874 Y-26.3768 
G01 X15.4454 Y-26.4008 
G01 X15.4729 Y-26.4219 
G01 X15.5098 Y-26.4502 
G01 X15.5592 Y-26.5146 
G01 X15.5902 Y-26.5895 
G01 X15.6008 Y-26.6700 
G01 X15.5996 Y-26.6797 
G01 X15.5902 Y-26.7505 
G01 X15.5717 Y-26.7953 
G01 X15.5592 Y-26.8254 
G01 X15.5381 Y-26.8529 
G01 X15.5098 Y-26.8898 
G01 X15.4454 Y-26.9392 
G01 X15.3704 Y-26.9703 
G01 X15.1681 Y-27.0541 
G01 X14.8741 Y-27.3481 
G01 X14.7150 Y-27.7321 
G01 X14.7150 Y-28.1460 
G01 X14.7164 Y-28.1513 
G01 X14.7242 Y-28.1701 
G01 X14.7269 Y-28.1903 
G01 X14.7322 Y-28.2100 
G01 X14.7322 Y-28.2304 
G01 X14.7348 Y-28.2506 
G01 X14.7322 Y-28.2708 
G01 X14.7322 Y-28.2912 
G01 X14.7269 Y-28.3109 
G01 X14.7242 Y-28.3311 
G01 X14.7164 Y-28.3499 
G01 X14.7112 Y-28.3696 
G01 X14.7010 Y-28.3872 
G01 X14.6932 Y-28.4060 
G01 X14.6808 Y-28.4222 
G01 X14.6706 Y-28.4398 
G01 X14.6562 Y-28.4543 
G01 X14.6438 Y-28.4704 
G01 X14.6276 Y-28.4828 
G01 X13.1902 Y-29.9202 
G01 X13.1199 Y-29.9608 
G01 X13.0416 Y-29.9818 
G01 X8.3858 Y-29.9818 
G01 X8.3074 Y-29.9608 
G01 X8.2372 Y-29.9202 
G01 X8.1798 Y-29.8628 
G01 X8.1392 Y-29.7926 
G01 X8.1182 Y-29.7142 
G01 X8.1182 Y-28.9348 
G01 X8.1392 Y-28.8564 
G01 X8.1798 Y-28.7862 
G01 X8.2372 Y-28.7288 
G01 X8.3074 Y-28.6882 
G01 X8.3858 Y-28.6672 
G01 X8.6739 Y-28.6672 
G01 X8.7523 Y-28.6882 
G01 X8.8226 Y-28.7288 
G01 X8.8800 Y-28.7862 
G01 X8.9578 Y-28.8640 
G01 X10.4022 Y-28.8640 
G01 X10.5750 Y-28.6912 
G01 X10.5750 Y-27.6326 
G01 X10.5960 Y-27.5542 
G01 X10.6366 Y-27.4840 
G01 X10.6940 Y-27.4266 
G01 X10.7642 Y-27.3860 
G01 X10.8426 Y-27.3650 
G01 X10.9130 Y-27.3650 
G01 X10.9372 Y-27.3624 
G01 X10.9534 Y-27.3650 
G01 X10.9697 Y-27.3650 
G01 X10.9933 Y-27.3713 
G01 X11.0174 Y-27.3751 
G01 X11.0323 Y-27.3818 
G01 X11.0481 Y-27.3860 
G01 X11.0692 Y-27.3982 
G01 X11.0915 Y-27.4081 
G01 X11.1042 Y-27.4184 
G01 X11.1183 Y-27.4266 
G01 X11.1356 Y-27.4439 
G01 X11.1546 Y-27.4592 
G01 X11.1642 Y-27.4724 
G01 X11.1757 Y-27.4840 
G01 X11.1879 Y-27.5051 
G01 X11.2448 Y-27.5833 
G01 X11.3666 Y-27.7052 
G01 X11.5061 Y-27.8065 
G01 X11.6597 Y-27.8848 
G01 X11.8236 Y-27.9380 
G01 X11.9938 Y-27.9650 
G01 X12.0186 Y-27.9650 
G01 X12.0186 Y-27.7750 
G01 X11.9909 Y-27.7750 
G01 X11.8160 Y-27.7402 
G01 X11.6513 Y-27.6720 
G01 X11.5031 Y-27.5730 
G01 X11.3770 Y-27.4469 
G01 X11.2780 Y-27.2987 
G01 X11.2268 Y-27.1750 
G01 X9.0591 Y-27.1750 
G01 X9.0205 Y-27.1590 
G01 X8.9910 Y-27.1295 
G01 X8.9750 Y-27.0909 
G01 X8.9750 Y-26.9782 
G01 X8.7850 Y-26.9782 
G01 X8.7850 Y-27.0991 
G01 X8.7963 Y-27.1560 
G01 X8.8185 Y-27.2097 
G01 X8.8288 Y-27.2250 
G01 X8.8321 Y-27.2347 
G01 X8.8372 Y-27.2436 
G01 X8.8451 Y-27.2730 
G01 X8.8549 Y-27.3018 
G01 X8.8556 Y-27.3121 
G01 X8.8582 Y-27.3220 
G01 X8.8582 Y-27.3524 
G01 X8.8603 Y-27.3828 
G01 X8.8582 Y-27.3929 
G01 X8.8582 Y-27.4032 
G01 X8.8504 Y-27.4326 
G01 X8.8445 Y-27.4624 
G01 X8.8399 Y-27.4716 
G01 X8.8372 Y-27.4816 
G01 X8.8220 Y-27.5079 
G01 X8.8086 Y-27.5352 
G01 X8.8018 Y-27.5429 
G01 X8.7967 Y-27.5518 
G01 X8.7752 Y-27.5733 
G01 X8.7551 Y-27.5962 
G01 X8.7466 Y-27.6019 
G01 X8.7393 Y-27.6092 
G01 X8.7129 Y-27.6244 
G01 X8.6877 Y-27.6413 
G01 X8.6779 Y-27.6447 
G01 X8.6690 Y-27.6498 
G01 X8.6396 Y-27.6577 
G01 X8.6108 Y-27.6675 
G01 X8.6006 Y-27.6681 
G01 X8.5906 Y-27.6708 
G01 X8.5602 Y-27.6708 
G01 X8.5298 Y-27.6728 
G01 X8.5198 Y-27.6708 
G01 X7.5426 Y-27.6708 
G01 X7.4642 Y-27.6498 
G01 X7.3940 Y-27.6092 
G01 X7.3366 Y-27.5518 
G01 X7.2960 Y-27.4816 
G01 X7.2750 Y-27.4032 
G01 X7.2750 Y-27.0178 
G01 X7.1022 Y-26.8450 
G01 X5.9578 Y-26.8450 
G01 X5.7850 Y-27.0178 
G01 X5.7850 Y-28.8622 
G01 X5.9578 Y-29.0350 
G01 X6.8542 Y-29.0350 
G01 X6.9326 Y-29.0560 
G01 X7.0028 Y-29.0966 
G01 X7.0602 Y-29.1540 
G01 X7.1008 Y-29.2242 
G01 X7.1218 Y-29.3026 
G01 X7.1218 Y-29.7142 
G01 X7.1008 Y-29.7926 
G01 X7.0602 Y-29.8628 
G01 X7.0028 Y-29.9202 
G01 X6.9326 Y-29.9608 
G01 X6.8542 Y-29.9818 
G01 X4.9809 Y-29.9818 
G01 X4.7978 Y-30.0576 
G01 X4.6430 Y-30.2124 
G01 X4.5856 Y-30.2698 
G01 X3.5425 Y-31.3130 
G01 X3.3876 Y-31.4678 
G01 X3.3118 Y-31.6509 
G01 X3.3118 Y-47.0674 
G01 X3.2908 Y-47.1458 
G01 X3.2502 Y-47.2160 
G01 X3.1928 Y-47.2734 
G01 X3.1226 Y-47.3140 
G01 X3.0442 Y-47.3350 
G01 X2.8878 Y-47.3350 
G01 X2.7150 Y-47.5078 
G01 X2.7150 Y-48.6522 
G01 X2.8878 Y-48.8250 
G01 X4.7322 Y-48.8250 
G01 X4.7374 Y-48.8198 
G01 X4.8077 Y-48.7792 
G01 X4.8432 Y-48.7697 
G01 X4.8861 Y-48.7582 
G01 X5.8033 Y-48.7582 
G01 X5.8816 Y-48.7792 
G01 X5.9519 Y-48.8198 
G01 X6.2781 Y-49.1459 
G01 X6.4916 Y-49.2344 
G01 X6.5036 Y-49.2369 
G01 X6.5290 Y-49.2498 
G01 X6.5552 Y-49.2607 
G01 X6.5650 Y-49.2682 
G01 X6.5759 Y-49.2738 
G01 X6.5970 Y-49.2928 
G01 X6.6196 Y-49.3101 
G01 X6.6271 Y-49.3199 
G01 X6.6362 Y-49.3281 
G01 X6.6517 Y-49.3519 
G01 X6.6690 Y-49.3745 
G01 X6.6737 Y-49.3858 
G01 X6.6804 Y-49.3961 
G01 X6.6892 Y-49.4232 
G01 X6.7001 Y-49.4495 
G01 X6.7017 Y-49.4616 
G01 X6.7055 Y-49.4733 
G01 X6.7070 Y-49.5017 
G01 X6.7107 Y-49.5299 
G01 X6.7091 Y-49.5421 
G01 X6.7097 Y-49.5543 
G01 X6.7038 Y-49.5822 
G01 X6.7001 Y-49.6104 
G01 X6.6954 Y-49.6217 
G01 X6.6928 Y-49.6337 
G01 X6.6799 Y-49.6591 
G01 X6.6690 Y-49.6854 
G01 X6.6616 Y-49.6951 
G01 X6.6560 Y-49.7060 
G01 X6.6370 Y-49.7272 
G01 X6.6196 Y-49.7497 
G01 X6.6099 Y-49.7572 
G01 X6.6017 Y-49.7663 
G01 X6.5778 Y-49.7818 
G01 X6.5552 Y-49.7991 
G01 X6.5439 Y-49.8038 
G01 X6.5336 Y-49.8105 
G01 X6.5066 Y-49.8193 
G01 X6.4803 Y-49.8302 
G01 X6.4685 Y-49.8317 
G01 X6.3223 Y-49.9062 
G01 X6.1892 Y-50.0029 
G01 X6.0729 Y-50.1192 
G01 X5.9762 Y-50.2523 
G01 X5.9016 Y-50.3989 
G01 X5.8784 Y-50.4700 
G01 X6.0812 Y-50.4700 
G01 X6.1123 Y-50.3950 
G00 Z1.0000 
G00 X9.0954 Y-44.7192 
G01 Z-0.0800 F100.00 
G01 X8.9705 Y-44.7710 F240.00 
G01 X8.9014 Y-44.7801 
G01 X8.8900 Y-44.7816 
G01 X8.8265 Y-44.7732 
G01 X8.8095 Y-44.7710 
G01 X8.7346 Y-44.7399 
G01 X8.6846 Y-44.7192 
G01 X8.6202 Y-44.6698 
G01 X8.5708 Y-44.6054 
G01 X8.5398 Y-44.5305 
G01 X8.5292 Y-44.4500 
G01 X8.5398 Y-44.3696 
G01 X8.5708 Y-44.2946 
G01 X8.6202 Y-44.2302 
G01 X8.6846 Y-44.1808 
G01 X8.7030 Y-44.1732 
G01 X8.7346 Y-44.1601 
G01 X8.7628 Y-44.1484 
G01 X8.8095 Y-44.1290 
G01 X8.8498 Y-44.1237 
G01 X8.8900 Y-44.1184 
G01 X8.9293 Y-44.1236 
G01 X8.9704 Y-44.1290 
G01 X9.0093 Y-44.1451 
G01 X9.0454 Y-44.1601 
G01 X9.0515 Y-44.1626 
G01 X9.0954 Y-44.1808 
G01 X9.1167 Y-44.1971 
G01 X9.1598 Y-44.2302 
G01 X9.1657 Y-44.2379 
G01 X9.2092 Y-44.2946 
G01 X9.2402 Y-44.3695 
G01 X9.2411 Y-44.3764 
G01 X9.2508 Y-44.4500 
G01 X9.2494 Y-44.4611 
G01 X9.2402 Y-44.5305 
G01 X9.2328 Y-44.5484 
G01 X9.2092 Y-44.6054 
G01 X9.1929 Y-44.6267 
G01 X9.1598 Y-44.6698 
G01 X9.1520 Y-44.6757 
G01 X9.0954 Y-44.7192 
G00 Z1.0000 
G00 X9.0954 Y-34.5592 
G01 Z-0.0800 F100.00 
G01 X9.0954 Y-34.5592 F240.00 
G01 X9.0645 Y-34.5720 
G01 X9.0083 Y-34.5953 
G01 X8.9705 Y-34.6110 
G01 X8.9298 Y-34.6163 
G01 X8.8900 Y-34.6216 
G01 X8.8549 Y-34.6169 
G01 X8.8095 Y-34.6110 
G01 X8.7708 Y-34.5949 
G01 X8.6846 Y-34.5592 
G01 X8.6202 Y-34.5098 
G01 X8.5708 Y-34.4454 
G01 X8.5398 Y-34.3705 
G01 X8.5292 Y-34.2900 
G01 X8.5398 Y-34.2096 
G01 X8.5708 Y-34.1346 
G01 X8.6202 Y-34.0702 
G01 X8.6846 Y-34.0208 
G01 X8.7030 Y-34.0132 
G01 X8.7346 Y-34.0001 
G01 X8.7628 Y-33.9884 
G01 X8.8095 Y-33.9690 
G01 X8.8498 Y-33.9637 
G01 X8.8900 Y-33.9584 
G01 X8.9293 Y-33.9636 
G01 X8.9704 Y-33.9690 
G01 X9.0093 Y-33.9851 
G01 X9.0454 Y-34.0001 
G01 X9.0763 Y-34.0129 
G01 X9.0954 Y-34.0208 
G01 X9.1349 Y-34.0511 
G01 X9.1598 Y-34.0702 
G01 X9.1797 Y-34.0961 
G01 X9.2092 Y-34.1346 
G01 X9.2202 Y-34.1612 
G01 X9.2402 Y-34.2095 
G01 X9.2454 Y-34.2485 
G01 X9.2508 Y-34.2900 
G01 X9.2451 Y-34.3333 
G01 X9.2402 Y-34.3705 
G01 X9.2195 Y-34.4206 
G01 X9.2092 Y-34.4454 
G01 X9.1789 Y-34.4849 
G01 X9.1598 Y-34.5098 
G01 X9.1338 Y-34.5297 
G01 X9.0954 Y-34.5592 
G00 Z1.0000 
G00 X9.0954 Y-42.1792 
G01 Z-0.0800 F100.00 
G01 X9.0954 Y-42.1792 F240.00 
G01 X9.0645 Y-42.1920 
G01 X9.0083 Y-42.2153 
G01 X8.9705 Y-42.2310 
G01 X8.9298 Y-42.2363 
G01 X8.8900 Y-42.2416 
G01 X8.8549 Y-42.2369 
G01 X8.8095 Y-42.2310 
G01 X8.7708 Y-42.2149 
G01 X8.6846 Y-42.1792 
G01 X8.6202 Y-42.1298 
G01 X8.5708 Y-42.0654 
G01 X8.5398 Y-41.9905 
G01 X8.5292 Y-41.9100 
G01 X8.5398 Y-41.8296 
G01 X8.5708 Y-41.7546 
G01 X8.6202 Y-41.6902 
G01 X8.6846 Y-41.6408 
G01 X8.7030 Y-41.6332 
G01 X8.7346 Y-41.6201 
G01 X8.7628 Y-41.6084 
G01 X8.8095 Y-41.5890 
G01 X8.8498 Y-41.5837 
G01 X8.8900 Y-41.5784 
G01 X8.9293 Y-41.5836 
G01 X8.9704 Y-41.5890 
G01 X9.0093 Y-41.6051 
G01 X9.0454 Y-41.6201 
G01 X9.0763 Y-41.6329 
G01 X9.0954 Y-41.6408 
G01 X9.1349 Y-41.6711 
G01 X9.1598 Y-41.6902 
G01 X9.1797 Y-41.7161 
G01 X9.2092 Y-41.7546 
G01 X9.2202 Y-41.7812 
G01 X9.2402 Y-41.8295 
G01 X9.2454 Y-41.8685 
G01 X9.2508 Y-41.9100 
G01 X9.2451 Y-41.9533 
G01 X9.2402 Y-41.9905 
G01 X9.2195 Y-42.0406 
G01 X9.2092 Y-42.0654 
G01 X9.1789 Y-42.1049 
G01 X9.1598 Y-42.1298 
G01 X9.1338 Y-42.1497 
G01 X9.0954 Y-42.1792 
G00 Z1.0000 
G00 X11.9767 Y-35.0618 
G01 Z-0.0800 F100.00 
G01 X11.8983 Y-35.0408 F240.00 
G01 X11.8281 Y-35.0002 
G01 X11.7707 Y-34.9428 
G01 X11.5019 Y-34.6741 
G01 X11.2996 Y-34.5903 
G01 X11.2246 Y-34.5592 
G01 X11.1602 Y-34.5098 
G01 X11.1326 Y-34.4739 
G01 X11.1108 Y-34.4454 
G01 X11.0976 Y-34.4135 
G01 X11.0798 Y-34.3705 
G01 X11.0707 Y-34.3015 
G01 X11.0692 Y-34.2900 
G01 X11.0798 Y-34.2095 
G01 X11.1108 Y-34.1346 
G01 X11.1602 Y-34.0702 
G01 X11.1961 Y-34.0426 
G01 X11.2246 Y-34.0208 
G01 X11.2861 Y-33.9953 
G01 X11.5019 Y-33.9059 
G01 X11.7707 Y-33.6372 
G01 X11.8219 Y-33.5860 
G01 X11.8281 Y-33.5798 
G01 X11.8983 Y-33.5392 
G01 X11.9767 Y-33.5182 
G01 X14.6933 Y-33.5182 
G01 X14.7716 Y-33.5392 
G01 X14.8419 Y-33.5798 
G01 X15.1680 Y-33.9059 
G01 X15.3874 Y-33.9968 
G01 X15.4454 Y-34.0208 
G01 X15.4729 Y-34.0419 
G01 X15.5098 Y-34.0702 
G01 X15.5592 Y-34.1346 
G01 X15.5902 Y-34.2095 
G01 X15.6008 Y-34.2900 
G01 X15.5996 Y-34.2997 
G01 X15.5902 Y-34.3705 
G01 X15.5717 Y-34.4153 
G01 X15.5592 Y-34.4454 
G01 X15.5381 Y-34.4729 
G01 X15.5098 Y-34.5098 
G01 X15.4454 Y-34.5592 
G01 X15.3704 Y-34.5903 
G01 X15.1680 Y-34.6741 
G01 X14.8419 Y-35.0002 
G01 X14.7716 Y-35.0408 
G01 X14.6933 Y-35.0618 
G01 X14.6121 Y-35.0618 
G01 X11.9767 Y-35.0618 
G00 Z1.0000 
G00 X11.9767 Y-45.2218 
G01 Z-0.0800 F100.00 
G01 X11.8983 Y-45.2008 F240.00 
G01 X11.8281 Y-45.1602 
G01 X11.7707 Y-45.1028 
G01 X11.5019 Y-44.8341 
G01 X11.2996 Y-44.7503 
G01 X11.2246 Y-44.7192 
G01 X11.1602 Y-44.6698 
G01 X11.1326 Y-44.6339 
G01 X11.1108 Y-44.6054 
G01 X11.0976 Y-44.5735 
G01 X11.0798 Y-44.5305 
G01 X11.0707 Y-44.4615 
G01 X11.0692 Y-44.4500 
G01 X11.0798 Y-44.3695 
G01 X11.1108 Y-44.2946 
G01 X11.1602 Y-44.2302 
G01 X11.1961 Y-44.2026 
G01 X11.2246 Y-44.1808 
G01 X11.2861 Y-44.1553 
G01 X11.5019 Y-44.0659 
G01 X11.7707 Y-43.7972 
G01 X11.8219 Y-43.7460 
G01 X11.8281 Y-43.7398 
G01 X11.8983 Y-43.6992 
G01 X11.9767 Y-43.6782 
G01 X14.6933 Y-43.6782 
G01 X14.7716 Y-43.6992 
G01 X14.8419 Y-43.7398 
G01 X14.8993 Y-43.7972 
G01 X15.1681 Y-44.0659 
G01 X15.3874 Y-44.1568 
G01 X15.4454 Y-44.1808 
G01 X15.4729 Y-44.2019 
G01 X15.5098 Y-44.2302 
G01 X15.5592 Y-44.2946 
G01 X15.5902 Y-44.3695 
G01 X15.6008 Y-44.4500 
G01 X15.5996 Y-44.4597 
G01 X15.5902 Y-44.5305 
G01 X15.5717 Y-44.5753 
G01 X15.5592 Y-44.6054 
G01 X15.5381 Y-44.6329 
G01 X15.5098 Y-44.6698 
G01 X15.4454 Y-44.7192 
G01 X15.3704 Y-44.7503 
G01 X15.1681 Y-44.8341 
G01 X14.8419 Y-45.1602 
G01 X14.7716 Y-45.2008 
G01 X14.6933 Y-45.2218 
G01 X14.6121 Y-45.2218 
G01 X11.9767 Y-45.2218 
G00 Z1.0000 
G00 X14.8993 Y-40.0228 
G01 Z-0.0800 F100.00 
G01 X14.8481 Y-40.0740 F240.00 
G01 X14.8419 Y-40.0802 
G01 X14.7716 Y-40.1208 
G01 X14.6933 Y-40.1418 
G01 X11.9767 Y-40.1418 
G01 X11.8983 Y-40.1208 
G01 X11.8281 Y-40.0802 
G01 X11.7707 Y-40.0228 
G01 X11.5019 Y-39.7541 
G01 X11.2996 Y-39.6703 
G01 X11.2246 Y-39.6392 
G01 X11.1602 Y-39.5898 
G01 X11.1326 Y-39.5539 
G01 X11.1108 Y-39.5254 
G01 X11.0976 Y-39.4935 
G01 X11.0798 Y-39.4505 
G01 X11.0707 Y-39.3815 
G01 X11.0692 Y-39.3700 
G01 X11.0798 Y-39.2895 
G01 X11.1108 Y-39.2146 
G01 X11.1602 Y-39.1502 
G01 X11.1961 Y-39.1226 
G01 X11.2246 Y-39.1008 
G01 X11.2861 Y-39.0753 
G01 X11.5019 Y-38.9859 
G01 X11.7707 Y-38.7172 
G01 X11.8219 Y-38.6660 
G01 X11.8281 Y-38.6598 
G01 X11.8983 Y-38.6192 
G01 X11.9767 Y-38.5982 
G01 X14.6933 Y-38.5982 
G01 X14.7716 Y-38.6192 
G01 X14.8419 Y-38.6598 
G01 X14.8993 Y-38.7172 
G01 X15.1681 Y-38.9859 
G01 X15.3874 Y-39.0768 
G01 X15.4454 Y-39.1008 
G01 X15.4729 Y-39.1219 
G01 X15.5098 Y-39.1502 
G01 X15.5592 Y-39.2146 
G01 X15.5902 Y-39.2895 
G01 X15.6008 Y-39.3700 
G01 X15.5996 Y-39.3797 
G01 X15.5902 Y-39.4505 
G01 X15.5717 Y-39.4953 
G01 X15.5592 Y-39.5254 
G01 X15.5381 Y-39.5529 
G01 X15.5098 Y-39.5898 
G01 X15.4454 Y-39.6392 
G01 X15.3704 Y-39.6703 
G01 X15.1681 Y-39.7541 
G01 X14.8993 Y-40.0228 
G00 Z1.0000 
G00 X14.8993 Y-37.4828 
G01 Z-0.0800 F100.00 
G01 X14.8481 Y-37.5340 F240.00 
G01 X14.8419 Y-37.5402 
G01 X14.7716 Y-37.5808 
G01 X14.6933 Y-37.6018 
G01 X11.9767 Y-37.6018 
G01 X11.8983 Y-37.5808 
G01 X11.8281 Y-37.5402 
G01 X11.7707 Y-37.4828 
G01 X11.5019 Y-37.2141 
G01 X11.2996 Y-37.1303 
G01 X11.2246 Y-37.0992 
G01 X11.1602 Y-37.0498 
G01 X11.1326 Y-37.0139 
G01 X11.1108 Y-36.9854 
G01 X11.0976 Y-36.9535 
G01 X11.0798 Y-36.9105 
G01 X11.0707 Y-36.8415 
G01 X11.0692 Y-36.8300 
G01 X11.0798 Y-36.7495 
G01 X11.1108 Y-36.6746 
G01 X11.1602 Y-36.6102 
G01 X11.1961 Y-36.5826 
G01 X11.2246 Y-36.5608 
G01 X11.2861 Y-36.5353 
G01 X11.5019 Y-36.4459 
G01 X11.7707 Y-36.1772 
G01 X11.8219 Y-36.1260 
G01 X11.8281 Y-36.1198 
G01 X11.8983 Y-36.0792 
G01 X11.9767 Y-36.0582 
G01 X14.6933 Y-36.0582 
G01 X14.7716 Y-36.0792 
G01 X14.8419 Y-36.1198 
G01 X14.8993 Y-36.1772 
G01 X15.1680 Y-36.4459 
G01 X15.3874 Y-36.5368 
G01 X15.4454 Y-36.5608 
G01 X15.4729 Y-36.5819 
G01 X15.5098 Y-36.6102 
G01 X15.5592 Y-36.6746 
G01 X15.5902 Y-36.7495 
G01 X15.6008 Y-36.8300 
G01 X15.5996 Y-36.8397 
G01 X15.5902 Y-36.9105 
G01 X15.5717 Y-36.9553 
G01 X15.5592 Y-36.9854 
G01 X15.5381 Y-37.0129 
G01 X15.5098 Y-37.0498 
G01 X15.4454 Y-37.0992 
G01 X15.3704 Y-37.1303 
G01 X15.1681 Y-37.2141 
G01 X14.8993 Y-37.4828 
G00 Z1.0000 
G00 X14.8993 Y-42.5628 
G01 Z-0.0800 F100.00 
G01 X14.8481 Y-42.6140 F240.00 
G01 X14.8419 Y-42.6202 
G01 X14.7716 Y-42.6608 
G01 X14.6933 Y-42.6818 
G01 X11.9767 Y-42.6818 
G01 X11.8983 Y-42.6608 
G01 X11.8281 Y-42.6202 
G01 X11.7707 Y-42.5628 
G01 X11.5019 Y-42.2941 
G01 X11.2996 Y-42.2103 
G01 X11.2246 Y-42.1792 
G01 X11.1602 Y-42.1298 
G01 X11.1326 Y-42.0939 
G01 X11.1108 Y-42.0654 
G01 X11.0976 Y-42.0335 
G01 X11.0798 Y-41.9905 
G01 X11.0707 Y-41.9215 
G01 X11.0692 Y-41.9100 
G01 X11.0798 Y-41.8295 
G01 X11.1108 Y-41.7546 
G01 X11.1602 Y-41.6902 
G01 X11.1961 Y-41.6626 
G01 X11.2246 Y-41.6408 
G01 X11.2861 Y-41.6153 
G01 X11.5019 Y-41.5259 
G01 X11.7707 Y-41.2572 
G01 X11.8219 Y-41.2060 
G01 X11.8281 Y-41.1998 
G01 X11.8983 Y-41.1592 
G01 X11.9767 Y-41.1382 
G01 X14.6933 Y-41.1382 
G01 X14.7716 Y-41.1592 
G01 X14.8419 Y-41.1998 
G01 X14.8993 Y-41.2572 
G01 X15.1681 Y-41.5259 
G01 X15.3874 Y-41.6168 
G01 X15.4454 Y-41.6408 
G01 X15.4729 Y-41.6619 
G01 X15.5098 Y-41.6902 
G01 X15.5592 Y-41.7546 
G01 X15.5902 Y-41.8295 
G01 X15.6008 Y-41.9100 
G01 X15.5996 Y-41.9197 
G01 X15.5902 Y-41.9905 
G01 X15.5717 Y-42.0353 
G01 X15.5592 Y-42.0654 
G01 X15.5381 Y-42.0929 
G01 X15.5098 Y-42.1298 
G01 X15.4454 Y-42.1792 
G01 X15.3704 Y-42.2103 
G01 X15.1680 Y-42.2941 
G01 X14.8993 Y-42.5628 
G00 Z1.0000 
G00 X20.1752 Y-10.8702 
G01 Z-0.0800 F100.00 
G01 X20.1049 Y-10.9108 F240.00 
G01 X20.0266 Y-10.9318 
G01 X19.6537 Y-10.9318 
G01 X19.6335 Y-10.9345 
G01 X19.6133 Y-10.9318 
G01 X19.5930 Y-10.9318 
G01 X19.5733 Y-10.9265 
G01 X19.5531 Y-10.9239 
G01 X19.5343 Y-10.9161 
G01 X19.5146 Y-10.9108 
G01 X19.4969 Y-10.9006 
G01 X19.4781 Y-10.8928 
G01 X19.4619 Y-10.8804 
G01 X19.4443 Y-10.8702 
G01 X19.4299 Y-10.8558 
G01 X19.4137 Y-10.8434 
G01 X19.4013 Y-10.8272 
G01 X19.3869 Y-10.8128 
G01 X19.3767 Y-10.7952 
G01 X19.3643 Y-10.7790 
G01 X19.3565 Y-10.7602 
G01 X19.3463 Y-10.7426 
G01 X19.3411 Y-10.7229 
G01 X19.3333 Y-10.7041 
G01 X19.3306 Y-10.6838 
G01 X19.3253 Y-10.6642 
G01 X19.3253 Y-10.6438 
G01 X19.3227 Y-10.6236 
G01 X19.3253 Y-10.6034 
G01 X19.3253 Y-10.5830 
G01 X19.3306 Y-10.5633 
G01 X19.3333 Y-10.5431 
G01 X19.3411 Y-10.5243 
G01 X19.3463 Y-10.5046 
G01 X19.3565 Y-10.4870 
G01 X19.4100 Y-10.3579 
G01 X19.4100 Y-9.9621 
G01 X19.2585 Y-9.5964 
G01 X18.9702 Y-9.3080 
G01 X18.9128 Y-9.2506 
G01 X18.8722 Y-9.1804 
G01 X18.8512 Y-9.1020 
G01 X18.8512 Y-9.0208 
G01 X18.8722 Y-8.9424 
G01 X18.9128 Y-8.8722 
G01 X18.9702 Y-8.8148 
G01 X19.0404 Y-8.7742 
G01 X19.1188 Y-8.7532 
G01 X21.5888 Y-8.7532 
G01 X21.6671 Y-8.7742 
G01 X21.7374 Y-8.8148 
G01 X21.7948 Y-8.8722 
G01 X21.8354 Y-8.9424 
G01 X21.8564 Y-9.0208 
G01 X21.8564 Y-9.1020 
G01 X21.8354 Y-9.1804 
G01 X21.7948 Y-9.2506 
G01 X21.7374 Y-9.3080 
G01 X20.1752 Y-10.8702 
G00 Z1.0000 
G00 X10.9942 Y-33.8750 
G01 Z-0.0800 F100.00 
G01 X9.3258 Y-33.8750 F240.00 
G01 X9.1606 Y-33.8421 
G01 X9.0050 Y-33.7777 
G01 X8.8900 Y-33.7008 
G01 X8.7750 Y-33.7777 
G01 X8.6194 Y-33.8421 
G01 X8.4542 Y-33.8750 
G01 X6.7858 Y-33.8750 
G01 X6.6206 Y-33.8421 
G01 X6.4650 Y-33.7777 
G01 X6.3250 Y-33.6841 
G01 X6.2059 Y-33.5650 
G01 X6.1123 Y-33.4250 
G01 X6.0479 Y-33.2694 
G01 X6.0150 Y-33.1042 
G01 X6.0150 Y-32.9358 
G01 X6.0479 Y-32.7706 
G01 X6.1123 Y-32.6150 
G01 X6.2059 Y-32.4750 
G01 X6.3250 Y-32.3559 
G01 X6.4650 Y-32.2623 
G01 X6.6206 Y-32.1979 
G01 X6.7858 Y-32.1650 
G01 X8.4542 Y-32.1650 
G01 X8.6194 Y-32.1979 
G01 X8.7750 Y-32.2623 
G01 X8.8900 Y-32.3392 
G01 X9.0050 Y-32.2623 
G01 X9.1606 Y-32.1979 
G01 X9.3258 Y-32.1650 
G01 X10.9942 Y-32.1650 
G01 X11.1594 Y-32.1979 
G01 X11.3150 Y-32.2623 
G01 X11.4550 Y-32.3559 
G01 X11.5741 Y-32.4750 
G01 X11.6677 Y-32.6150 
G01 X11.7078 Y-32.7118 
G01 X14.9622 Y-32.7118 
G01 X15.0023 Y-32.6150 
G01 X15.0959 Y-32.4750 
G01 X15.2150 Y-32.3559 
G01 X15.3550 Y-32.2623 
G01 X15.5106 Y-32.1979 
G01 X15.6758 Y-32.1650 
G01 X17.3442 Y-32.1650 
G01 X17.5094 Y-32.1979 
G01 X17.6650 Y-32.2623 
G01 X17.8050 Y-32.3559 
G01 X17.9241 Y-32.4750 
G01 X18.0177 Y-32.6150 
G01 X18.0821 Y-32.7706 
G01 X18.1150 Y-32.9358 
G01 X18.1150 Y-33.1042 
G01 X18.0821 Y-33.2694 
G01 X18.0177 Y-33.4250 
G01 X17.9241 Y-33.5650 
G01 X17.8050 Y-33.6841 
G01 X17.6650 Y-33.7777 
G01 X17.5094 Y-33.8421 
G01 X17.3442 Y-33.8750 
G01 X15.6758 Y-33.8750 
G01 X15.5106 Y-33.8421 
G01 X15.3550 Y-33.7777 
G01 X15.2150 Y-33.6841 
G01 X15.0959 Y-33.5650 
G01 X15.0023 Y-33.4250 
G01 X14.9622 Y-33.3282 
G01 X11.7078 Y-33.3282 
G01 X11.6677 Y-33.4250 
G01 X11.5741 Y-33.5650 
G01 X11.4550 Y-33.6841 
G01 X11.3150 Y-33.7777 
G01 X11.1594 Y-33.8421 
G01 X10.9942 Y-33.8750 
G00 Z1.0000 
G00 X10.9942 Y-38.9550 
G01 Z-0.0800 F100.00 
G01 X9.3258 Y-38.9550 F240.00 
G01 X9.1606 Y-38.9221 
G01 X9.0050 Y-38.8577 
G01 X8.8900 Y-38.7808 
G01 X8.7750 Y-38.8577 
G01 X8.6194 Y-38.9221 
G01 X8.4542 Y-38.9550 
G01 X6.7858 Y-38.9550 
G01 X6.6206 Y-38.9221 
G01 X6.4650 Y-38.8577 
G01 X6.3250 Y-38.7641 
G01 X6.2059 Y-38.6450 
G01 X6.1123 Y-38.5050 
G01 X6.0479 Y-38.3494 
G01 X6.0150 Y-38.1842 
G01 X6.0150 Y-38.0158 
G01 X6.0479 Y-37.8506 
G01 X6.1123 Y-37.6950 
G01 X6.2059 Y-37.5550 
G01 X6.3250 Y-37.4359 
G01 X6.4650 Y-37.3423 
G01 X6.6206 Y-37.2779 
G01 X6.7858 Y-37.2450 
G01 X8.4542 Y-37.2450 
G01 X8.6194 Y-37.2779 
G01 X8.7750 Y-37.3423 
G01 X8.8900 Y-37.4192 
G01 X9.0050 Y-37.3423 
G01 X9.1606 Y-37.2779 
G01 X9.3258 Y-37.2450 
G01 X10.9942 Y-37.2450 
G01 X11.1594 Y-37.2779 
G01 X11.3150 Y-37.3423 
G01 X11.4550 Y-37.4359 
G01 X11.5741 Y-37.5550 
G01 X11.6677 Y-37.6950 
G01 X11.7078 Y-37.7918 
G01 X14.9622 Y-37.7918 
G01 X15.0023 Y-37.6950 
G01 X15.0959 Y-37.5550 
G01 X15.2150 Y-37.4359 
G01 X15.3550 Y-37.3423 
G01 X15.5106 Y-37.2779 
G01 X15.6758 Y-37.2450 
G01 X17.3442 Y-37.2450 
G01 X17.5094 Y-37.2779 
G01 X17.6650 Y-37.3423 
G01 X17.8050 Y-37.4359 
G01 X17.9241 Y-37.5550 
G01 X18.0177 Y-37.6950 
G01 X18.0821 Y-37.8506 
G01 X18.1150 Y-38.0158 
G01 X18.1150 Y-38.1842 
G01 X18.0821 Y-38.3494 
G01 X18.0177 Y-38.5050 
G01 X17.9241 Y-38.6450 
G01 X17.8050 Y-38.7641 
G01 X17.6650 Y-38.8577 
G01 X17.5094 Y-38.9221 
G01 X17.3442 Y-38.9550 
G01 X15.6758 Y-38.9550 
G01 X15.5106 Y-38.9221 
G01 X15.3550 Y-38.8577 
G01 X15.2150 Y-38.7641 
G01 X15.0959 Y-38.6450 
G01 X15.0023 Y-38.5050 
G01 X14.9622 Y-38.4082 
G01 X11.7078 Y-38.4082 
G01 X11.6677 Y-38.5050 
G01 X11.5741 Y-38.6450 
G01 X11.4550 Y-38.7641 
G01 X11.3150 Y-38.8577 
G01 X11.1594 Y-38.9221 
G01 X10.9942 Y-38.9550 
G00 Z1.0000 
G00 X10.9942 Y-44.0350 
G01 Z-0.0800 F100.00 
G01 X9.3258 Y-44.0350 F240.00 
G01 X9.1606 Y-44.0021 
G01 X9.0050 Y-43.9377 
G01 X8.8900 Y-43.8608 
G01 X8.7750 Y-43.9377 
G01 X8.6194 Y-44.0021 
G01 X8.4542 Y-44.0350 
G01 X6.7858 Y-44.0350 
G01 X6.6206 Y-44.0021 
G01 X6.4650 Y-43.9377 
G01 X6.3250 Y-43.8441 
G01 X6.2059 Y-43.7250 
G01 X6.1123 Y-43.5850 
G01 X6.0479 Y-43.4294 
G01 X6.0150 Y-43.2642 
G01 X6.0150 Y-43.0958 
G01 X6.0479 Y-42.9306 
G01 X6.1123 Y-42.7750 
G01 X6.2059 Y-42.6350 
G01 X6.3250 Y-42.5159 
G01 X6.4650 Y-42.4223 
G01 X6.6206 Y-42.3579 
G01 X6.7858 Y-42.3250 
G01 X8.4542 Y-42.3250 
G01 X8.6194 Y-42.3579 
G01 X8.7750 Y-42.4223 
G01 X8.8900 Y-42.4992 
G01 X9.0050 Y-42.4223 
G01 X9.1606 Y-42.3579 
G01 X9.3258 Y-42.3250 
G01 X10.9942 Y-42.3250 
G01 X11.1594 Y-42.3579 
G01 X11.3150 Y-42.4223 
G01 X11.4550 Y-42.5159 
G01 X11.5741 Y-42.6350 
G01 X11.6677 Y-42.7750 
G01 X11.7078 Y-42.8718 
G01 X14.9622 Y-42.8718 
G01 X15.0023 Y-42.7750 
G01 X15.0959 Y-42.6350 
G01 X15.2150 Y-42.5159 
G01 X15.3550 Y-42.4223 
G01 X15.5106 Y-42.3579 
G01 X15.6758 Y-42.3250 
G01 X17.3442 Y-42.3250 
G01 X17.5094 Y-42.3579 
G01 X17.6650 Y-42.4223 
G01 X17.8050 Y-42.5159 
G01 X17.9241 Y-42.6350 
G01 X18.0177 Y-42.7750 
G01 X18.0821 Y-42.9306 
G01 X18.1150 Y-43.0958 
G01 X18.1150 Y-43.2642 
G01 X18.0821 Y-43.4294 
G01 X18.0177 Y-43.5850 
G01 X17.9241 Y-43.7250 
G01 X17.8050 Y-43.8441 
G01 X17.6650 Y-43.9377 
G01 X17.5094 Y-44.0021 
G01 X17.3442 Y-44.0350 
G01 X15.6758 Y-44.0350 
G01 X15.5106 Y-44.0021 
G01 X15.3550 Y-43.9377 
G01 X15.2150 Y-43.8441 
G01 X15.0959 Y-43.7250 
G01 X15.0023 Y-43.5850 
G01 X14.9622 Y-43.4882 
G01 X11.7078 Y-43.4882 
G01 X11.6677 Y-43.5850 
G01 X11.5741 Y-43.7250 
G01 X11.4550 Y-43.8441 
G01 X11.3150 Y-43.9377 
G01 X11.1594 Y-44.0021 
G01 X10.9942 Y-44.0350 
G00 Z1.0000 
G00 X19.2200 Y-10.0807 
G01 Z-0.0800 F100.00 
G01 X19.2200 Y-10.2393 F240.00 
G01 X19.1891 Y-10.3948 
G01 X19.1284 Y-10.5413 
G01 X19.0403 Y-10.6732 
G01 X18.9282 Y-10.7853 
G01 X18.7963 Y-10.8734 
G01 X18.6498 Y-10.9341 
G01 X18.4943 Y-10.9650 
G01 X18.3357 Y-10.9650 
G01 X18.1802 Y-10.9341 
G01 X18.0337 Y-10.8734 
G01 X17.9018 Y-10.7853 
G01 X17.7897 Y-10.6732 
G01 X17.7016 Y-10.5413 
G01 X17.6409 Y-10.3948 
G01 X17.6100 Y-10.2393 
G01 X17.6100 Y-10.0807 
G01 X17.6409 Y-9.9252 
G01 X17.7016 Y-9.7787 
G01 X17.7897 Y-9.6468 
G01 X17.9018 Y-9.5347 
G01 X18.0337 Y-9.4466 
G01 X18.1802 Y-9.3859 
G01 X18.3357 Y-9.3550 
G01 X18.4943 Y-9.3550 
G01 X18.6498 Y-9.3859 
G01 X18.7963 Y-9.4466 
G01 X18.9282 Y-9.5347 
G01 X19.0403 Y-9.6468 
G01 X19.1284 Y-9.7787 
G01 X19.1891 Y-9.9252 
G01 X19.2200 Y-10.0807 
G00 Z1.0000 
G00 X12.8700 Y-12.6207 
G01 Z-0.0800 F100.00 
G01 X12.8700 Y-12.7793 F240.00 
G01 X12.8391 Y-12.9348 
G01 X12.7784 Y-13.0813 
G01 X12.6903 Y-13.2132 
G01 X12.5782 Y-13.3253 
G01 X12.4463 Y-13.4134 
G01 X12.2998 Y-13.4741 
G01 X12.1443 Y-13.5050 
G01 X11.9857 Y-13.5050 
G01 X11.8302 Y-13.4741 
G01 X11.6837 Y-13.4134 
G01 X11.5518 Y-13.3253 
G01 X11.4397 Y-13.2132 
G01 X11.3516 Y-13.0813 
G01 X11.2909 Y-12.9348 
G01 X11.2600 Y-12.7793 
G01 X11.2600 Y-12.6207 
G01 X11.2909 Y-12.4652 
G01 X11.3516 Y-12.3187 
G01 X11.4397 Y-12.1868 
G01 X11.5518 Y-12.0747 
G01 X11.6837 Y-11.9866 
G01 X11.8302 Y-11.9259 
G01 X11.9857 Y-11.8950 
G01 X12.1443 Y-11.8950 
G01 X12.2998 Y-11.9259 
G01 X12.4463 Y-11.9866 
G01 X12.5782 Y-12.0747 
G01 X12.6903 Y-12.1868 
G01 X12.7784 Y-12.3187 
G01 X12.8391 Y-12.4652 
G01 X12.8700 Y-12.6207 
G00 Z1.0000 
G00 X17.9500 Y-12.6207 
G01 Z-0.0800 F100.00 
G01 X17.9500 Y-12.7793 F240.00 
G01 X17.9191 Y-12.9348 
G01 X17.8584 Y-13.0813 
G01 X17.7703 Y-13.2132 
G01 X17.6582 Y-13.3253 
G01 X17.5263 Y-13.4134 
G01 X17.4532 Y-13.4437 
G01 X17.4532 Y-15.4256 
G01 X17.4322 Y-15.5040 
G01 X17.3916 Y-15.5742 
G01 X17.0250 Y-15.9409 
G01 X17.0250 Y-17.3809 
G01 X17.0090 Y-17.4195 
G01 X16.9795 Y-17.4490 
G01 X16.9409 Y-17.4650 
G01 X15.0991 Y-17.4650 
G01 X15.0605 Y-17.4490 
G01 X15.0310 Y-17.4195 
G01 X15.0150 Y-17.3809 
G01 X15.0150 Y-15.6391 
G01 X15.0310 Y-15.6005 
G01 X15.0605 Y-15.5710 
G01 X15.0991 Y-15.5550 
G01 X16.5391 Y-15.5550 
G01 X16.8368 Y-15.2573 
G01 X16.8368 Y-13.4437 
G01 X16.7637 Y-13.4134 
G01 X16.6318 Y-13.3253 
G01 X16.5197 Y-13.2132 
G01 X16.4316 Y-13.0813 
G01 X16.3709 Y-12.9348 
G01 X16.3400 Y-12.7793 
G01 X16.3400 Y-12.6207 
G01 X16.3709 Y-12.4652 
G01 X16.4316 Y-12.3187 
G01 X16.5197 Y-12.1868 
G01 X16.6318 Y-12.0747 
G01 X16.7637 Y-11.9866 
G01 X16.9102 Y-11.9259 
G01 X17.0657 Y-11.8950 
G01 X17.2243 Y-11.8950 
G01 X17.3798 Y-11.9259 
G01 X17.5263 Y-11.9866 
G01 X17.6582 Y-12.0747 
G01 X17.7703 Y-12.1868 
G01 X17.8584 Y-12.3187 
G01 X17.9191 Y-12.4652 
G01 X17.9500 Y-12.6207 
G00 Z1.0000 
G00 X15.3184 Y-13.0813 
G01 Z-0.0800 F100.00 
G01 X15.2303 Y-13.2132 F240.00 
G01 X15.1182 Y-13.3253 
G01 X14.9863 Y-13.4134 
G01 X14.8398 Y-13.4741 
G01 X14.6843 Y-13.5050 
G01 X14.5257 Y-13.5050 
G01 X14.3702 Y-13.4741 
G01 X14.2237 Y-13.4134 
G01 X14.0918 Y-13.3253 
G01 X13.9797 Y-13.2132 
G01 X13.8916 Y-13.0813 
G01 X13.8309 Y-12.9348 
G01 X13.8000 Y-12.7793 
G01 X13.8000 Y-12.6207 
G01 X13.8309 Y-12.4652 
G01 X13.8916 Y-12.3187 
G01 X13.9797 Y-12.1868 
G01 X14.0918 Y-12.0747 
G01 X14.2237 Y-11.9866 
G01 X14.3702 Y-11.9259 
G01 X14.5257 Y-11.8950 
G01 X14.6843 Y-11.8950 
G01 X14.8398 Y-11.9259 
G01 X14.9863 Y-11.9866 
G01 X15.1182 Y-12.0747 
G01 X15.2303 Y-12.1868 
G01 X15.2651 Y-12.2390 
G01 X16.2634 Y-11.2408 
G01 X16.3208 Y-11.1834 
G01 X16.3910 Y-11.1428 
G01 X16.4694 Y-11.1218 
G01 X20.1923 Y-11.1218 
G01 X22.6708 Y-8.6434 
G01 X22.7410 Y-8.6028 
G01 X22.8194 Y-8.5818 
G01 X26.7106 Y-8.5818 
G01 X26.7890 Y-8.6028 
G01 X26.8592 Y-8.6434 
G01 X27.4942 Y-9.2784 
G01 X27.5516 Y-9.3358 
G01 X27.5922 Y-9.4060 
G01 X27.6132 Y-9.4844 
G01 X27.6132 Y-10.3150 
G01 X27.6859 Y-10.3150 
G01 X27.7245 Y-10.3310 
G01 X27.7540 Y-10.3605 
G01 X27.7700 Y-10.3991 
G01 X27.7700 Y-11.9409 
G01 X27.7540 Y-11.9795 
G01 X27.7245 Y-12.0090 
G01 X27.6859 Y-12.0250 
G01 X26.9241 Y-12.0250 
G01 X26.8855 Y-12.0090 
G01 X26.8560 Y-11.9795 
G01 X26.8400 Y-11.9409 
G01 X26.8400 Y-10.3991 
G01 X26.8560 Y-10.3605 
G01 X26.8855 Y-10.3310 
G01 X26.9241 Y-10.3150 
G01 X26.9968 Y-10.3150 
G01 X26.9968 Y-9.6527 
G01 X26.5423 Y-9.1982 
G01 X22.9877 Y-9.1982 
G01 X20.5092 Y-11.6766 
G01 X20.4390 Y-11.7172 
G01 X20.3606 Y-11.7382 
G01 X16.6377 Y-11.7382 
G01 X15.4292 Y-12.9466 
G01 X15.3590 Y-12.9872 
G01 X15.3184 Y-13.0813 
G00 Z1.0000 
G00 X17.3442 Y-56.7350 
G01 Z-0.0800 F100.00 
G01 X15.6758 Y-56.7350 F240.00 
G01 X15.5106 Y-56.7021 
G01 X15.3550 Y-56.6377 
G01 X15.2150 Y-56.5441 
G01 X15.0959 Y-56.4250 
G01 X15.0023 Y-56.2850 
G01 X14.9379 Y-56.1294 
G01 X14.9050 Y-55.9642 
G01 X14.9050 Y-55.7958 
G01 X14.9379 Y-55.6306 
G01 X15.0023 Y-55.4750 
G01 X15.0959 Y-55.3350 
G01 X15.2150 Y-55.2159 
G01 X15.3550 Y-55.1223 
G01 X15.5106 Y-55.0579 
G01 X15.6758 Y-55.0250 
G01 X17.3442 Y-55.0250 
G01 X17.5094 Y-55.0579 
G01 X17.6650 Y-55.1223 
G01 X17.8050 Y-55.2159 
G01 X17.9241 Y-55.3350 
G01 X18.0177 Y-55.4750 
G01 X18.0821 Y-55.6306 
G01 X18.1150 Y-55.7958 
G01 X18.1150 Y-55.9642 
G01 X18.0821 Y-56.1294 
G01 X18.0177 Y-56.2850 
G01 X17.9241 Y-56.4250 
G01 X17.8050 Y-56.5441 
G01 X17.6650 Y-56.6377 
G01 X17.5094 Y-56.7021 
G01 X17.3442 Y-56.7350 
G00 Z1.0000 
G00 X17.3442 Y-54.1950 
G01 Z-0.0800 F100.00 
G01 X15.6758 Y-54.1950 F240.00 
G01 X15.5106 Y-54.1621 
G01 X15.3550 Y-54.0977 
G01 X15.2150 Y-54.0041 
G01 X15.0959 Y-53.8850 
G01 X15.0023 Y-53.7450 
G01 X14.9379 Y-53.5894 
G01 X14.9050 Y-53.4242 
G01 X14.9050 Y-53.2558 
G01 X14.9379 Y-53.0906 
G01 X15.0023 Y-52.9350 
G01 X15.0959 Y-52.7950 
G01 X15.2150 Y-52.6759 
G01 X15.3550 Y-52.5823 
G01 X15.5106 Y-52.5179 
G01 X15.6758 Y-52.4850 
G01 X17.3442 Y-52.4850 
G01 X17.5094 Y-52.5179 
G01 X17.6650 Y-52.5823 
G01 X17.8050 Y-52.6759 
G01 X17.9241 Y-52.7950 
G01 X18.0177 Y-52.9350 
G01 X18.0821 Y-53.0906 
G01 X18.1150 Y-53.2558 
G01 X18.1150 Y-53.4242 
G01 X18.0821 Y-53.5894 
G01 X18.0177 Y-53.7450 
G01 X17.9241 Y-53.8850 
G01 X17.8050 Y-54.0041 
G01 X17.6650 Y-54.0977 
G01 X17.5094 Y-54.1621 
G01 X17.3442 Y-54.1950 
G00 Z1.0000 
G00 X17.3442 Y-51.6550 
G01 Z-0.0800 F100.00 
G01 X15.6758 Y-51.6550 F240.00 
G01 X15.5106 Y-51.6221 
G01 X15.3550 Y-51.5577 
G01 X15.2150 Y-51.4641 
G01 X15.0959 Y-51.3450 
G01 X15.0023 Y-51.2050 
G01 X14.9379 Y-51.0494 
G01 X14.9050 Y-50.8842 
G01 X14.9050 Y-50.7158 
G01 X14.9379 Y-50.5506 
G01 X15.0023 Y-50.3950 
G01 X15.0959 Y-50.2550 
G01 X15.2150 Y-50.1359 
G01 X15.3550 Y-50.0423 
G01 X15.5106 Y-49.9779 
G01 X15.6758 Y-49.9450 
G01 X17.3442 Y-49.9450 
G01 X17.5094 Y-49.9779 
G01 X17.6650 Y-50.0423 
G01 X17.8050 Y-50.1359 
G01 X17.9241 Y-50.2550 
G01 X18.0177 Y-50.3950 
G01 X18.0821 Y-50.5506 
G01 X18.1150 Y-50.7158 
G01 X18.1150 Y-50.8842 
G01 X18.0821 Y-51.0494 
G01 X18.0177 Y-51.2050 
G01 X17.9241 Y-51.3450 
G01 X17.8050 Y-51.4641 
G01 X17.6650 Y-51.5577 
G01 X17.5094 Y-51.6221 
G01 X17.3442 Y-51.6550 
G00 Z1.0000 
G00 X17.3442 Y-49.1150 
G01 Z-0.0800 F100.00 
G01 X15.6758 Y-49.1150 F240.00 
G01 X15.5106 Y-49.0821 
G01 X15.3550 Y-49.0177 
G01 X15.2150 Y-48.9241 
G01 X15.0959 Y-48.8050 
G01 X15.0023 Y-48.6650 
G01 X14.9379 Y-48.5094 
G01 X14.9050 Y-48.3442 
G01 X14.9050 Y-48.1758 
G01 X14.9379 Y-48.0106 
G01 X15.0023 Y-47.8550 
G01 X15.0959 Y-47.7150 
G01 X15.2150 Y-47.5959 
G01 X15.3550 Y-47.5023 
G01 X15.5106 Y-47.4379 
G01 X15.6758 Y-47.4050 
G01 X17.3442 Y-47.4050 
G01 X17.5094 Y-47.4379 
G01 X17.6650 Y-47.5023 
G01 X17.8050 Y-47.5959 
G01 X17.9241 Y-47.7150 
G01 X18.0177 Y-47.8550 
G01 X18.0821 Y-48.0106 
G01 X18.1150 Y-48.1758 
G01 X18.1150 Y-48.3442 
G01 X18.0821 Y-48.5094 
G01 X18.0177 Y-48.6650 
G01 X17.9241 Y-48.8050 
G01 X17.8050 Y-48.9241 
G01 X17.6650 Y-49.0177 
G01 X17.5094 Y-49.0821 
G01 X17.3442 Y-49.1150 
G00 Z1.0000 
G00 X17.3442 Y-46.5750 
G01 Z-0.0800 F100.00 
G01 X15.6758 Y-46.5750 F240.00 
G01 X15.5106 Y-46.5421 
G01 X15.3550 Y-46.4777 
G01 X15.2150 Y-46.3841 
G01 X15.0959 Y-46.2650 
G01 X15.0023 Y-46.1250 
G01 X14.9622 Y-46.0282 
G01 X11.7078 Y-46.0282 
G01 X11.6677 Y-46.1250 
G01 X11.5741 Y-46.2650 
G01 X11.4550 Y-46.3841 
G01 X11.3150 Y-46.4777 
G01 X11.1594 Y-46.5421 
G01 X10.9942 Y-46.5750 
G01 X9.3258 Y-46.5750 
G01 X9.1606 Y-46.5421 
G01 X9.0050 Y-46.4777 
G01 X8.8900 Y-46.4008 
G01 X8.7750 Y-46.4777 
G01 X8.6194 Y-46.5421 
G01 X8.4542 Y-46.5750 
G01 X6.7858 Y-46.5750 
G01 X6.6206 Y-46.5421 
G01 X6.4650 Y-46.4777 
G01 X6.3250 Y-46.3841 
G01 X6.2059 Y-46.2650 
G01 X6.1123 Y-46.1250 
G01 X6.0479 Y-45.9694 
G01 X6.0150 Y-45.8042 
G01 X6.0150 Y-45.6358 
G01 X6.0479 Y-45.4706 
G01 X6.1123 Y-45.3150 
G01 X6.2059 Y-45.1750 
G01 X6.3250 Y-45.0559 
G01 X6.4650 Y-44.9623 
G01 X6.6206 Y-44.8979 
G01 X6.7858 Y-44.8650 
G01 X8.4542 Y-44.8650 
G01 X8.6194 Y-44.8979 
G01 X8.7750 Y-44.9623 
G01 X8.8900 Y-45.0392 
G01 X9.0050 Y-44.9623 
G01 X9.1606 Y-44.8979 
G01 X9.3258 Y-44.8650 
G01 X10.9942 Y-44.8650 
G01 X11.1594 Y-44.8979 
G01 X11.3150 Y-44.9623 
G01 X11.4550 Y-45.0559 
G01 X11.5741 Y-45.1750 
G01 X11.6677 Y-45.3150 
G01 X11.7078 Y-45.4118 
G01 X14.9622 Y-45.4118 
G01 X15.0023 Y-45.3150 
G01 X15.0959 Y-45.1750 
G01 X15.2150 Y-45.0559 
G01 X15.3550 Y-44.9623 
G01 X15.5106 Y-44.8979 
G01 X15.6758 Y-44.8650 
G01 X17.3442 Y-44.8650 
G01 X17.5094 Y-44.8979 
G01 X17.6650 Y-44.9623 
G01 X17.8050 Y-45.0559 
G01 X17.9241 Y-45.1750 
G01 X18.0177 Y-45.3150 
G01 X18.0821 Y-45.4706 
G01 X18.1150 Y-45.6358 
G01 X18.1150 Y-45.8042 
G01 X18.0821 Y-45.9694 
G01 X18.0177 Y-46.1250 
G01 X17.9241 Y-46.2650 
G01 X17.8050 Y-46.3841 
G01 X17.6650 Y-46.4777 
G01 X17.5094 Y-46.5421 
G01 X17.3442 Y-46.5750 
G00 Z1.0000 
G00 X17.3442 Y-41.4950 
G01 Z-0.0800 F100.00 
G01 X15.6758 Y-41.4950 F240.00 
G01 X15.5106 Y-41.4621 
G01 X15.3550 Y-41.3977 
G01 X15.2150 Y-41.3041 
G01 X15.0959 Y-41.1850 
G01 X15.0023 Y-41.0450 
G01 X14.9622 Y-40.9482 
G01 X11.7078 Y-40.9482 
G01 X11.6677 Y-41.0450 
G01 X11.5741 Y-41.1850 
G01 X11.4550 Y-41.3041 
G01 X11.3150 Y-41.3977 
G01 X11.1594 Y-41.4621 
G01 X10.9942 Y-41.4950 
G01 X9.3258 Y-41.4950 
G01 X9.1606 Y-41.4621 
G01 X9.0050 Y-41.3977 
G01 X8.8900 Y-41.3208 
G01 X8.7750 Y-41.3977 
G01 X8.6194 Y-41.4621 
G01 X8.4542 Y-41.4950 
G01 X6.7858 Y-41.4950 
G01 X6.6206 Y-41.4621 
G01 X6.4650 Y-41.3977 
G01 X6.3250 Y-41.3041 
G01 X6.2059 Y-41.1850 
G01 X6.1123 Y-41.0450 
G01 X6.0479 Y-40.8894 
G01 X6.0150 Y-40.7242 
G01 X6.0150 Y-40.5558 
G01 X6.0479 Y-40.3906 
G01 X6.1123 Y-40.2350 
G01 X6.2059 Y-40.0950 
G01 X6.3250 Y-39.9759 
G01 X6.4650 Y-39.8823 
G01 X6.6206 Y-39.8179 
G01 X6.7858 Y-39.7850 
G01 X8.4542 Y-39.7850 
G01 X8.6194 Y-39.8179 
G01 X8.7750 Y-39.8823 
G01 X8.8900 Y-39.9592 
G01 X9.0050 Y-39.8823 
G01 X9.1606 Y-39.8179 
G01 X9.3258 Y-39.7850 
G01 X10.9942 Y-39.7850 
G01 X11.1594 Y-39.8179 
G01 X11.3150 Y-39.8823 
G01 X11.4550 Y-39.9759 
G01 X11.5741 Y-40.0950 
G01 X11.6677 Y-40.2350 
G01 X11.7078 Y-40.3318 
G01 X14.9622 Y-40.3318 
G01 X15.0023 Y-40.2350 
G01 X15.0959 Y-40.0950 
G01 X15.2150 Y-39.9759 
G01 X15.3550 Y-39.8823 
G01 X15.5106 Y-39.8179 
G01 X15.6758 Y-39.7850 
G01 X17.3442 Y-39.7850 
G01 X17.5094 Y-39.8179 
G01 X17.6650 Y-39.8823 
G01 X17.8050 Y-39.9759 
G01 X17.9241 Y-40.0950 
G01 X18.0177 Y-40.2350 
G01 X18.0821 Y-40.3906 
G01 X18.1150 Y-40.5558 
G01 X18.1150 Y-40.7242 
G01 X18.0821 Y-40.8894 
G01 X18.0177 Y-41.0450 
G01 X17.9241 Y-41.1850 
G01 X17.8050 Y-41.3041 
G01 X17.6650 Y-41.3977 
G01 X17.5094 Y-41.4621 
G01 X17.3442 Y-41.4950 
G00 Z1.0000 
G00 X17.3442 Y-36.4150 
G01 Z-0.0800 F100.00 
G01 X15.6758 Y-36.4150 F240.00 
G01 X15.5106 Y-36.3821 
G01 X15.3550 Y-36.3177 
G01 X15.2150 Y-36.2241 
G01 X15.0959 Y-36.1050 
G01 X15.0023 Y-35.9650 
G01 X14.9622 Y-35.8682 
G01 X11.7078 Y-35.8682 
G01 X11.6677 Y-35.9650 
G01 X11.5741 Y-36.1050 
G01 X11.4550 Y-36.2241 
G01 X11.3150 Y-36.3177 
G01 X11.1594 Y-36.3821 
G01 X10.9942 Y-36.4150 
G01 X9.3258 Y-36.4150 
G01 X9.1606 Y-36.3821 
G01 X9.0050 Y-36.3177 
G01 X8.8900 Y-36.2408 
G01 X8.7750 Y-36.3177 
G01 X8.6194 Y-36.3821 
G01 X8.4542 Y-36.4150 
G01 X6.7858 Y-36.4150 
G01 X6.6206 Y-36.3821 
G01 X6.4650 Y-36.3177 
G01 X6.3250 Y-36.2241 
G01 X6.2059 Y-36.1050 
G01 X6.1123 Y-35.9650 
G01 X6.0479 Y-35.8094 
G01 X6.0150 Y-35.6442 
G01 X6.0150 Y-35.4758 
G01 X6.0479 Y-35.3106 
G01 X6.1123 Y-35.1550 
G01 X6.2059 Y-35.0150 
G01 X6.3250 Y-34.8959 
G01 X6.4650 Y-34.8023 
G01 X6.6206 Y-34.7379 
G01 X6.7858 Y-34.7050 
G01 X8.4542 Y-34.7050 
G01 X8.6194 Y-34.7379 
G01 X8.7750 Y-34.8023 
G01 X8.8900 Y-34.8792 
G01 X9.0050 Y-34.8023 
G01 X9.1606 Y-34.7379 
G01 X9.3258 Y-34.7050 
G01 X10.9942 Y-34.7050 
G01 X11.1594 Y-34.7379 
G01 X11.3150 Y-34.8023 
G01 X11.4550 Y-34.8959 
G01 X11.5741 Y-35.0150 
G01 X11.6677 Y-35.1550 
G01 X11.7078 Y-35.2518 
G01 X14.9622 Y-35.2518 
G01 X15.0023 Y-35.1550 
G01 X15.0959 Y-35.0150 
G01 X15.2150 Y-34.8959 
G01 X15.3550 Y-34.8023 
G01 X15.5106 Y-34.7379 
G01 X15.6758 Y-34.7050 
G01 X17.3442 Y-34.7050 
G01 X17.5094 Y-34.7379 
G01 X17.6650 Y-34.8023 
G01 X17.8050 Y-34.8959 
G01 X17.9241 Y-35.0150 
G01 X18.0177 Y-35.1550 
G01 X18.0821 Y-35.3106 
G01 X18.1150 Y-35.4758 
G01 X18.1150 Y-35.6442 
G01 X18.0821 Y-35.8094 
G01 X18.0177 Y-35.9650 
G01 X17.9241 Y-36.1050 
G01 X17.8050 Y-36.2241 
G01 X17.6650 Y-36.3177 
G01 X17.5094 Y-36.3821 
G01 X17.3442 Y-36.4150 
G00 Z1.0000 
G00 X17.3442 Y-31.3350 
G01 Z-0.0800 F100.00 
G01 X15.6758 Y-31.3350 F240.00 
G01 X15.5106 Y-31.3021 
G01 X15.3550 Y-31.2377 
G01 X15.2150 Y-31.1441 
G01 X15.0959 Y-31.0250 
G01 X15.0023 Y-30.8850 
G01 X14.9379 Y-30.7294 
G01 X14.9050 Y-30.5642 
G01 X14.9050 Y-30.3958 
G01 X14.9379 Y-30.2306 
G01 X15.0023 Y-30.0750 
G01 X15.0959 Y-29.9350 
G01 X15.2150 Y-29.8159 
G01 X15.3550 Y-29.7223 
G01 X15.5106 Y-29.6579 
G01 X15.6758 Y-29.6250 
G01 X17.3442 Y-29.6250 
G01 X17.5094 Y-29.6579 
G01 X17.6650 Y-29.7223 
G01 X17.8050 Y-29.8159 
G01 X17.9241 Y-29.9350 
G01 X18.0177 Y-30.0750 
G01 X18.0821 Y-30.2306 
G01 X18.1150 Y-30.3958 
G01 X18.1150 Y-30.5642 
G01 X18.0821 Y-30.7294 
G01 X18.0177 Y-30.8850 
G01 X17.9241 Y-31.0250 
G01 X17.8050 Y-31.1441 
G01 X17.6650 Y-31.2377 
G01 X17.5094 Y-31.3021 
G01 X17.3442 Y-31.3350 
G00 Z1.0000 
G00 X17.3442 Y-26.2550 
G01 Z-0.0800 F100.00 
G01 X15.6758 Y-26.2550 F240.00 
G01 X15.5106 Y-26.2221 
G01 X15.3550 Y-26.1577 
G01 X15.2150 Y-26.0641 
G01 X15.0959 Y-25.9450 
G01 X15.0023 Y-25.8050 
G01 X14.9379 Y-25.6494 
G01 X14.9050 Y-25.4842 
G01 X14.9050 Y-25.3158 
G01 X14.9379 Y-25.1506 
G01 X15.0023 Y-24.9950 
G01 X15.0959 Y-24.8550 
G01 X15.2150 Y-24.7359 
G01 X15.3550 Y-24.6423 
G01 X15.5106 Y-24.5779 
G01 X15.6758 Y-24.5450 
G01 X17.3442 Y-24.5450 
G01 X17.5094 Y-24.5779 
G01 X17.6650 Y-24.6423 
G01 X17.8050 Y-24.7359 
G01 X17.9241 Y-24.8550 
G01 X18.0177 Y-24.9950 
G01 X18.0821 Y-25.1506 
G01 X18.1150 Y-25.3158 
G01 X18.1150 Y-25.4842 
G01 X18.0821 Y-25.6494 
G01 X18.0177 Y-25.8050 
G01 X17.9241 Y-25.9450 
G01 X17.8050 Y-26.0641 
G01 X17.6650 Y-26.1577 
G01 X17.5094 Y-26.2221 
G01 X17.3442 Y-26.2550 
G00 Z1.0000 
G00 X5.9750 Y-28.7609 
G01 Z-0.0800 F100.00 
G01 X5.9750 Y-27.1191 F240.00 
G01 X5.9910 Y-27.0805 
G01 X6.0205 Y-27.0510 
G01 X6.0591 Y-27.0350 
G01 X7.0009 Y-27.0350 
G01 X7.0395 Y-27.0510 
G01 X7.0690 Y-27.0805 
G01 X7.0850 Y-27.1191 
G01 X7.0850 Y-27.8608 
G01 X8.9750 Y-27.8608 
G01 X8.9750 Y-27.7481 
G01 X8.9910 Y-27.7095 
G01 X9.0205 Y-27.6800 
G01 X9.0591 Y-27.6640 
G01 X10.3009 Y-27.6640 
G01 X10.3395 Y-27.6800 
G01 X10.3690 Y-27.7095 
G01 X10.3850 Y-27.7481 
G01 X10.3850 Y-28.5899 
G01 X10.3690 Y-28.6285 
G01 X10.3395 Y-28.6580 
G01 X10.3009 Y-28.6740 
G01 X9.0591 Y-28.6740 
G01 X9.0205 Y-28.6580 
G01 X8.9910 Y-28.6285 
G01 X8.9750 Y-28.5899 
G01 X8.9750 Y-28.4772 
G01 X7.9282 Y-28.4772 
G01 X7.9282 Y-30.1718 
G01 X13.2073 Y-30.1718 
G01 X15.0151 Y-28.3641 
G01 X15.0023 Y-28.3450 
G01 X14.9379 Y-28.1894 
G01 X14.9050 Y-28.0242 
G01 X14.9050 Y-27.8558 
G01 X14.9379 Y-27.6906 
G01 X15.0023 Y-27.5350 
G01 X15.0959 Y-27.3950 
G01 X15.2150 Y-27.2759 
G01 X15.3550 Y-27.1823 
G01 X15.5106 Y-27.1179 
G01 X15.6758 Y-27.0850 
G01 X17.3442 Y-27.0850 
G01 X17.5094 Y-27.1179 
G01 X17.6650 Y-27.1823 
G01 X17.8050 Y-27.2759 
G01 X17.9241 Y-27.3950 
G01 X18.0177 Y-27.5350 
G01 X18.0578 Y-27.6318 
G01 X18.9223 Y-27.6318 
G01 X20.0118 Y-26.5423 
G01 X20.0118 Y-15.1994 
G01 X20.0328 Y-15.1210 
G01 X20.0734 Y-15.0508 
G01 X20.1308 Y-14.9934 
G01 X24.1434 Y-10.9808 
G01 X24.2008 Y-10.9234 
G01 X24.2710 Y-10.8828 
G01 X24.3494 Y-10.8618 
G01 X25.5700 Y-10.8618 
G01 X25.5700 Y-10.3991 
G01 X25.5860 Y-10.3605 
G01 X25.6155 Y-10.3310 
G01 X25.6541 Y-10.3150 
G01 X26.4159 Y-10.3150 
G01 X26.4545 Y-10.3310 
G01 X26.4840 Y-10.3605 
G01 X26.5000 Y-10.3991 
G01 X26.5000 Y-11.9409 
G01 X26.4840 Y-11.9795 
G01 X26.4545 Y-12.0090 
G01 X26.4159 Y-12.0250 
G01 X25.6541 Y-12.0250 
G01 X25.6155 Y-12.0090 
G01 X25.5860 Y-11.9795 
G01 X25.5700 Y-11.9409 
G01 X25.5700 Y-11.4782 
G01 X24.5177 Y-11.4782 
G01 X20.6282 Y-15.3677 
G01 X20.6282 Y-26.7106 
G01 X20.6072 Y-26.7890 
G01 X20.5666 Y-26.8592 
G01 X20.5092 Y-26.9166 
G01 X19.2392 Y-28.1866 
G01 X19.1690 Y-28.2272 
G01 X19.0906 Y-28.2482 
G01 X18.0578 Y-28.2482 
G01 X18.0177 Y-28.3450 
G01 X17.9241 Y-28.4850 
G01 X17.8050 Y-28.6041 
G01 X17.6650 Y-28.6977 
G01 X17.5094 Y-28.7621 
G01 X17.3442 Y-28.7950 
G01 X15.6758 Y-28.7950 
G01 X15.5106 Y-28.7621 
G01 X15.4951 Y-28.7557 
G01 X13.5816 Y-30.6692 
G01 X13.5242 Y-30.7266 
G01 X13.4540 Y-30.7672 
G01 X13.3756 Y-30.7882 
G01 X5.2077 Y-30.7882 
G01 X4.1182 Y-31.8777 
G01 X4.1182 Y-47.5250 
G01 X4.6309 Y-47.5250 
G01 X4.6695 Y-47.5410 
G01 X4.6990 Y-47.5705 
G01 X4.7150 Y-47.6091 
G01 X4.7150 Y-47.9518 
G01 X6.0722 Y-47.9518 
G01 X6.1123 Y-47.8550 
G01 X6.2059 Y-47.7150 
G01 X6.3250 Y-47.5959 
G01 X6.4650 Y-47.5023 
G01 X6.6206 Y-47.4379 
G01 X6.7858 Y-47.4050 
G01 X8.4542 Y-47.4050 
G01 X8.6194 Y-47.4379 
G01 X8.7750 Y-47.5023 
G01 X8.8900 Y-47.5792 
G01 X9.0050 Y-47.5023 
G01 X9.1606 Y-47.4379 
G01 X9.3258 Y-47.4050 
G01 X10.9942 Y-47.4050 
G01 X11.1594 Y-47.4379 
G01 X11.3150 Y-47.5023 
G01 X11.4550 Y-47.5959 
G01 X11.5741 Y-47.7150 
G01 X11.6677 Y-47.8550 
G01 X11.7321 Y-48.0106 
G01 X11.7650 Y-48.1758 
G01 X11.7650 Y-48.3442 
G01 X11.7321 Y-48.5094 
G01 X11.6677 Y-48.6650 
G01 X11.5741 Y-48.8050 
G01 X11.4550 Y-48.9241 
G01 X11.3150 Y-49.0177 
G01 X11.1594 Y-49.0821 
G01 X10.9942 Y-49.1150 
G01 X9.3258 Y-49.1150 
G01 X9.1606 Y-49.0821 
G01 X9.0050 Y-49.0177 
G01 X8.8900 Y-48.9408 
G01 X8.7750 Y-49.0177 
G01 X8.6194 Y-49.0821 
G01 X8.4542 Y-49.1150 
G01 X6.7858 Y-49.1150 
G01 X6.6206 Y-49.0821 
G01 X6.4650 Y-49.0177 
G01 X6.3250 Y-48.9241 
G01 X6.2059 Y-48.8050 
G01 X6.1123 Y-48.6650 
G01 X6.0722 Y-48.5682 
G01 X4.7078 Y-48.5682 
G01 X4.6990 Y-48.5895 
G01 X4.6695 Y-48.6190 
G01 X4.6309 Y-48.6350 
G01 X2.9891 Y-48.6350 
G01 X2.9505 Y-48.6190 
G01 X2.9210 Y-48.5895 
G01 X2.9050 Y-48.5509 
G01 X2.9050 Y-47.6091 
G01 X2.9210 Y-47.5705 
G01 X2.9505 Y-47.5410 
G01 X2.9891 Y-47.5250 
G01 X3.5018 Y-47.5250 
G01 X3.5018 Y-31.7094 
G01 X3.5228 Y-31.6310 
G01 X3.5634 Y-31.5608 
G01 X4.8908 Y-30.2334 
G01 X4.9610 Y-30.1928 
G01 X5.0394 Y-30.1718 
G01 X7.3118 Y-30.1718 
G01 X7.3118 Y-28.4772 
G01 X7.0850 Y-28.4772 
G01 X7.0850 Y-28.7609 
G01 X7.0690 Y-28.7995 
G01 X7.0395 Y-28.8290 
G01 X7.0009 Y-28.8450 
G01 X6.0591 Y-28.8450 
G01 X6.0205 Y-28.8290 
G01 X5.9910 Y-28.7995 
G01 X5.9750 Y-28.7609 
G00 Z1.0000 
G00 X29.0400 Y-10.3991 
G01 Z-0.0800 F100.00 
G01 X29.0400 Y-11.9409 F240.00 
G01 X29.0240 Y-11.9795 
G01 X28.9945 Y-12.0090 
G01 X28.9559 Y-12.0250 
G01 X28.1941 Y-12.0250 
G01 X28.1555 Y-12.0090 
G01 X28.1260 Y-11.9795 
G01 X28.1100 Y-11.9409 
G01 X28.1100 Y-10.3991 
G01 X28.1260 Y-10.3605 
G01 X28.1555 Y-10.3310 
G01 X28.1941 Y-10.3150 
G01 X28.2668 Y-10.3150 
G01 X28.2668 Y-9.3352 
G01 X26.8598 Y-7.9282 
G01 X22.6702 Y-7.9282 
G01 X22.1541 Y-8.4442 
G01 X22.0967 Y-8.5016 
G01 X22.0265 Y-8.5422 
G01 X21.9481 Y-8.5632 
G01 X17.9077 Y-8.5632 
G01 X16.6188 Y-9.8521 
G01 X16.6491 Y-9.9252 
G01 X16.6800 Y-10.0807 
G01 X16.6800 Y-10.2393 
G01 X16.6491 Y-10.3948 
G01 X16.5884 Y-10.5413 
G01 X16.5003 Y-10.6732 
G01 X16.3882 Y-10.7853 
G01 X16.2563 Y-10.8734 
G01 X16.1098 Y-10.9341 
G01 X15.9543 Y-10.9650 
G01 X15.7957 Y-10.9650 
G01 X15.6402 Y-10.9341 
G01 X15.4937 Y-10.8734 
G01 X15.3618 Y-10.7853 
G01 X15.2497 Y-10.6732 
G01 X15.1616 Y-10.5413 
G01 X15.1009 Y-10.3948 
G01 X15.0700 Y-10.2393 
G01 X15.0700 Y-10.0807 
G01 X15.1009 Y-9.9252 
G01 X15.1616 Y-9.7787 
G01 X15.2497 Y-9.6468 
G01 X15.3618 Y-9.5347 
G01 X15.4937 Y-9.4466 
G01 X15.6402 Y-9.3859 
G01 X15.7957 Y-9.3550 
G01 X15.9543 Y-9.3550 
G01 X16.1098 Y-9.3859 
G01 X16.1829 Y-9.4162 
G01 X17.5334 Y-8.0658 
G01 X17.5908 Y-8.0084 
G01 X17.6610 Y-7.9678 
G01 X17.7394 Y-7.9468 
G01 X21.7798 Y-7.9468 
G01 X22.3533 Y-7.3734 
G01 X22.4235 Y-7.3328 
G01 X22.5019 Y-7.3118 
G01 X27.0281 Y-7.3118 
G01 X27.1065 Y-7.3328 
G01 X27.1767 Y-7.3734 
G01 X27.2341 Y-7.4308 
G01 X28.8216 Y-9.0183 
G01 X28.8622 Y-9.0885 
G01 X28.8832 Y-9.1669 
G01 X28.8832 Y-10.3150 
G01 X28.9559 Y-10.3150 
G01 X28.9945 Y-10.3310 
G01 X29.0240 Y-10.3605 
G01 X29.0400 Y-10.3991 
G00 Z1.0000 
G00 X11.9767 Y-32.5218 
G01 Z-0.0800 F100.00 
G01 X11.8983 Y-32.5008 F240.00 
G01 X11.8281 Y-32.4602 
G01 X11.7707 Y-32.4028 
G01 X11.5019 Y-32.1341 
G01 X11.1179 Y-31.9750 
G01 X9.2021 Y-31.9750 
G01 X9.0304 Y-32.0461 
G01 X8.9705 Y-32.0710 
G01 X8.9121 Y-32.0787 
G01 X8.8900 Y-32.0816 
G01 X8.8697 Y-32.0789 
G01 X8.8095 Y-32.0710 
G01 X8.7346 Y-32.0399 
G01 X8.5779 Y-31.9750 
G01 X6.6621 Y-31.9750 
G01 X6.2781 Y-32.1341 
G01 X5.9841 Y-32.4281 
G01 X5.8250 Y-32.8121 
G01 X5.8250 Y-33.2279 
G01 X5.9841 Y-33.6119 
G01 X6.2780 Y-33.9059 
G01 X6.4974 Y-33.9968 
G01 X6.5554 Y-34.0208 
G01 X6.5829 Y-34.0419 
G01 X6.6198 Y-34.0702 
G01 X6.6692 Y-34.1346 
G01 X6.7002 Y-34.2095 
G01 X6.7108 Y-34.2900 
G01 X6.7096 Y-34.2997 
G01 X6.7002 Y-34.3705 
G01 X6.6817 Y-34.4153 
G01 X6.6692 Y-34.4454 
G01 X6.6481 Y-34.4729 
G01 X6.6198 Y-34.5098 
G01 X6.5554 Y-34.5592 
G01 X6.4804 Y-34.5903 
G01 X6.2781 Y-34.6741 
G01 X5.9841 Y-34.9681 
G01 X5.8250 Y-35.3521 
G01 X5.8250 Y-35.7679 
G01 X5.9841 Y-36.1519 
G01 X6.2780 Y-36.4459 
G01 X6.4974 Y-36.5368 
G01 X6.5554 Y-36.5608 
G01 X6.5829 Y-36.5819 
G01 X6.6198 Y-36.6102 
G01 X6.6692 Y-36.6746 
G01 X6.7002 Y-36.7495 
G01 X6.7108 Y-36.8300 
G01 X6.7096 Y-36.8397 
G01 X6.7002 Y-36.9105 
G01 X6.6817 Y-36.9553 
G01 X6.6692 Y-36.9854 
G01 X6.6481 Y-37.0129 
G01 X6.6198 Y-37.0498 
G01 X6.5554 Y-37.0992 
G01 X6.4804 Y-37.1303 
G01 X6.2781 Y-37.2141 
G01 X5.9841 Y-37.5081 
G01 X5.8250 Y-37.8921 
G01 X5.8250 Y-38.3079 
G01 X5.9841 Y-38.6919 
G01 X6.2780 Y-38.9859 
G01 X6.4804 Y-39.0697 
G01 X6.5554 Y-39.1008 
G01 X6.6011 Y-39.1358 
G01 X6.6198 Y-39.1502 
G01 X6.6692 Y-39.2146 
G01 X6.7002 Y-39.2895 
G01 X6.7108 Y-39.3700 
G01 X6.7053 Y-39.4119 
G01 X6.7002 Y-39.4505 
G01 X6.6950 Y-39.4631 
G01 X6.6692 Y-39.5254 
G01 X6.6341 Y-39.5711 
G01 X6.6198 Y-39.5898 
G01 X6.5554 Y-39.6392 
G01 X6.4804 Y-39.6703 
G01 X6.2781 Y-39.7541 
G01 X5.9841 Y-40.0481 
G01 X5.8250 Y-40.4321 
G01 X5.8250 Y-40.8479 
G01 X5.9841 Y-41.2319 
G01 X6.2780 Y-41.5259 
G01 X6.4974 Y-41.6168 
G01 X6.5554 Y-41.6408 
G01 X6.5829 Y-41.6619 
G01 X6.6198 Y-41.6902 
G01 X6.6692 Y-41.7546 
G01 X6.7002 Y-41.8295 
G01 X6.7108 Y-41.9100 
G01 X6.7096 Y-41.9197 
G01 X6.7002 Y-41.9905 
G01 X6.6817 Y-42.0353 
G01 X6.6692 Y-42.0654 
G01 X6.6481 Y-42.0929 
G01 X6.6198 Y-42.1298 
G01 X6.5554 Y-42.1792 
G01 X6.4804 Y-42.2103 
G01 X6.2781 Y-42.2941 
G01 X5.9841 Y-42.5881 
G01 X5.8250 Y-42.9721 
G01 X5.8250 Y-43.3879 
G01 X5.9841 Y-43.7719 
G01 X6.2780 Y-44.0659 
G01 X6.4974 Y-44.1568 
G01 X6.5554 Y-44.1808 
G01 X6.5829 Y-44.2019 
G01 X6.6198 Y-44.2302 
G01 X6.6692 Y-44.2946 
G01 X6.7002 Y-44.3695 
G01 X6.7108 Y-44.4500 
G01 X6.7096 Y-44.4597 
G01 X6.7002 Y-44.5305 
G01 X6.6817 Y-44.5753 
G01 X6.6692 Y-44.6054 
G01 X6.6481 Y-44.6329 
G01 X6.6198 Y-44.6698 
G01 X6.5554 Y-44.7192 
G01 X6.4804 Y-44.7503 
G01 X6.2781 Y-44.8341 
G01 X5.9841 Y-45.1281 
G01 X5.8250 Y-45.5121 
G01 X5.8250 Y-45.9279 
G01 X5.9841 Y-46.3119 
G01 X6.2780 Y-46.6059 
G01 X6.4974 Y-46.6968 
G01 X6.5554 Y-46.7208 
G01 X6.5829 Y-46.7418 
G01 X6.6198 Y-46.7702 
G01 X6.6692 Y-46.8346 
G01 X6.7002 Y-46.9095 
G01 X6.7108 Y-46.9900 
G01 X6.7096 Y-46.9997 
G01 X6.7002 Y-47.0705 
G01 X6.6817 Y-47.1153 
G01 X6.6692 Y-47.1454 
G01 X6.6481 Y-47.1729 
G01 X6.6198 Y-47.2098 
G01 X6.5554 Y-47.2592 
G01 X6.4804 Y-47.2903 
G01 X6.2781 Y-47.3741 
G01 X6.0093 Y-47.6428 
G01 X5.9581 Y-47.6940 
G01 X5.9519 Y-47.7002 
G01 X5.8816 Y-47.7408 
G01 X5.8033 Y-47.7618 
G01 X5.1726 Y-47.7618 
G01 X5.0942 Y-47.7408 
G01 X5.0240 Y-47.7002 
G01 X4.9666 Y-47.6428 
G01 X4.9260 Y-47.5726 
G01 X4.9100 Y-47.5128 
G01 X4.7322 Y-47.3350 
G01 X4.5758 Y-47.3350 
G01 X4.4974 Y-47.3140 
G01 X4.4272 Y-47.2734 
G01 X4.3698 Y-47.2160 
G01 X4.3292 Y-47.1458 
G01 X4.3082 Y-47.0674 
G01 X4.3082 Y-32.0434 
G01 X4.3292 Y-31.9651 
G01 X4.3698 Y-31.8948 
G01 X4.4272 Y-31.8374 
G01 X5.2248 Y-31.0398 
G01 X5.2951 Y-30.9992 
G01 X5.3734 Y-30.9782 
G01 X13.4341 Y-30.9782 
G01 X13.6172 Y-30.9024 
G01 X13.7790 Y-30.7406 
G01 X14.1602 Y-30.3594 
G01 X14.2106 Y-30.3089 
G01 X14.2176 Y-30.3020 
G01 X14.2878 Y-30.2614 
G01 X14.3662 Y-30.2404 
G01 X14.4474 Y-30.2404 
G01 X14.5258 Y-30.2614 
G01 X14.5960 Y-30.3020 
G01 X14.6534 Y-30.3594 
G01 X14.6940 Y-30.4297 
G01 X14.7150 Y-30.5080 
G01 X14.7150 Y-30.6879 
G01 X14.8741 Y-31.0719 
G01 X15.1680 Y-31.3659 
G01 X15.3874 Y-31.4568 
G01 X15.4454 Y-31.4808 
G01 X15.4729 Y-31.5019 
G01 X15.5098 Y-31.5302 
G01 X15.5592 Y-31.5946 
G01 X15.5902 Y-31.6695 
G01 X15.6008 Y-31.7500 
G01 X15.5996 Y-31.7597 
G01 X15.5902 Y-31.8305 
G01 X15.5717 Y-31.8753 
G01 X15.5592 Y-31.9054 
G01 X15.5381 Y-31.9329 
G01 X15.5098 Y-31.9698 
G01 X15.4454 Y-32.0192 
G01 X15.3704 Y-32.0503 
G01 X15.1681 Y-32.1341 
G01 X14.8419 Y-32.4602 
G01 X14.7716 Y-32.5008 
G01 X14.6933 Y-32.5218 
G01 X14.6121 Y-32.5218 
G01 X11.9767 Y-32.5218 
G00 Z1.0000 
G00 X16.7933 Y-10.5431 
G01 Z-0.0800 F100.00 
G01 X16.8011 Y-10.5243 F240.00 
G01 X16.8063 Y-10.5046 
G01 X16.8165 Y-10.4870 
G01 X16.8746 Y-10.3469 
G01 X16.8758 Y-10.3439 
G01 X16.9252 Y-10.2796 
G01 X16.9896 Y-10.2302 
G01 X17.0645 Y-10.1991 
G01 X17.1450 Y-10.1885 
G01 X17.2255 Y-10.1991 
G01 X17.2986 Y-10.2294 
G01 X17.3648 Y-10.2796 
G01 X17.4142 Y-10.3439 
G01 X17.4735 Y-10.4870 
G01 X17.4837 Y-10.5046 
G01 X17.4889 Y-10.5243 
G01 X17.4967 Y-10.5431 
G01 X17.4994 Y-10.5634 
G01 X17.5047 Y-10.5830 
G01 X17.5047 Y-10.6034 
G01 X17.5073 Y-10.6236 
G01 X17.5047 Y-10.6438 
G01 X17.5047 Y-10.6642 
G01 X17.4994 Y-10.6839 
G01 X17.4967 Y-10.7041 
G01 X17.4889 Y-10.7229 
G01 X17.4837 Y-10.7426 
G01 X17.4735 Y-10.7602 
G01 X17.4657 Y-10.7790 
G01 X17.4533 Y-10.7952 
G01 X17.4431 Y-10.8128 
G01 X17.4287 Y-10.8272 
G01 X17.4163 Y-10.8434 
G01 X17.4001 Y-10.8558 
G01 X17.3857 Y-10.8702 
G01 X17.3681 Y-10.8804 
G01 X17.3519 Y-10.8928 
G01 X17.3331 Y-10.9006 
G01 X17.3154 Y-10.9108 
G01 X17.2957 Y-10.9161 
G01 X17.2769 Y-10.9239 
G01 X17.2567 Y-10.9265 
G01 X17.2370 Y-10.9318 
G01 X17.2167 Y-10.9318 
G01 X17.1965 Y-10.9345 
G01 X17.1763 Y-10.9318 
G01 X17.1137 Y-10.9318 
G01 X17.0935 Y-10.9345 
G01 X17.0733 Y-10.9318 
G01 X17.0530 Y-10.9318 
G01 X17.0333 Y-10.9265 
G01 X17.0131 Y-10.9239 
G01 X16.9942 Y-10.9161 
G01 X16.9746 Y-10.9108 
G01 X16.9569 Y-10.9006 
G01 X16.9381 Y-10.8928 
G01 X16.9219 Y-10.8804 
G01 X16.9043 Y-10.8702 
G01 X16.8899 Y-10.8558 
G01 X16.8737 Y-10.8434 
G01 X16.8613 Y-10.8272 
G01 X16.8469 Y-10.8128 
G01 X16.8367 Y-10.7952 
G01 X16.8243 Y-10.7790 
G01 X16.8165 Y-10.7602 
G01 X16.8063 Y-10.7426 
G01 X16.8011 Y-10.7229 
G01 X16.7933 Y-10.7041 
G01 X16.7906 Y-10.6839 
G01 X16.7853 Y-10.6642 
G01 X16.7853 Y-10.6438 
G01 X16.7827 Y-10.6236 
G01 X16.7853 Y-10.6034 
G01 X16.7853 Y-10.5830 
G01 X16.7906 Y-10.5633 
G01 X16.7933 Y-10.5431 
G00 Z1.0000 
G00 X9.0954 Y-47.2592 
G01 Z-0.0800 F100.00 
G01 X9.0954 Y-47.2592 F240.00 
G01 X9.0645 Y-47.2720 
G01 X9.0083 Y-47.2953 
G01 X8.9705 Y-47.3110 
G01 X8.9298 Y-47.3163 
G01 X8.8900 Y-47.3216 
G01 X8.8549 Y-47.3169 
G01 X8.8095 Y-47.3110 
G01 X8.7708 Y-47.2949 
G01 X8.6846 Y-47.2592 
G01 X8.6202 Y-47.2098 
G01 X8.5708 Y-47.1454 
G01 X8.5398 Y-47.0705 
G01 X8.5292 Y-46.9900 
G01 X8.5398 Y-46.9096 
G01 X8.5708 Y-46.8346 
G01 X8.6202 Y-46.7702 
G01 X8.6846 Y-46.7208 
G01 X8.7030 Y-46.7132 
G01 X8.7346 Y-46.7001 
G01 X8.7628 Y-46.6884 
G01 X8.8095 Y-46.6690 
G01 X8.8498 Y-46.6637 
G01 X8.8900 Y-46.6584 
G01 X8.9293 Y-46.6636 
G01 X8.9704 Y-46.6690 
G01 X9.0093 Y-46.6851 
G01 X9.0454 Y-46.7001 
G01 X9.0763 Y-46.7129 
G01 X9.0954 Y-46.7208 
G01 X9.1349 Y-46.7511 
G01 X9.1598 Y-46.7702 
G01 X9.1797 Y-46.7961 
G01 X9.2092 Y-46.8346 
G01 X9.2202 Y-46.8612 
G01 X9.2402 Y-46.9095 
G01 X9.2454 Y-46.9485 
G01 X9.2508 Y-46.9900 
G01 X9.2451 Y-47.0333 
G01 X9.2402 Y-47.0705 
G01 X9.2195 Y-47.1206 
G01 X9.2092 Y-47.1454 
G01 X9.1789 Y-47.1849 
G01 X9.1598 Y-47.2098 
G01 X9.1338 Y-47.2297 
G01 X9.0954 Y-47.2592 
G00 Z1.0000 
G00 X9.0954 Y-37.0992 
G01 Z-0.0800 F100.00 
G01 X9.0954 Y-37.0992 F240.00 
G01 X9.0645 Y-37.1120 
G01 X9.0083 Y-37.1353 
G01 X8.9705 Y-37.1510 
G01 X8.9298 Y-37.1563 
G01 X8.8900 Y-37.1616 
G01 X8.8549 Y-37.1569 
G01 X8.8095 Y-37.1510 
G01 X8.7708 Y-37.1349 
G01 X8.6846 Y-37.0992 
G01 X8.6202 Y-37.0498 
G01 X8.5708 Y-36.9854 
G01 X8.5398 Y-36.9105 
G01 X8.5292 Y-36.8300 
G01 X8.5398 Y-36.7495 
G01 X8.5708 Y-36.6746 
G01 X8.6202 Y-36.6102 
G01 X8.6846 Y-36.5608 
G01 X8.7030 Y-36.5532 
G01 X8.7346 Y-36.5401 
G01 X8.7628 Y-36.5284 
G01 X8.8095 Y-36.5090 
G01 X8.8498 Y-36.5037 
G01 X8.8900 Y-36.4984 
G01 X8.9293 Y-36.5036 
G01 X8.9704 Y-36.5090 
G01 X9.0093 Y-36.5251 
G01 X9.0454 Y-36.5401 
G01 X9.0763 Y-36.5529 
G01 X9.0954 Y-36.5608 
G01 X9.1349 Y-36.5911 
G01 X9.1598 Y-36.6102 
G01 X9.1797 Y-36.6361 
G01 X9.2092 Y-36.6746 
G01 X9.2202 Y-36.7012 
G01 X9.2402 Y-36.7495 
G01 X9.2454 Y-36.7885 
G01 X9.2508 Y-36.8300 
G01 X9.2451 Y-36.8733 
G01 X9.2402 Y-36.9105 
G01 X9.2195 Y-36.9606 
G01 X9.2092 Y-36.9854 
G01 X9.1789 Y-37.0249 
G01 X9.1598 Y-37.0498 
G01 X9.1338 Y-37.0697 
G01 X9.0954 Y-37.0992 
G00 Z1.0000 
G00 X9.0954 Y-39.6392 
G01 Z-0.0800 F100.00 
G01 X9.0954 Y-39.6392 F240.00 
G01 X9.0645 Y-39.6520 
G01 X9.0083 Y-39.6753 
G01 X8.9705 Y-39.6910 
G01 X8.9298 Y-39.6963 
G01 X8.8900 Y-39.7016 
G01 X8.8549 Y-39.6969 
G01 X8.8095 Y-39.6910 
G01 X8.7708 Y-39.6749 
G01 X8.6846 Y-39.6392 
G01 X8.6202 Y-39.5898 
G01 X8.5708 Y-39.5254 
G01 X8.5398 Y-39.4505 
G01 X8.5292 Y-39.3700 
G01 X8.5398 Y-39.2895 
G01 X8.5708 Y-39.2146 
G01 X8.6202 Y-39.1502 
G01 X8.6846 Y-39.1008 
G01 X8.7030 Y-39.0932 
G01 X8.7346 Y-39.0801 
G01 X8.7628 Y-39.0684 
G01 X8.8095 Y-39.0490 
G01 X8.8498 Y-39.0437 
G01 X8.8900 Y-39.0384 
G01 X8.9293 Y-39.0436 
G01 X8.9704 Y-39.0490 
G01 X9.0093 Y-39.0651 
G01 X9.0454 Y-39.0801 
G01 X9.0763 Y-39.0929 
G01 X9.0954 Y-39.1008 
G01 X9.1349 Y-39.1311 
G01 X9.1598 Y-39.1502 
G01 X9.1797 Y-39.1761 
G01 X9.2092 Y-39.2146 
G01 X9.2202 Y-39.2412 
G01 X9.2402 Y-39.2895 
G01 X9.2454 Y-39.3285 
G01 X9.2508 Y-39.3700 
G01 X9.2451 Y-39.4133 
G01 X9.2402 Y-39.4505 
G01 X9.2195 Y-39.5006 
G01 X9.2092 Y-39.5254 
G01 X9.1789 Y-39.5649 
G01 X9.1598 Y-39.5898 
G01 X9.1338 Y-39.6097 
G01 X9.0954 Y-39.6392 
G00 Z1.0000 
G00 X8.7858 Y-49.8391 
G01 Z-0.0800 F100.00 
G01 X8.7714 Y-49.8317 F240.00 
G01 X8.7597 Y-49.8302 
G01 X8.7334 Y-49.8193 
G01 X8.7064 Y-49.8105 
G01 X8.6961 Y-49.8038 
G01 X8.6848 Y-49.7991 
G01 X8.6622 Y-49.7818 
G01 X8.6383 Y-49.7663 
G01 X8.6301 Y-49.7572 
G01 X8.6204 Y-49.7497 
G01 X8.6030 Y-49.7272 
G01 X8.5840 Y-49.7060 
G01 X8.5784 Y-49.6951 
G01 X8.5710 Y-49.6854 
G01 X8.5601 Y-49.6591 
G01 X8.5472 Y-49.6337 
G01 X8.5446 Y-49.6217 
G01 X8.5399 Y-49.6104 
G01 X8.5362 Y-49.5822 
G01 X8.5303 Y-49.5543 
G01 X8.5309 Y-49.5421 
G01 X8.5293 Y-49.5299 
G01 X8.5330 Y-49.5017 
G01 X8.5345 Y-49.4733 
G01 X8.5383 Y-49.4616 
G01 X8.5399 Y-49.4495 
G01 X8.5508 Y-49.4232 
G01 X8.5596 Y-49.3961 
G01 X8.5663 Y-49.3858 
G01 X8.5710 Y-49.3745 
G01 X8.5883 Y-49.3519 
G01 X8.6038 Y-49.3281 
G01 X8.6129 Y-49.3199 
G01 X8.6204 Y-49.3101 
G01 X8.6429 Y-49.2928 
G01 X8.6641 Y-49.2738 
G01 X8.6750 Y-49.2682 
G01 X8.6847 Y-49.2607 
G01 X8.7111 Y-49.2498 
G01 X8.7364 Y-49.2369 
G01 X8.7484 Y-49.2344 
G01 X8.7702 Y-49.2253 
G01 X8.8095 Y-49.2090 
G01 X8.8467 Y-49.2041 
G01 X8.8900 Y-49.1984 
G01 X8.9315 Y-49.2039 
G01 X8.9705 Y-49.2090 
G01 X8.9985 Y-49.2206 
G01 X9.0316 Y-49.2344 
G01 X9.0436 Y-49.2369 
G01 X9.0690 Y-49.2498 
G01 X9.0953 Y-49.2607 
G01 X9.1050 Y-49.2682 
G01 X9.1159 Y-49.2738 
G01 X9.1371 Y-49.2928 
G01 X9.1596 Y-49.3101 
G01 X9.1671 Y-49.3199 
G01 X9.1762 Y-49.3281 
G01 X9.1917 Y-49.3519 
G01 X9.2090 Y-49.3745 
G01 X9.2137 Y-49.3858 
G01 X9.2204 Y-49.3961 
G01 X9.2292 Y-49.4232 
G01 X9.2401 Y-49.4495 
G01 X9.2417 Y-49.4616 
G01 X9.2455 Y-49.4733 
G01 X9.2470 Y-49.5017 
G01 X9.2507 Y-49.5299 
G01 X9.2491 Y-49.5421 
G01 X9.2497 Y-49.5543 
G01 X9.2438 Y-49.5822 
G01 X9.2401 Y-49.6104 
G01 X9.2354 Y-49.6217 
G01 X9.2328 Y-49.6337 
G01 X9.2199 Y-49.6591 
G01 X9.2090 Y-49.6854 
G01 X9.2016 Y-49.6951 
G01 X9.1960 Y-49.7060 
G01 X9.1769 Y-49.7272 
G01 X9.1596 Y-49.7498 
G01 X9.1499 Y-49.7572 
G01 X9.1417 Y-49.7663 
G01 X9.1178 Y-49.7818 
G01 X9.0952 Y-49.7992 
G01 X9.0839 Y-49.8038 
G01 X9.0736 Y-49.8105 
G01 X9.0466 Y-49.8193 
G01 X9.0203 Y-49.8302 
G01 X9.0088 Y-49.8317 
G01 X8.9935 Y-49.8393 
G01 X8.9695 Y-49.8444 
G01 X8.9462 Y-49.8520 
G01 X8.9300 Y-49.8528 
G01 X8.9141 Y-49.8561 
G01 X8.8896 Y-49.8548 
G01 X8.8652 Y-49.8561 
G01 X8.8493 Y-49.8527 
G01 X8.8331 Y-49.8518 
G01 X8.8098 Y-49.8442 
G01 X8.7858 Y-49.8391 
G00 Z1.0000 
G00 X18.2284 Y-22.4589 
G01 Z-0.0800 F100.00 
G01 X18.1538 Y-22.3123 F240.00 
G01 X18.0571 Y-22.1792 
G01 X17.9408 Y-22.0629 
G01 X17.8077 Y-21.9662 
G01 X17.6615 Y-21.8918 
G01 X17.6497 Y-21.8902 
G01 X17.6234 Y-21.8793 
G01 X17.5964 Y-21.8705 
G01 X17.5861 Y-21.8638 
G01 X17.5748 Y-21.8591 
G01 X17.5522 Y-21.8418 
G01 X17.5283 Y-21.8263 
G01 X17.5201 Y-21.8172 
G01 X17.5104 Y-21.8097 
G01 X17.4930 Y-21.7872 
G01 X17.4740 Y-21.7660 
G01 X17.4684 Y-21.7551 
G01 X17.4610 Y-21.7454 
G01 X17.4501 Y-21.7191 
G01 X17.4372 Y-21.6937 
G01 X17.4346 Y-21.6817 
G01 X17.4299 Y-21.6704 
G01 X17.4262 Y-21.6422 
G01 X17.4203 Y-21.6143 
G01 X17.4209 Y-21.6021 
G01 X17.4193 Y-21.5899 
G01 X17.4230 Y-21.5617 
G01 X17.4245 Y-21.5333 
G01 X17.4283 Y-21.5216 
G01 X17.4299 Y-21.5095 
G01 X17.4408 Y-21.4832 
G01 X17.4496 Y-21.4561 
G01 X17.4563 Y-21.4458 
G01 X17.4610 Y-21.4345 
G01 X17.4783 Y-21.4119 
G01 X17.4938 Y-21.3880 
G01 X17.5029 Y-21.3799 
G01 X17.5104 Y-21.3701 
G01 X17.5330 Y-21.3528 
G01 X17.5541 Y-21.3338 
G01 X17.5650 Y-21.3282 
G01 X17.5748 Y-21.3207 
G01 X17.6010 Y-21.3098 
G01 X17.6264 Y-21.2969 
G01 X17.6384 Y-21.2944 
G01 X17.8519 Y-21.2059 
G01 X18.1459 Y-20.9119 
G01 X18.3050 Y-20.5279 
G01 X18.3050 Y-20.1121 
G01 X18.1459 Y-19.7281 
G01 X17.8519 Y-19.4341 
G01 X17.4679 Y-19.2750 
G01 X15.5521 Y-19.2750 
G01 X15.1681 Y-19.4341 
G01 X14.8741 Y-19.7281 
G01 X14.7150 Y-20.1121 
G01 X14.7150 Y-20.5279 
G01 X14.8741 Y-20.9119 
G01 X15.1681 Y-21.2059 
G01 X15.3816 Y-21.2944 
G01 X15.3936 Y-21.2969 
G01 X15.4190 Y-21.3098 
G01 X15.4452 Y-21.3207 
G01 X15.4550 Y-21.3282 
G01 X15.4659 Y-21.3338 
G01 X15.4870 Y-21.3528 
G01 X15.5096 Y-21.3701 
G01 X15.5171 Y-21.3799 
G01 X15.5262 Y-21.3880 
G01 X15.5417 Y-21.4119 
G01 X15.5590 Y-21.4345 
G01 X15.5637 Y-21.4458 
G01 X15.5704 Y-21.4561 
G01 X15.5792 Y-21.4832 
G01 X15.5901 Y-21.5095 
G01 X15.5917 Y-21.5216 
G01 X15.5955 Y-21.5333 
G01 X15.5970 Y-21.5617 
G01 X15.6007 Y-21.5899 
G01 X15.5991 Y-21.6021 
G01 X15.5997 Y-21.6143 
G01 X15.5938 Y-21.6422 
G01 X15.5901 Y-21.6704 
G01 X15.5854 Y-21.6817 
G01 X15.5828 Y-21.6937 
G01 X15.5699 Y-21.7191 
G01 X15.5590 Y-21.7454 
G01 X15.5516 Y-21.7551 
G01 X15.5460 Y-21.7660 
G01 X15.5270 Y-21.7872 
G01 X15.5096 Y-21.8097 
G01 X15.4999 Y-21.8172 
G01 X15.4917 Y-21.8263 
G01 X15.4678 Y-21.8418 
G01 X15.4452 Y-21.8591 
G01 X15.4339 Y-21.8638 
G01 X15.4236 Y-21.8705 
G01 X15.3966 Y-21.8793 
G01 X15.3703 Y-21.8902 
G01 X15.3585 Y-21.8918 
G01 X15.2123 Y-21.9662 
G01 X15.0792 Y-22.0629 
G01 X14.9629 Y-22.1792 
G01 X14.8662 Y-22.3123 
G01 X14.7916 Y-22.4589 
G01 X14.7684 Y-22.5300 
G01 X14.9712 Y-22.5300 
G01 X15.0023 Y-22.4550 
G01 X15.0959 Y-22.3150 
G01 X15.2150 Y-22.1959 
G01 X15.3550 Y-22.1023 
G01 X15.5106 Y-22.0379 
G01 X15.6758 Y-22.0050 
G01 X17.3442 Y-22.0050 
G01 X17.5094 Y-22.0379 
G01 X17.6650 Y-22.1023 
G01 X17.8050 Y-22.1959 
G01 X17.9241 Y-22.3150 
G01 X18.0177 Y-22.4550 
G01 X18.0488 Y-22.5300 
G01 X18.2516 Y-22.5300 
G01 X18.2284 Y-22.4589 
G00 Z1.0000 
G00 X17.3442 Y-21.1750 
G01 Z-0.0800 F100.00 
G01 X15.6758 Y-21.1750 F240.00 
G01 X15.5106 Y-21.1421 
G01 X15.3550 Y-21.0777 
G01 X15.2150 Y-20.9841 
G01 X15.0959 Y-20.8650 
G01 X15.0023 Y-20.7250 
G01 X14.9379 Y-20.5694 
G01 X14.9050 Y-20.4042 
G01 X14.9050 Y-20.2358 
G01 X14.9379 Y-20.0706 
G01 X15.0023 Y-19.9150 
G01 X15.0959 Y-19.7750 
G01 X15.2150 Y-19.6559 
G01 X15.3550 Y-19.5623 
G01 X15.5106 Y-19.4979 
G01 X15.6758 Y-19.4650 
G01 X17.3442 Y-19.4650 
G01 X17.5094 Y-19.4979 
G01 X17.6650 Y-19.5623 
G01 X17.8050 Y-19.6559 
G01 X17.9241 Y-19.7750 
G01 X18.0177 Y-19.9150 
G01 X18.0821 Y-20.0706 
G01 X18.1150 Y-20.2358 
G01 X18.1150 Y-20.4042 
G01 X18.0821 Y-20.5694 
G01 X18.0177 Y-20.7250 
G01 X17.9241 Y-20.8650 
G01 X17.8050 Y-20.9841 
G01 X17.6650 Y-21.0777 
G01 X17.5094 Y-21.1421 
G01 X17.3442 Y-21.1750 
G00 Z1.0000 
G00 X13.0662 Y-27.9650 
G01 Z-0.0800 F100.00 
G01 X13.2364 Y-27.9380 F240.00 
G01 X13.4003 Y-27.8848 
G01 X13.5539 Y-27.8065 
G01 X13.6933 Y-27.7052 
G01 X13.8152 Y-27.5833 
G01 X13.9165 Y-27.4439 
G01 X13.9948 Y-27.2903 
G01 X14.0302 Y-27.1814 
G01 X13.8306 Y-27.1814 
G01 X13.7820 Y-27.2987 
G01 X13.6830 Y-27.4469 
G01 X13.5569 Y-27.5730 
G01 X13.4087 Y-27.6720 
G01 X13.2440 Y-27.7402 
G01 X13.0691 Y-27.7750 
G01 X13.0414 Y-27.7750 
G01 X13.0414 Y-27.9650 
G01 X13.0662 Y-27.9650 
G00 Z1.0000 
G00 X11.9938 Y-25.3750 
G01 Z-0.0800 F100.00 
G01 X11.8236 Y-25.4020 F240.00 
G01 X11.6597 Y-25.4552 
G01 X11.5061 Y-25.5335 
G01 X11.3666 Y-25.6348 
G01 X11.2448 Y-25.7567 
G01 X11.1879 Y-25.8349 
G01 X11.1757 Y-25.8560 
G01 X11.1642 Y-25.8676 
G01 X11.1546 Y-25.8808 
G01 X11.1356 Y-25.8961 
G01 X11.1183 Y-25.9134 
G01 X11.1042 Y-25.9216 
G01 X11.0915 Y-25.9318 
G01 X11.0692 Y-25.9418 
G01 X11.0481 Y-25.9540 
G01 X11.0323 Y-25.9582 
G01 X11.0174 Y-25.9649 
G01 X10.9933 Y-25.9687 
G01 X10.9697 Y-25.9750 
G01 X10.9534 Y-25.9750 
G01 X10.9372 Y-25.9776 
G01 X10.9130 Y-25.9750 
G01 X10.8426 Y-25.9750 
G01 X10.7642 Y-25.9540 
G01 X10.6940 Y-25.9134 
G01 X10.6366 Y-25.8560 
G01 X10.5960 Y-25.7858 
G01 X10.5750 Y-25.7074 
G01 X10.5750 Y-24.6478 
G01 X10.4022 Y-24.4750 
G01 X9.7091 Y-24.4750 
G01 X9.6308 Y-24.4540 
G01 X9.5605 Y-24.4134 
G01 X9.5031 Y-24.3560 
G01 X9.4498 Y-24.3027 
G01 X9.4092 Y-24.2324 
G01 X9.3882 Y-24.1541 
G01 X9.3882 Y-19.8334 
G01 X9.4092 Y-19.7551 
G01 X9.4498 Y-19.6848 
G01 X9.4804 Y-19.6541 
G01 X11.3606 Y-17.7740 
G01 X11.3873 Y-17.7472 
G01 X11.4180 Y-17.7166 
G01 X11.4883 Y-17.6760 
G01 X11.5666 Y-17.6550 
G01 X12.9422 Y-17.6550 
G01 X13.1150 Y-17.4822 
G01 X13.1150 Y-15.5378 
G01 X12.9422 Y-15.3650 
G01 X10.8978 Y-15.3650 
G01 X10.7250 Y-15.5378 
G01 X10.7250 Y-16.9134 
G01 X10.7040 Y-16.9917 
G01 X10.6634 Y-17.0620 
G01 X10.6060 Y-17.1194 
G01 X8.6225 Y-19.1030 
G01 X8.4676 Y-19.2578 
G01 X8.3918 Y-19.4409 
G01 X8.3918 Y-19.5542 
G01 X8.3708 Y-19.6326 
G01 X8.3302 Y-19.7028 
G01 X8.2728 Y-19.7602 
G01 X8.2026 Y-19.8008 
G01 X8.1242 Y-19.8218 
G01 X7.4876 Y-19.8218 
G01 X7.4092 Y-19.8008 
G01 X7.3389 Y-19.7602 
G01 X7.2815 Y-19.7028 
G01 X6.9703 Y-19.3916 
G01 X6.5678 Y-19.2249 
G01 X6.1322 Y-19.2249 
G01 X5.7297 Y-19.3916 
G01 X5.4216 Y-19.6997 
G01 X5.4057 Y-19.7380 
G01 X5.4005 Y-19.7577 
G01 X5.3903 Y-19.7753 
G01 X5.3825 Y-19.7941 
G01 X5.3701 Y-19.8103 
G01 X5.3599 Y-19.8280 
G01 X5.3455 Y-19.8424 
G01 X5.3331 Y-19.8585 
G01 X5.3169 Y-19.8709 
G01 X5.3025 Y-19.8853 
G01 X5.2849 Y-19.8955 
G01 X5.2687 Y-19.9079 
G01 X5.2499 Y-19.9157 
G01 X5.2322 Y-19.9259 
G01 X5.2126 Y-19.9312 
G01 X5.1937 Y-19.9390 
G01 X5.1735 Y-19.9416 
G01 X5.1539 Y-19.9469 
G01 X5.1335 Y-19.9469 
G01 X5.1133 Y-19.9496 
G01 X5.0931 Y-19.9469 
G01 X5.0727 Y-19.9469 
G01 X5.0530 Y-19.9416 
G01 X5.0328 Y-19.9390 
G01 X5.0140 Y-19.9312 
G01 X4.9943 Y-19.9259 
G01 X4.9767 Y-19.9157 
G01 X4.9579 Y-19.9079 
G01 X4.9417 Y-19.8955 
G01 X4.9240 Y-19.8853 
G01 X4.9096 Y-19.8709 
G01 X4.8935 Y-19.8585 
G01 X4.8811 Y-19.8424 
G01 X4.2636 Y-19.2249 
G01 X4.1182 Y-19.2249 
G01 X4.1182 Y-19.4149 
G01 X4.1849 Y-19.4149 
G01 X4.7151 Y-19.9451 
G01 X4.7151 Y-20.6949 
G01 X4.1849 Y-21.2251 
G01 X4.1182 Y-21.2251 
G01 X4.1182 Y-21.4151 
G01 X4.2636 Y-21.4151 
G01 X4.8811 Y-20.7976 
G01 X4.8935 Y-20.7815 
G01 X4.9096 Y-20.7691 
G01 X4.9240 Y-20.7547 
G01 X4.9417 Y-20.7445 
G01 X4.9579 Y-20.7321 
G01 X4.9767 Y-20.7243 
G01 X4.9943 Y-20.7141 
G01 X5.0140 Y-20.7088 
G01 X5.0328 Y-20.7010 
G01 X5.0530 Y-20.6984 
G01 X5.0727 Y-20.6931 
G01 X5.0931 Y-20.6931 
G01 X5.1133 Y-20.6904 
G01 X5.1335 Y-20.6931 
G01 X5.1539 Y-20.6931 
G01 X5.1735 Y-20.6984 
G01 X5.1937 Y-20.7010 
G01 X5.2126 Y-20.7088 
G01 X5.2322 Y-20.7141 
G01 X5.2499 Y-20.7243 
G01 X5.2687 Y-20.7321 
G01 X5.2849 Y-20.7445 
G01 X5.3025 Y-20.7547 
G01 X5.3169 Y-20.7691 
G01 X5.3331 Y-20.7815 
G01 X5.3455 Y-20.7976 
G01 X5.3599 Y-20.8120 
G01 X5.3701 Y-20.8297 
G01 X5.3825 Y-20.8459 
G01 X5.3903 Y-20.8647 
G01 X5.4005 Y-20.8823 
G01 X5.4057 Y-20.9020 
G01 X5.4216 Y-20.9403 
G01 X5.7297 Y-21.2484 
G01 X6.1322 Y-21.4151 
G01 X6.5678 Y-21.4151 
G01 X6.9703 Y-21.2484 
G01 X7.3389 Y-20.8798 
G01 X7.4092 Y-20.8392 
G01 X7.4876 Y-20.8182 
G01 X8.1242 Y-20.8182 
G01 X8.2026 Y-20.8392 
G01 X8.2728 Y-20.8798 
G01 X8.3302 Y-20.9372 
G01 X8.3708 Y-21.0074 
G01 X8.3918 Y-21.0858 
G01 X8.3918 Y-23.3642 
G01 X8.3708 Y-23.4426 
G01 X8.3302 Y-23.5128 
G01 X8.2728 Y-23.5702 
G01 X8.2026 Y-23.6108 
G01 X8.1242 Y-23.6318 
G01 X7.5426 Y-23.6318 
G01 X7.4642 Y-23.6108 
G01 X7.3940 Y-23.5702 
G01 X7.3366 Y-23.5128 
G01 X7.2960 Y-23.4426 
G01 X7.2750 Y-23.3642 
G01 X7.2750 Y-23.2078 
G01 X7.1022 Y-23.0350 
G01 X5.9578 Y-23.0350 
G01 X5.7850 Y-23.2078 
G01 X5.7850 Y-25.0522 
G01 X5.9578 Y-25.2250 
G01 X7.1022 Y-25.2250 
G01 X7.2750 Y-25.0522 
G01 X7.2750 Y-24.8958 
G01 X7.2960 Y-24.8174 
G01 X7.3366 Y-24.7472 
G01 X7.3940 Y-24.6898 
G01 X7.4642 Y-24.6492 
G01 X7.5426 Y-24.6282 
G01 X8.2790 Y-24.6282 
G01 X8.3574 Y-24.6492 
G01 X8.4277 Y-24.6898 
G01 X8.4851 Y-24.7472 
G01 X8.7234 Y-24.9855 
