(G-CODE GENERATED BY FLATCAM v8.994 - www.flatcam.org - Version Date: 2020/11/7)

(Name: drl_cnc)
(Type: G-code from Geometry)
(Units: MM)

(Created on Friday, 03 March 2023 at 15:19)

(This preprocessor is the default preprocessor used by FlatCAM.)
(It is made to work with MACH3 compatible motion controllers.)


(TOOLS DIAMETER: )
(Tool: 1 -> Dia: 0.6)
(Tool: 2 -> Dia: 0.8)
(Tool: 3 -> Dia: 0.9)
(Tool: 4 -> Dia: 3.2995)

(FEEDRATE Z: )
(Tool: 1 -> Feedrate: 200.0)
(Tool: 2 -> Feedrate: 200.0)
(Tool: 3 -> Feedrate: 200.0)
(Tool: 4 -> Feedrate: 200.0)

(FEEDRATE RAPIDS: )
(Tool: 1 -> Feedrate Rapids: 2000.0)
(Tool: 2 -> Feedrate Rapids: 2000.0)
(Tool: 3 -> Feedrate Rapids: 2000.0)
(Tool: 4 -> Feedrate Rapids: 2000.0)

(Z_CUT: )
(Tool: 1 -> Z_Cut: -3.0)
(Tool: 2 -> Z_Cut: -3.0)
(Tool: 3 -> Z_Cut: -3.0)
(Tool: 4 -> Z_Cut: -3.0)

(Tools Offset: )
(Tool: 1 -> Offset Z: 0.0)
(Tool: 2 -> Offset Z: 0.0)
(Tool: 3 -> Offset Z: 0.0)
(Tool: 4 -> Offset Z: 0.0)

(Z_MOVE: )
(Tool: 1 -> Z_Move: 2.0)
(Tool: 2 -> Z_Move: 2.0)
(Tool: 3 -> Z_Move: 2.0)
(Tool: 4 -> Z_Move: 2)

(Z Toolchange: 15 mm)
(X,Y Toolchange: -40.0000, 20.0000 mm)
(Z Start: 15 mm)
(Z End: 15.0 mm)
(X,Y End: -40.0000, 20.0000 mm)
(Steps per circle: 64)
(Preprocessor Excellon: default)

(X range:    4.1033 ...   57.4027  mm)
(Y range:    4.1033 ...   84.4025  mm)

(Spindle Speed: 30000.0 RPM)
G21
G90
G94

; START
G01 F200.00

M5
G00 Z15.0000
T1
G00 X-40.0000 Y20.0000                
M6
(MSG, Change to Tool Dia = 0.6000 ||| Total drills for tool T1 = 12)
M0
G00 Z15.0000

G01 F200.00
M03 S30000.0
G4 P0.2
G00 X21.7881 Y12.7305
G01 Z-3.0000
G01 Z0
G00 Z2.0000
G00 X23.6931 Y14.0005
G01 Z-3.0000
G01 Z0
G00 Z2.0000
G00 X38.9331 Y14.0005
G01 Z-3.0000
G01 Z0
G00 Z2.0000
G00 X38.9331 Y19.3980
G01 Z-3.0000
G01 Z0
G00 Z2.0000
G00 X38.9331 Y58.0005
G01 Z-3.0000
G01 Z0
G00 Z2.0000
G00 X38.9331 Y63.3980
G01 Z-3.0000
G01 Z0
G00 Z2.0000
G00 X23.6931 Y63.0805
G01 Z-3.0000
G01 Z0
G00 Z2.0000
G00 X21.7881 Y64.3505
G01 Z-3.0000
G01 Z0
G00 Z2.0000
G00 X23.6931 Y58.0005
G01 Z-3.0000
G01 Z0
G00 Z2.0000
G00 X21.7881 Y56.7305
G01 Z-3.0000
G01 Z0
G00 Z2.0000
G00 X21.7881 Y20.3505
G01 Z-3.0000
G01 Z0
G00 Z2.0000
G00 X23.6931 Y19.0805
G01 Z-3.0000
G01 Z0
G00 Z2.0000
G01 F200.00

M5
G00 Z15.0000
T2
G00 X-40.0000 Y20.0000                
M6
(MSG, Change to Tool Dia = 0.8000 ||| Total drills for tool T2 = 64)
M0
G00 Z15.0000

G01 F200.00
M03 S30000.0
G4 P0.2
G00 X37.6631 Y25.1130
G01 Z-3.0000
G01 Z0
G00 Z2.0000
G00 X40.2031 Y25.1130
G01 Z-3.0000
G01 Z0
G00 Z2.0000
G00 X42.7431 Y25.1130
G01 Z-3.0000
G01 Z0
G00 Z2.0000
G00 X45.2831 Y25.1130
G01 Z-3.0000
G01 Z0
G00 Z2.0000
G00 X47.8231 Y25.1130
G01 Z-3.0000
G01 Z0
G00 Z2.0000
G00 X50.3631 Y25.1130
G01 Z-3.0000
G01 Z0
G00 Z2.0000
G00 X50.3631 Y32.7330
G01 Z-3.0000
G01 Z0
G00 Z2.0000
G00 X47.8231 Y32.7330
G01 Z-3.0000
G01 Z0
G00 Z2.0000
G00 X45.2831 Y32.7330
G01 Z-3.0000
G01 Z0
G00 Z2.0000
G00 X42.7431 Y32.7330
G01 Z-3.0000
G01 Z0
G00 Z2.0000
G00 X40.2031 Y32.7330
G01 Z-3.0000
G01 Z0
G00 Z2.0000
G00 X37.6631 Y32.7330
G01 Z-3.0000
G01 Z0
G00 Z2.0000
G00 X35.1231 Y32.7330
G01 Z-3.0000
G01 Z0
G00 Z2.0000
G00 X32.5831 Y32.7330
G01 Z-3.0000
G01 Z0
G00 Z2.0000
G00 X32.5831 Y69.1130
G01 Z-3.0000
G01 Z0
G00 Z2.0000
G00 X35.1231 Y69.1130
G01 Z-3.0000
G01 Z0
G00 Z2.0000
G00 X37.6631 Y69.1130
G01 Z-3.0000
G01 Z0
G00 Z2.0000
G00 X40.2031 Y69.1130
G01 Z-3.0000
G01 Z0
G00 Z2.0000
G00 X42.7431 Y69.1130
G01 Z-3.0000
G01 Z0
G00 Z2.0000
G00 X45.2831 Y69.1130
G01 Z-3.0000
G01 Z0
G00 Z2.0000
G00 X47.8231 Y69.1130
G01 Z-3.0000
G01 Z0
G00 Z2.0000
G00 X50.3631 Y69.1130
G01 Z-3.0000
G01 Z0
G00 Z2.0000
G00 X50.3631 Y76.7330
G01 Z-3.0000
G01 Z0
G00 Z2.0000
G00 X47.8231 Y76.7330
G01 Z-3.0000
G01 Z0
G00 Z2.0000
G00 X45.2831 Y76.7330
G01 Z-3.0000
G01 Z0
G00 Z2.0000
G00 X42.7431 Y76.7330
G01 Z-3.0000
G01 Z0
G00 Z2.0000
G00 X40.2031 Y76.7330
G01 Z-3.0000
G01 Z0
G00 Z2.0000
G00 X37.6631 Y76.7330
G01 Z-3.0000
G01 Z0
G00 Z2.0000
G00 X35.1231 Y76.7330
G01 Z-3.0000
G01 Z0
G00 Z2.0000
G00 X32.5831 Y76.7330
G01 Z-3.0000
G01 Z0
G00 Z2.0000
G00 X28.7731 Y76.7330
G01 Z-3.0000
G01 Z0
G00 Z2.0000
G00 X26.2331 Y76.7330
G01 Z-3.0000
G01 Z0
G00 Z2.0000
G00 X23.6931 Y76.7330
G01 Z-3.0000
G01 Z0
G00 Z2.0000
G00 X21.1531 Y76.7330
G01 Z-3.0000
G01 Z0
G00 Z2.0000
G00 X18.6131 Y76.7330
G01 Z-3.0000
G01 Z0
G00 Z2.0000
G00 X16.0731 Y76.7330
G01 Z-3.0000
G01 Z0
G00 Z2.0000
G00 X13.5331 Y76.7330
G01 Z-3.0000
G01 Z0
G00 Z2.0000
G00 X10.9931 Y76.7330
G01 Z-3.0000
G01 Z0
G00 Z2.0000
G00 X10.9931 Y69.1130
G01 Z-3.0000
G01 Z0
G00 Z2.0000
G00 X13.5331 Y69.1130
G01 Z-3.0000
G01 Z0
G00 Z2.0000
G00 X16.0731 Y69.1130
G01 Z-3.0000
G01 Z0
G00 Z2.0000
G00 X18.6131 Y69.1130
G01 Z-3.0000
G01 Z0
G00 Z2.0000
G00 X21.1531 Y69.1130
G01 Z-3.0000
G01 Z0
G00 Z2.0000
G00 X23.6931 Y69.1130
G01 Z-3.0000
G01 Z0
G00 Z2.0000
G00 X26.2331 Y69.1130
G01 Z-3.0000
G01 Z0
G00 Z2.0000
G00 X28.7731 Y69.1130
G01 Z-3.0000
G01 Z0
G00 Z2.0000
G00 X28.7731 Y32.7330
G01 Z-3.0000
G01 Z0
G00 Z2.0000
G00 X26.2331 Y32.7330
G01 Z-3.0000
G01 Z0
G00 Z2.0000
G00 X23.6931 Y32.7330
G01 Z-3.0000
G01 Z0
G00 Z2.0000
G00 X21.1531 Y32.7330
G01 Z-3.0000
G01 Z0
G00 Z2.0000
G00 X18.6131 Y32.7330
G01 Z-3.0000
G01 Z0
G00 Z2.0000
G00 X16.0731 Y32.7330
G01 Z-3.0000
G01 Z0
G00 Z2.0000
G00 X13.5331 Y32.7330
G01 Z-3.0000
G01 Z0
G00 Z2.0000
G00 X10.9931 Y32.7330
G01 Z-3.0000
G01 Z0
G00 Z2.0000
G00 X10.9931 Y25.1130
G01 Z-3.0000
G01 Z0
G00 Z2.0000
G00 X13.5331 Y25.1130
G01 Z-3.0000
G01 Z0
G00 Z2.0000
G00 X16.0731 Y25.1130
G01 Z-3.0000
G01 Z0
G00 Z2.0000
G00 X18.6131 Y25.1130
G01 Z-3.0000
G01 Z0
G00 Z2.0000
G00 X21.1531 Y25.1130
G01 Z-3.0000
G01 Z0
G00 Z2.0000
G00 X23.6931 Y25.1130
G01 Z-3.0000
G01 Z0
G00 Z2.0000
G00 X26.2331 Y25.1130
G01 Z-3.0000
G01 Z0
G00 Z2.0000
G00 X28.7731 Y25.1130
G01 Z-3.0000
G01 Z0
G00 Z2.0000
G00 X32.5831 Y25.1130
G01 Z-3.0000
G01 Z0
G00 Z2.0000
G00 X35.1231 Y25.1130
G01 Z-3.0000
G01 Z0
G00 Z2.0000
G01 F200.00

M5
G00 Z15.0000
T3
G00 X-40.0000 Y20.0000                
M6
(MSG, Change to Tool Dia = 0.9000 ||| Total drills for tool T3 = 78)
M0
G00 Z15.0000

G01 F200.00
M03 S30000.0
G4 P0.2
G00 X45.2831 Y17.4930
G01 Z-3.0000
G01 Z0
G00 Z2.0000
G00 X45.2831 Y14.9530
G01 Z-3.0000
G01 Z0
G00 Z2.0000
G00 X45.2831 Y12.4130
G01 Z-3.0000
G01 Z0
G00 Z2.0000
G00 X45.2831 Y9.8730
G01 Z-3.0000
G01 Z0
G00 Z2.0000
G00 X45.2831 Y7.3330
G01 Z-3.0000
G01 Z0
G00 Z2.0000
G00 X47.8231 Y7.3330
G01 Z-3.0000
G01 Z0
G00 Z2.0000
G00 X47.8231 Y9.8730
G01 Z-3.0000
G01 Z0
G00 Z2.0000
G00 X47.8231 Y12.4130
G01 Z-3.0000
G01 Z0
G00 Z2.0000
G00 X47.8231 Y14.9530
G01 Z-3.0000
G01 Z0
G00 Z2.0000
G00 X47.8231 Y17.4930
G01 Z-3.0000
G01 Z0
G00 Z2.0000
G00 X50.3631 Y39.0830
G01 Z-3.0000
G01 Z0
G00 Z2.0000
G00 X47.8231 Y39.0830
G01 Z-3.0000
G01 Z0
G00 Z2.0000
G00 X45.2831 Y51.3330
G01 Z-3.0000
G01 Z0
G00 Z2.0000
G00 X47.8231 Y51.3330
G01 Z-3.0000
G01 Z0
G00 Z2.0000
G00 X47.8231 Y53.8730
G01 Z-3.0000
G01 Z0
G00 Z2.0000
G00 X45.2831 Y53.8730
G01 Z-3.0000
G01 Z0
G00 Z2.0000
G00 X45.2831 Y56.4130
G01 Z-3.0000
G01 Z0
G00 Z2.0000
G00 X47.8231 Y56.4130
G01 Z-3.0000
G01 Z0
G00 Z2.0000
G00 X47.8231 Y58.9530
G01 Z-3.0000
G01 Z0
G00 Z2.0000
G00 X45.2831 Y58.9530
G01 Z-3.0000
G01 Z0
G00 Z2.0000
G00 X45.2831 Y61.4930
G01 Z-3.0000
G01 Z0
G00 Z2.0000
G00 X47.8231 Y61.4930
G01 Z-3.0000
G01 Z0
G00 Z2.0000
G00 X50.3631 Y83.0830
G01 Z-3.0000
G01 Z0
G00 Z2.0000
G00 X47.8231 Y83.0830
G01 Z-3.0000
G01 Z0
G00 Z2.0000
G00 X45.2831 Y83.0830
G01 Z-3.0000
G01 Z0
G00 Z2.0000
G00 X42.7431 Y83.0830
G01 Z-3.0000
G01 Z0
G00 Z2.0000
G00 X40.2031 Y83.0830
G01 Z-3.0000
G01 Z0
G00 Z2.0000
G00 X37.6631 Y83.0830
G01 Z-3.0000
G01 Z0
G00 Z2.0000
G00 X35.1231 Y83.0830
G01 Z-3.0000
G01 Z0
G00 Z2.0000
G00 X32.5831 Y83.0830
G01 Z-3.0000
G01 Z0
G00 Z2.0000
G00 X28.7731 Y83.0830
G01 Z-3.0000
G01 Z0
G00 Z2.0000
G00 X26.2331 Y83.0830
G01 Z-3.0000
G01 Z0
G00 Z2.0000
G00 X23.6931 Y83.0830
G01 Z-3.0000
G01 Z0
G00 Z2.0000
G00 X21.1531 Y83.0830
G01 Z-3.0000
G01 Z0
G00 Z2.0000
G00 X18.6131 Y83.0830
G01 Z-3.0000
G01 Z0
G00 Z2.0000
G00 X16.0731 Y83.0830
G01 Z-3.0000
G01 Z0
G00 Z2.0000
G00 X13.5331 Y83.0830
G01 Z-3.0000
G01 Z0
G00 Z2.0000
G00 X10.9931 Y83.0830
G01 Z-3.0000
G01 Z0
G00 Z2.0000
G00 X5.9131 Y72.9230
G01 Z-3.0000
G01 Z0
G00 Z2.0000
G00 X5.9131 Y70.3830
G01 Z-3.0000
G01 Z0
G00 Z2.0000
G00 X5.9131 Y67.8430
G01 Z-3.0000
G01 Z0
G00 Z2.0000
G00 X13.5331 Y61.4930
G01 Z-3.0000
G01 Z0
G00 Z2.0000
G00 X16.0731 Y61.4930
G01 Z-3.0000
G01 Z0
G00 Z2.0000
G00 X16.0731 Y58.9530
G01 Z-3.0000
G01 Z0
G00 Z2.0000
G00 X16.0731 Y56.4130
G01 Z-3.0000
G01 Z0
G00 Z2.0000
G00 X13.5331 Y58.9530
G01 Z-3.0000
G01 Z0
G00 Z2.0000
G00 X13.5331 Y56.4130
G01 Z-3.0000
G01 Z0
G00 Z2.0000
G00 X13.5331 Y53.8730
G01 Z-3.0000
G01 Z0
G00 Z2.0000
G00 X16.0731 Y53.8730
G01 Z-3.0000
G01 Z0
G00 Z2.0000
G00 X16.0731 Y51.3330
G01 Z-3.0000
G01 Z0
G00 Z2.0000
G00 X13.5331 Y51.3330
G01 Z-3.0000
G01 Z0
G00 Z2.0000
G00 X10.9931 Y39.0830
G01 Z-3.0000
G01 Z0
G00 Z2.0000
G00 X5.9131 Y28.9230
G01 Z-3.0000
G01 Z0
G00 Z2.0000
G00 X5.9131 Y26.3830
G01 Z-3.0000
G01 Z0
G00 Z2.0000
G00 X5.9131 Y23.8430
G01 Z-3.0000
G01 Z0
G00 Z2.0000
G00 X13.5331 Y17.4930
G01 Z-3.0000
G01 Z0
G00 Z2.0000
G00 X13.5331 Y14.9530
G01 Z-3.0000
G01 Z0
G00 Z2.0000
G00 X13.5331 Y12.4130
G01 Z-3.0000
G01 Z0
G00 Z2.0000
G00 X13.5331 Y9.8730
G01 Z-3.0000
G01 Z0
G00 Z2.0000
G00 X13.5331 Y7.3330
G01 Z-3.0000
G01 Z0
G00 Z2.0000
G00 X16.0731 Y7.3330
G01 Z-3.0000
G01 Z0
G00 Z2.0000
G00 X16.0731 Y9.8730
G01 Z-3.0000
G01 Z0
G00 Z2.0000
G00 X16.0731 Y12.4130
G01 Z-3.0000
G01 Z0
G00 Z2.0000
G00 X16.0731 Y14.9530
G01 Z-3.0000
G01 Z0
G00 Z2.0000
G00 X16.0731 Y17.4930
G01 Z-3.0000
G01 Z0
G00 Z2.0000
G00 X13.5331 Y39.0830
G01 Z-3.0000
G01 Z0
G00 Z2.0000
G00 X16.0731 Y39.0830
G01 Z-3.0000
G01 Z0
G00 Z2.0000
G00 X18.6131 Y39.0830
G01 Z-3.0000
G01 Z0
G00 Z2.0000
G00 X21.1531 Y39.0830
G01 Z-3.0000
G01 Z0
G00 Z2.0000
G00 X23.6931 Y39.0830
G01 Z-3.0000
G01 Z0
G00 Z2.0000
G00 X26.2331 Y39.0830
G01 Z-3.0000
G01 Z0
G00 Z2.0000
G00 X28.7731 Y39.0830
G01 Z-3.0000
G01 Z0
G00 Z2.0000
G00 X32.5831 Y39.0830
G01 Z-3.0000
G01 Z0
G00 Z2.0000
G00 X35.1231 Y39.0830
G01 Z-3.0000
G01 Z0
G00 Z2.0000
G00 X37.6631 Y39.0830
G01 Z-3.0000
G01 Z0
G00 Z2.0000
G00 X40.2031 Y39.0830
G01 Z-3.0000
G01 Z0
G00 Z2.0000
G00 X42.7431 Y39.0830
G01 Z-3.0000
G01 Z0
G00 Z2.0000
G00 X45.2831 Y39.0830
G01 Z-3.0000
G01 Z0
G00 Z2.0000
G01 F200.00

M5
G00 Z15.0000
T4
G00 X-40.0000 Y20.0000                
M6
(MSG, Change to Tool Dia = 3.2995 ||| Total drills for tool T4 = 8)
M0
G00 Z15.0000

G01 F200.00
M03 S30000
G4 P0.2
G00 X5.7531 Y5.7531
G01 Z-3.0000
G01 Z0
G00 Z2.0000
G00 X5.7531 Y38.7528
G01 Z-3.0000
G01 Z0
G00 Z2.0000
G00 X5.7531 Y49.7531
G01 Z-3.0000
G01 Z0
G00 Z2.0000
G00 X5.7531 Y82.7528
G01 Z-3.0000
G01 Z0
G00 Z2.0000
G00 X55.7530 Y82.7528
G01 Z-3.0000
G01 Z0
G00 Z2.0000
G00 X55.7530 Y49.7531
G01 Z-3.0000
G01 Z0
G00 Z2.0000
G00 X55.7530 Y38.7528
G01 Z-3.0000
G01 Z0
G00 Z2.0000
G00 X55.7530 Y5.7531
G01 Z-3.0000
G01 Z0
G00 Z2.0000
M05
G00 Z15.00
G00 X-40.0 Y20.0


; END
M5
