(G-CODE GENERATED BY FLATCAM v8.994 - www.flatcam.org - Version Date: 2020/11/7)

(Name: etch)
(Type: G-code from Geometry)
(Units: MM)

(Created on Friday, 03 March 2023 at 15:18)

(This preprocessor is used with a motion controller loaded with GRBL firmware.)
(It is configured to be compatible with almost any version of GRBL firmware.)

(TOOL DIAMETER: 0.2 mm)
(Feedrate_XY: 240.0 mm/min)
(Feedrate_Z: 120.0 mm/min)
(Feedrate rapids 1500.0 mm/min)

(Z_Cut: -0.08 mm)
(Z_Move: 1.2 mm)
(Z Start: None mm)
(Z End: 15.0 mm)
(X,Y End: 0.0000, 0.0000 mm)
(Steps per circle: 64)
(Steps per circle: 64)
(Preprocessor Geometry: grbl_11)

(X range:    1.7733 ...   59.7346  mm)
(Y range:    1.7733 ...   86.7346  mm)

(Spindle Speed: 30000 RPM)
G21
G90
G17
G94


; START
G01 F240.00
G00 Z1.2000

M03 S30000
G00 X1.7733 Y3.0762
G01 F120.00
G01 Z-0.0800
G01 F240.00
G01 X1.7733 Y2.4826 F240.00
G01 X1.7739 Y2.4578 F240.00
G01 X1.7756 Y2.4254 F240.00
G01 X1.7767 Y2.4131 F240.00
G01 X1.7798 Y2.3884 F240.00
G01 X1.7847 Y2.3564 F240.00
G01 X1.7895 Y2.3321 F240.00
G01 X1.7924 Y2.3200 F240.00
G01 X1.8004 Y2.2886 F240.00
G01 X1.8076 Y2.2649 F240.00
G01 X1.8227 Y2.2227 F240.00
G01 X1.8322 Y2.1997 F240.00
G01 X1.8513 Y2.1593 F240.00
G01 X1.8630 Y2.1374 F240.00
G01 X1.8861 Y2.0989 F240.00
G01 X1.8999 Y2.0783 F240.00
G01 X1.9265 Y2.0423 F240.00
G01 X1.9423 Y2.0231 F240.00
G01 X1.9505 Y2.0138 F240.00
G01 X1.9724 Y1.9899 F240.00
G01 X1.9899 Y1.9724 F240.00
G01 X2.0231 Y1.9423 F240.00
G01 X2.0326 Y1.9343 F240.00
G01 X2.0522 Y1.9190 F240.00
G01 X2.0783 Y1.8999 F240.00
G01 X2.0885 Y1.8928 F240.00
G01 X2.1095 Y1.8795 F240.00
G01 X2.1374 Y1.8630 F240.00
G01 X2.1482 Y1.8571 F240.00
G01 X2.1593 Y1.8513 F240.00
G01 X2.1885 Y1.8374 F240.00
G01 X2.2112 Y1.8273 F240.00
G01 X2.2227 Y1.8227 F240.00
G01 X2.2649 Y1.8076 F240.00
G01 X2.2886 Y1.8004 F240.00
G01 X2.3321 Y1.7895 F240.00
G01 X2.3564 Y1.7847 F240.00
G01 X2.4007 Y1.7781 F240.00
G01 X2.4254 Y1.7756 F240.00
G01 X2.4578 Y1.7739 F240.00
G01 X2.4826 Y1.7733 F240.00
G01 X3.0455 Y1.7734 F240.00
G01 X3.0895 Y1.7756 F240.00
G01 X3.1138 Y1.7779 F240.00
G01 X3.1574 Y1.7843 F240.00
G01 X3.1814 Y1.7890 F240.00
G01 X3.1933 Y1.7918 F240.00
G01 X3.2242 Y1.7995 F240.00
G01 X3.2360 Y1.8029 F240.00
G01 X3.2477 Y1.8065 F240.00
G01 X3.2778 Y1.8169 F240.00
G01 X3.3006 Y1.8256 F240.00
G01 X3.3119 Y1.8303 F240.00
G01 X3.3518 Y1.8489 F240.00
G01 X3.3627 Y1.8545 F240.00
G01 X3.3841 Y1.8663 F240.00
G01 X3.4115 Y1.8826 F240.00
G01 X3.4218 Y1.8892 F240.00
G01 X3.4319 Y1.8960 F240.00
G01 X3.4578 Y1.9146 F240.00
G01 X3.4772 Y1.9294 F240.00
G01 X3.4867 Y1.9372 F240.00
G01 X3.5106 Y1.9582 F240.00
G01 X3.5285 Y1.9748 F240.00
G01 X3.5372 Y1.9835 F240.00
G01 X3.5672 Y2.0157 F240.00
G01 X3.5752 Y2.0250 F240.00
G01 X3.5905 Y2.0440 F240.00
G01 X3.6097 Y2.0694 F240.00
G01 X3.6168 Y2.0794 F240.00
G01 X3.6236 Y2.0895 F240.00
G01 X3.6406 Y2.1165 F240.00
G01 X3.6530 Y2.1375 F240.00
G01 X3.6588 Y2.1483 F240.00
G01 X3.6783 Y2.1878 F240.00
G01 X3.6834 Y2.1989 F240.00
G01 X3.6926 Y2.2216 F240.00
G01 X3.7038 Y2.2514 F240.00
G01 X3.7077 Y2.2630 F240.00
G01 X3.7113 Y2.2746 F240.00
G01 X3.7199 Y2.3053 F240.00
G01 X3.7257 Y2.3290 F240.00
G01 X3.7282 Y2.3410 F240.00
G01 X3.7338 Y2.3724 F240.00
G01 X3.7373 Y2.3966 F240.00
G01 X3.7387 Y2.4087 F240.00
G01 X3.7411 Y2.4405 F240.00
G01 X3.7423 Y2.4649 F240.00
G01 X3.7425 Y2.4771 F240.00
G01 X3.7415 Y2.5211 F240.00
G01 X3.7407 Y2.5333 F240.00
G01 X3.7384 Y2.5577 F240.00
G01 X3.7345 Y2.5893 F240.00
G01 X3.7326 Y2.6014 F240.00
G01 X3.7304 Y2.6134 F240.00
G01 X3.7237 Y2.6445 F240.00
G01 X3.7178 Y2.6683 F240.00
G01 X3.7145 Y2.6800 F240.00
G01 X3.7048 Y2.7104 F240.00
G01 X3.6967 Y2.7334 F240.00
G01 X3.6923 Y2.7448 F240.00
G01 X3.6797 Y2.7741 F240.00
G01 X3.6694 Y2.7963 F240.00
G01 X3.6639 Y2.8072 F240.00
G01 X3.6425 Y2.8457 F240.00
G01 X3.6297 Y2.8665 F240.00
G01 X3.6047 Y2.9028 F240.00
G01 X3.5899 Y2.9222 F240.00
G01 X3.5615 Y2.9559 F240.00
G01 X3.0026 Y3.5586 F240.00
G01 X2.9828 Y3.5791 F240.00
G01 X2.9543 Y3.6059 F240.00
G01 X2.9311 Y3.6257 F240.00
G01 X2.9092 Y3.6428 F240.00
G01 X2.8845 Y3.6606 F240.00
G01 X2.8750 Y3.6670 F240.00
G01 X2.8517 Y3.6819 F240.00
G01 X2.8319 Y3.6935 F240.00
G01 X2.8051 Y3.7079 F240.00
G01 X2.7802 Y3.7200 F240.00
G01 X2.7628 Y3.7278 F240.00
G01 X2.7416 Y3.7365 F240.00
G01 X2.7156 Y3.7461 F240.00
G01 X2.7048 Y3.7498 F240.00
G01 X2.6866 Y3.7555 F240.00
G01 X2.6599 Y3.7629 F240.00
G01 X2.6377 Y3.7683 F240.00
G01 X2.6191 Y3.7722 F240.00
G01 X2.5805 Y3.7787 F240.00
G01 X2.5616 Y3.7811 F240.00
G01 X2.5388 Y3.7832 F240.00
G01 X2.5111 Y3.7849 F240.00
G01 X2.4921 Y3.7854 F240.00
G01 X2.4692 Y3.7853 F240.00
G01 X2.4415 Y3.7843 F240.00
G01 X2.4225 Y3.7829 F240.00
G01 X2.3998 Y3.7806 F240.00
G01 X2.3723 Y3.7769 F240.00
G01 X2.3535 Y3.7736 F240.00
G01 X2.3311 Y3.7691 F240.00
G01 X2.3042 Y3.7627 F240.00
G01 X2.2858 Y3.7576 F240.00
G01 X2.2639 Y3.7509 F240.00
G01 X2.2377 Y3.7419 F240.00
G01 X2.2200 Y3.7350 F240.00
G01 X2.1989 Y3.7262 F240.00
G01 X2.1737 Y3.7147 F240.00
G01 X2.1566 Y3.7061 F240.00
G01 X2.1365 Y3.6953 F240.00
G01 X2.1126 Y3.6813 F240.00
G01 X2.1029 Y3.6753 F240.00
G01 X2.0869 Y3.6649 F240.00
G01 X2.0643 Y3.6489 F240.00
G01 X2.0460 Y3.6352 F240.00
G01 X2.0311 Y3.6232 F240.00
G01 X2.0101 Y3.6052 F240.00
G01 X1.9933 Y3.5897 F240.00
G01 X1.9797 Y3.5764 F240.00
G01 X1.9606 Y3.5563 F240.00
G01 X1.9453 Y3.5392 F240.00
G01 X1.9331 Y3.5247 F240.00
G01 X1.9092 Y3.4937 F240.00
G01 X1.8982 Y3.4781 F240.00
G01 X1.8855 Y3.4590 F240.00
G01 X1.8710 Y3.4355 F240.00
G01 X1.8616 Y3.4189 F240.00
G01 X1.8561 Y3.4088 F240.00
G01 X1.8437 Y3.3841 F240.00
G01 X1.8340 Y3.3633 F240.00
G01 X1.8265 Y3.3458 F240.00
G01 X1.8166 Y3.3200 F240.00
G01 X1.8090 Y3.2984 F240.00
G01 X1.8033 Y3.2802 F240.00
G01 X1.7959 Y3.2535 F240.00
G01 X1.7905 Y3.2313 F240.00
G01 X1.7865 Y3.2127 F240.00
G01 X1.7818 Y3.1854 F240.00
G01 X1.7786 Y3.1627 F240.00
G01 X1.7765 Y3.1438 F240.00
G01 X1.7744 Y3.1152 F240.00
G01 X1.7738 Y3.1028 F240.00
G01 X1.7733 Y3.0762 F240.00
G00 Z1.2000
G00 X1.9053 Y3.0762
G01 F120.00
G01 Z-0.0800
G01 F240.00
G01 X1.9054 Y2.4734 F240.00
G01 X1.9073 Y2.4352 F240.00
G01 X1.9103 Y2.4078 F240.00
G01 X1.9164 Y2.3700 F240.00
G01 X1.9204 Y2.3521 F240.00
G01 X1.9276 Y2.3238 F240.00
G01 X1.9359 Y2.2976 F240.00
G01 X1.9492 Y2.2617 F240.00
G01 X1.9567 Y2.2449 F240.00
G01 X1.9735 Y2.2105 F240.00
G01 X1.9928 Y2.1774 F240.00
G01 X2.0026 Y2.1619 F240.00
G01 X2.0250 Y2.1308 F240.00
G01 X2.0363 Y2.1164 F240.00
G01 X2.0483 Y2.1025 F240.00
G01 X2.0744 Y2.0744 F240.00
G01 X2.1025 Y2.0483 F240.00
G01 X2.1164 Y2.0363 F240.00
G01 X2.1308 Y2.0250 F240.00
G01 X2.1619 Y2.0026 F240.00
G01 X2.1774 Y1.9928 F240.00
G01 X2.2105 Y1.9735 F240.00
G01 X2.2449 Y1.9567 F240.00
G01 X2.2617 Y1.9492 F240.00
G01 X2.2788 Y1.9426 F240.00
G01 X2.3150 Y1.9302 F240.00
G01 X2.3521 Y1.9204 F240.00
G01 X2.3700 Y1.9164 F240.00
G01 X2.4078 Y1.9103 F240.00
G01 X2.4352 Y1.9073 F240.00
G01 X2.4642 Y1.9057 F240.00
G01 X2.4826 Y1.9053 F240.00
G01 X3.0333 Y1.9053 F240.00
G01 X3.0513 Y1.9057 F240.00
G01 X3.0890 Y1.9080 F240.00
G01 X3.1069 Y1.9102 F240.00
G01 X3.1352 Y1.9144 F240.00
G01 X3.1618 Y1.9199 F240.00
G01 X3.1983 Y1.9294 F240.00
G01 X3.2154 Y1.9350 F240.00
G01 X3.2509 Y1.9479 F240.00
G01 X3.2852 Y1.9634 F240.00
G01 X3.3094 Y1.9756 F240.00
G01 X3.3419 Y1.9947 F240.00
G01 X3.3644 Y2.0099 F240.00
G01 X3.3946 Y2.0324 F240.00
G01 X3.4231 Y2.0570 F240.00
G01 X3.4427 Y2.0757 F240.00
G01 X3.4684 Y2.1033 F240.00
G01 X3.4857 Y2.1242 F240.00
G01 X3.5082 Y2.1544 F240.00
G01 X3.5285 Y2.1862 F240.00
G01 X3.5419 Y2.2097 F240.00
G01 X3.5548 Y2.2353 F240.00
G01 X3.5624 Y2.2517 F240.00
G01 X3.5762 Y2.2868 F240.00
G01 X3.5849 Y2.3125 F240.00
G01 X3.5948 Y2.3488 F240.00
G01 X3.6004 Y2.3753 F240.00
G01 X3.6063 Y2.4126 F240.00
G01 X3.6081 Y2.4305 F240.00
G01 X3.6101 Y2.4591 F240.00
G01 X3.6104 Y2.4862 F240.00
G01 X3.6091 Y2.5239 F240.00
G01 X3.6074 Y2.5419 F240.00
G01 X3.6038 Y2.5703 F240.00
G01 X3.5990 Y2.5970 F240.00
G01 X3.5904 Y2.6337 F240.00
G01 X3.5853 Y2.6510 F240.00
G01 X3.5764 Y2.6783 F240.00
G01 X3.5665 Y2.7035 F240.00
G01 X3.5511 Y2.7379 F240.00
G01 X3.5427 Y2.7539 F240.00
G01 X3.5287 Y2.7789 F240.00
G01 X3.5192 Y2.7943 F240.00
G01 X3.4978 Y2.8253 F240.00
G01 X3.4868 Y2.8397 F240.00
G01 X3.4626 Y2.8685 F240.00
G01 X2.8995 Y3.4755 F240.00
G01 X2.8842 Y3.4908 F240.00
G01 X2.8653 Y3.5084 F240.00
G01 X2.8488 Y3.5225 F240.00
G01 X2.8285 Y3.5384 F240.00
G01 X2.8136 Y3.5491 F240.00
G01 X2.7956 Y3.5612 F240.00
G01 X2.7736 Y3.5748 F240.00
G01 X2.7547 Y3.5853 F240.00
G01 X2.7234 Y3.6009 F240.00
G01 X2.6950 Y3.6130 F240.00
G01 X2.6708 Y3.6220 F240.00
G01 X2.6502 Y3.6286 F240.00
G01 X2.6164 Y3.6378 F240.00
G01 X2.5862 Y3.6441 F240.00
G01 X2.5607 Y3.6482 F240.00
G01 X2.5392 Y3.6507 F240.00
G01 X2.5042 Y3.6531 F240.00
G01 X2.4734 Y3.6534 F240.00
G01 X2.4476 Y3.6524 F240.00
G01 X2.4260 Y3.6507 F240.00
G01 X2.3913 Y3.6462 F240.00
G01 X2.3610 Y3.6405 F240.00
G01 X2.3358 Y3.6345 F240.00
G01 X2.3150 Y3.6286 F240.00
G01 X2.2818 Y3.6175 F240.00
G01 X2.2532 Y3.6059 F240.00
G01 X2.2297 Y3.5952 F240.00
G01 X2.2105 Y3.5853 F240.00
G01 X2.1801 Y3.5679 F240.00
G01 X2.1543 Y3.5510 F240.00
G01 X2.1333 Y3.5359 F240.00
G01 X2.1164 Y3.5225 F240.00
G01 X2.0900 Y3.4994 F240.00
G01 X2.0680 Y3.4778 F240.00
G01 X2.0565 Y3.4657 F240.00
G01 X2.0444 Y3.4520 F240.00
G01 X2.0363 Y3.4424 F240.00
G01 X2.0204 Y3.4221 F240.00
G01 X2.0026 Y3.3969 F240.00
G01 X1.9887 Y3.3751 F240.00
G01 X1.9795 Y3.3592 F240.00
G01 X1.9735 Y3.3483 F240.00
G01 X1.9618 Y3.3253 F240.00
G01 X1.9492 Y3.2971 F240.00
G01 X1.9368 Y3.2644 F240.00
G01 X1.9302 Y3.2438 F240.00
G01 X1.9232 Y3.2189 F240.00
G01 X1.9164 Y3.1888 F240.00
G01 X1.9106 Y3.1543 F240.00
G01 X1.9073 Y3.1236 F240.00
G01 X1.9057 Y3.0978 F240.00
G01 X1.9053 Y3.0762 F240.00
G00 Z1.2000
G00 X2.0373 Y3.0762
G01 F120.00
G01 Z-0.0800
G01 F240.00
G01 X2.0374 Y2.4767 F240.00
G01 X2.0389 Y2.4449 F240.00
G01 X2.0401 Y2.4330 F240.00
G01 X2.0448 Y2.4016 F240.00
G01 X2.0471 Y2.3899 F240.00
G01 X2.0548 Y2.3590 F240.00
G01 X2.0583 Y2.3477 F240.00
G01 X2.0690 Y2.3177 F240.00
G01 X2.0735 Y2.3067 F240.00
G01 X2.0871 Y2.2780 F240.00
G01 X2.0927 Y2.2675 F240.00
G01 X2.1091 Y2.2402 F240.00
G01 X2.1192 Y2.2255 F240.00
G01 X2.1347 Y2.2047 F240.00
G01 X2.1461 Y2.1911 F240.00
G01 X2.1677 Y2.1677 F240.00
G01 X2.1911 Y2.1461 F240.00
G01 X2.2047 Y2.1347 F240.00
G01 X2.2303 Y2.1157 F240.00
G01 X2.2402 Y2.1091 F240.00
G01 X2.2623 Y2.0957 F240.00
G01 X2.2780 Y2.0871 F240.00
G01 X2.3067 Y2.0735 F240.00
G01 X2.3233 Y2.0669 F240.00
G01 X2.3533 Y2.0565 F240.00
G01 X2.3841 Y2.0485 F240.00
G01 X2.3957 Y2.0459 F240.00
G01 X2.4272 Y2.0409 F240.00
G01 X2.4449 Y2.0389 F240.00
G01 X2.4826 Y2.0373 F240.00
G01 X3.0333 Y2.0373 F240.00
G01 X3.0704 Y2.0389 F240.00
G01 X3.0878 Y2.0408 F240.00
G01 X3.1188 Y2.0456 F240.00
G01 X3.1493 Y2.0528 F240.00
G01 X3.1661 Y2.0576 F240.00
G01 X3.1957 Y2.0680 F240.00
G01 X3.2118 Y2.0748 F240.00
G01 X3.2401 Y2.0882 F240.00
G01 X3.2503 Y2.0939 F240.00
G01 X3.2772 Y2.1100 F240.00
G01 X3.3027 Y2.1282 F240.00
G01 X3.3165 Y2.1390 F240.00
G01 X3.3399 Y2.1598 F240.00
G01 X3.3524 Y2.1722 F240.00
G01 X3.3735 Y2.1953 F240.00
G01 X3.3927 Y2.2200 F240.00
G01 X3.4029 Y2.2343 F240.00
G01 X3.4194 Y2.2609 F240.00
G01 X3.4278 Y2.2763 F240.00
G01 X3.4390 Y2.2992 F240.00
G01 X3.4437 Y2.3099 F240.00
G01 X3.4567 Y2.3447 F240.00
G01 X3.4652 Y2.3748 F240.00
G01 X3.4692 Y2.3919 F240.00
G01 X3.4753 Y2.4286 F240.00
G01 X3.4779 Y2.4598 F240.00
G01 X3.4785 Y2.4773 F240.00
G01 X3.4774 Y2.5145 F240.00
G01 X3.4740 Y2.5456 F240.00
G01 X3.4712 Y2.5629 F240.00
G01 X3.4630 Y2.5992 F240.00
G01 X3.4518 Y2.6346 F240.00
G01 X3.4454 Y2.6509 F240.00
G01 X3.4327 Y2.6795 F240.00
G01 X3.4148 Y2.7121 F240.00
G01 X3.4054 Y2.7269 F240.00
G01 X3.3874 Y2.7525 F240.00
G01 X3.3801 Y2.7617 F240.00
G01 X3.3597 Y2.7854 F240.00
G01 X2.8091 Y3.3790 F240.00
G01 X2.7932 Y3.3952 F240.00
G01 X2.7778 Y3.4096 F240.00
G01 X2.7651 Y3.4204 F240.00
G01 X2.7485 Y3.4334 F240.00
G01 X2.7388 Y3.4403 F240.00
G01 X2.7250 Y3.4497 F240.00
G01 X2.7071 Y3.4608 F240.00
G01 X2.6872 Y3.4716 F240.00
G01 X2.6683 Y3.4809 F240.00
G01 X2.6530 Y3.4876 F240.00
G01 X2.6277 Y3.4972 F240.00
G01 X2.6062 Y3.5040 F240.00
G01 X2.5858 Y3.5094 F240.00
G01 X2.5753 Y3.5117 F240.00
G01 X2.5636 Y3.5140 F240.00
G01 X2.5428 Y3.5174 F240.00
G01 X2.5203 Y3.5199 F240.00
G01 X2.4993 Y3.5212 F240.00
G01 X2.4826 Y3.5215 F240.00
G01 X2.4556 Y3.5207 F240.00
G01 X2.4330 Y3.5187 F240.00
G01 X2.4122 Y3.5159 F240.00
G01 X2.4016 Y3.5140 F240.00
G01 X2.3899 Y3.5117 F240.00
G01 X2.3694 Y3.5069 F240.00
G01 X2.3477 Y3.5005 F240.00
G01 X2.3277 Y3.4937 F240.00
G01 X2.3122 Y3.4876 F240.00
G01 X2.2876 Y3.4765 F240.00
G01 X2.2675 Y3.4660 F240.00
G01 X2.2493 Y3.4555 F240.00
G01 X2.2402 Y3.4497 F240.00
G01 X2.2303 Y3.4431 F240.00
G01 X2.2132 Y3.4308 F240.00
G01 X2.1956 Y3.4166 F240.00
G01 X2.1797 Y3.4027 F240.00
G01 X2.1677 Y3.3911 F240.00
G01 X2.1492 Y3.3714 F240.00
G01 X2.1347 Y3.3541 F240.00
G01 X2.1219 Y3.3373 F240.00
G01 X2.1157 Y3.3285 F240.00
G01 X2.1091 Y3.3186 F240.00
G01 X2.0980 Y3.3007 F240.00
G01 X2.0871 Y3.2808 F240.00
G01 X2.0779 Y3.2619 F240.00
G01 X2.0712 Y3.2466 F240.00
G01 X2.0616 Y3.2213 F240.00
G01 X2.0548 Y3.1998 F240.00
G01 X2.0494 Y3.1794 F240.00
G01 X2.0471 Y3.1689 F240.00
G01 X2.0448 Y3.1572 F240.00
G01 X2.0414 Y3.1364 F240.00
G01 X2.0389 Y3.1139 F240.00
G01 X2.0376 Y3.0929 F240.00
G01 X2.0373 Y3.0762 F240.00
G00 Z1.2000
G00 X2.1693 Y3.0762
G01 F120.00
G01 Z-0.0800
G01 F240.00
G01 X2.1693 Y2.4826 F240.00
G01 X2.1708 Y2.4519 F240.00
G01 X2.1744 Y2.4268 F240.00
G01 X2.1759 Y2.4188 F240.00
G01 X2.1820 Y2.3942 F240.00
G01 X2.1921 Y2.3652 F240.00
G01 X2.1953 Y2.3578 F240.00
G01 X2.2063 Y2.3349 F240.00
G01 X2.2206 Y2.3108 F240.00
G01 X2.2252 Y2.3041 F240.00
G01 X2.2404 Y2.2838 F240.00
G01 X2.2611 Y2.2611 F240.00
G01 X2.2838 Y2.2404 F240.00
G01 X2.3063 Y2.2236 F240.00
G01 X2.3131 Y2.2192 F240.00
G01 X2.3349 Y2.2063 F240.00
G01 X2.3578 Y2.1953 F240.00
G01 X2.3677 Y2.1912 F240.00
G01 X2.3917 Y2.1828 F240.00
G01 X2.4162 Y2.1765 F240.00
G01 X2.4268 Y2.1744 F240.00
G01 X2.4546 Y2.1706 F240.00
G01 X2.4826 Y2.1693 F240.00
G01 X3.0333 Y2.1693 F240.00
G01 X3.0608 Y2.1705 F240.00
G01 X3.0934 Y2.1751 F240.00
G01 X3.1228 Y2.1824 F240.00
G01 X3.1514 Y2.1924 F240.00
G01 X3.1740 Y2.2028 F240.00
G01 X3.1834 Y2.2077 F240.00
G01 X3.2049 Y2.2205 F240.00
G01 X3.2251 Y2.2350 F240.00
G01 X3.2314 Y2.2399 F240.00
G01 X3.2481 Y2.2547 F240.00
G01 X3.2557 Y2.2621 F240.00
G01 X3.2726 Y2.2805 F240.00
G01 X3.2910 Y2.3045 F240.00
G01 X3.3043 Y2.3256 F240.00
G01 X3.3095 Y2.3349 F240.00
G01 X3.3204 Y2.3573 F240.00
G01 X3.3312 Y2.3856 F240.00
G01 X3.3379 Y2.4096 F240.00
G01 X3.3402 Y2.4200 F240.00
G01 X3.3443 Y2.4446 F240.00
G01 X3.3465 Y2.4748 F240.00
G01 X3.3458 Y2.5050 F240.00
G01 X3.3429 Y2.5298 F240.00
G01 X3.3411 Y2.5403 F240.00
G01 X3.3356 Y2.5646 F240.00
G01 X3.3263 Y2.5934 F240.00
G01 X3.3165 Y2.6163 F240.00
G01 X3.3118 Y2.6258 F240.00
G01 X3.2996 Y2.6476 F240.00
G01 X3.2824 Y2.6725 F240.00
G01 X3.2630 Y2.6957 F240.00
G01 X2.7123 Y3.2893 F240.00
G01 X2.7022 Y3.2996 F240.00
G01 X2.6882 Y3.3125 F240.00
G01 X2.6792 Y3.3201 F240.00
G01 X2.6663 Y3.3300 F240.00
G01 X2.6589 Y3.3352 F240.00
G01 X2.6405 Y3.3468 F240.00
G01 X2.6279 Y3.3537 F240.00
G01 X2.6133 Y3.3609 F240.00
G01 X2.6050 Y3.3646 F240.00
G01 X2.5847 Y3.3724 F240.00
G01 X2.5709 Y3.3768 F240.00
G01 X2.5552 Y3.3810 F240.00
G01 X2.5437 Y3.3835 F240.00
G01 X2.5223 Y3.3869 F240.00
G01 X2.5133 Y3.3880 F240.00
G01 X2.4970 Y3.3891 F240.00
G01 X2.4826 Y3.3895 F240.00
G01 X2.4609 Y3.3887 F240.00
G01 X2.4519 Y3.3880 F240.00
G01 X2.4357 Y3.3859 F240.00
G01 X2.4188 Y3.3829 F240.00
G01 X2.4030 Y3.3792 F240.00
G01 X2.3942 Y3.3768 F240.00
G01 X2.3736 Y3.3699 F240.00
G01 X2.3602 Y3.3646 F240.00
G01 X2.3454 Y3.3578 F240.00
G01 X2.3349 Y3.3525 F240.00
G01 X2.3161 Y3.3416 F240.00
G01 X2.3085 Y3.3367 F240.00
G01 X2.2952 Y3.3273 F240.00
G01 X2.2838 Y3.3184 F240.00
G01 X2.2676 Y3.3040 F240.00
G01 X2.2611 Y3.2977 F240.00
G01 X2.2498 Y3.2859 F240.00
G01 X2.2387 Y3.2728 F240.00
G01 X2.2288 Y3.2599 F240.00
G01 X2.2236 Y3.2525 F240.00
G01 X2.2120 Y3.2341 F240.00
G01 X2.2050 Y3.2215 F240.00
G01 X2.1978 Y3.2069 F240.00
G01 X2.1942 Y3.1986 F240.00
G01 X2.1864 Y3.1783 F240.00
G01 X2.1820 Y3.1645 F240.00
G01 X2.1778 Y3.1488 F240.00
G01 X2.1759 Y3.1400 F240.00
G01 X2.1722 Y3.1186 F240.00
G01 X2.1706 Y3.1042 F240.00
G01 X2.1695 Y3.0879 F240.00
G01 X2.1693 Y3.0762 F240.00
G00 Z1.2000
G00 X12.6775 Y6.9953
G01 F120.00
G01 Z-0.0800
G01 F240.00
G01 X12.6402 Y6.9953 F240.00
G01 X12.6402 Y6.9636 F240.00
G01 X13.1638 Y6.4400 F240.00
G01 X13.1952 Y6.4400 F240.00
G01 X13.1952 Y6.4776 F240.00
G01 X13.1887 Y6.4795 F240.00
G01 X13.1811 Y6.4823 F240.00
G01 X13.1690 Y6.4882 F240.00
G01 X13.1621 Y6.4925 F240.00
G01 X13.1555 Y6.4972 F240.00
G01 X13.1454 Y6.5062 F240.00
G01 X12.7042 Y6.9475 F240.00
G01 X12.6955 Y6.9578 F240.00
G01 X12.6881 Y6.9691 F240.00
G01 X12.6822 Y6.9812 F240.00
G01 X12.6794 Y6.9888 F240.00
G01 X12.6775 Y6.9953 F240.00
G00 Z1.2000
G00 X13.8726 Y6.4776
G01 F120.00
G01 Z-0.0800
G01 F240.00
G01 X13.8726 Y6.4400 F240.00
G01 X13.9042 Y6.4400 F240.00
G01 X14.4278 Y6.9636 F240.00
G01 X14.4278 Y6.9953 F240.00
G01 X14.3903 Y6.9953 F240.00
G01 X14.3884 Y6.9888 F240.00
G01 X14.3856 Y6.9812 F240.00
G01 X14.3796 Y6.9691 F240.00
G01 X14.3754 Y6.9622 F240.00
G01 X14.3707 Y6.9556 F240.00
G01 X14.3617 Y6.9455 F240.00
G01 X13.9204 Y6.5043 F240.00
G01 X13.9101 Y6.4956 F240.00
G01 X13.8988 Y6.4882 F240.00
G01 X13.8867 Y6.4823 F240.00
G01 X13.8791 Y6.4795 F240.00
G01 X13.8726 Y6.4776 F240.00
G00 Z1.2000
G00 X15.2019 Y6.9419
G01 F120.00
G01 Z-0.0800
G01 F240.00
G01 X15.7038 Y6.4400 F240.00
G01 X15.7390 Y6.4400 F240.00
G01 X15.7390 Y6.4766 F240.00
G01 X15.7313 Y6.4787 F240.00
G01 X15.7236 Y6.4813 F240.00
G01 X15.7162 Y6.4845 F240.00
G01 X15.7090 Y6.4882 F240.00
G01 X15.7021 Y6.4925 F240.00
G01 X15.6955 Y6.4972 F240.00
G01 X15.6854 Y6.5062 F240.00
G01 X15.2442 Y6.9475 F240.00
G01 X15.2388 Y6.9535 F240.00
G01 X15.2339 Y6.9600 F240.00
G01 X15.2268 Y6.9715 F240.00
G01 X15.2212 Y6.9837 F240.00
G01 X15.2186 Y6.9914 F240.00
G01 X15.2166 Y6.9989 F240.00
G01 X15.1802 Y6.9989 F240.00
G01 X15.1802 Y6.9636 F240.00
G01 X15.2019 Y6.9419 F240.00
G00 Z1.2000
G00 X16.4090 Y6.4767
G01 F120.00
G01 Z-0.0800
G01 F240.00
G01 X16.4090 Y6.4400 F240.00
G01 X16.4442 Y6.4400 F240.00
G01 X16.9678 Y6.9636 F240.00
G01 X16.9678 Y6.9989 F240.00
G01 X16.9312 Y6.9989 F240.00
G01 X16.9292 Y6.9914 F240.00
G01 X16.9266 Y6.9837 F240.00
G01 X16.9234 Y6.9763 F240.00
G01 X16.9196 Y6.9691 F240.00
G01 X16.9123 Y6.9578 F240.00
G01 X16.9072 Y6.9515 F240.00
G01 X16.9017 Y6.9455 F240.00
G01 X16.4604 Y6.5043 F240.00
G01 X16.4501 Y6.4956 F240.00
G01 X16.4434 Y6.4910 F240.00
G01 X16.4364 Y6.4869 F240.00
G01 X16.4242 Y6.4813 F240.00
G01 X16.4165 Y6.4787 F240.00
G01 X16.4090 Y6.4767 F240.00
G00 Z1.2000
G00 X16.3117 Y8.6179
G01 F120.00
G01 Z-0.0800
G01 F240.00
G01 X15.8363 Y8.6179 F240.00
G01 X15.8472 Y8.6016 F240.00
G01 X15.8543 Y8.5901 F240.00
G01 X16.2937 Y8.5901 F240.00
G01 X16.3008 Y8.6016 F240.00
G01 X16.3117 Y8.6179 F240.00
G00 Z1.2000
G00 X17.1612 Y9.2967
G01 F120.00
G01 Z-0.0800
G01 F240.00
G01 X17.0862 Y9.2967 F240.00
G01 X16.6490 Y8.8595 F240.00
G01 X16.6357 Y8.8468 F240.00
G01 X16.6218 Y8.8348 F240.00
G01 X16.5999 Y8.8182 F240.00
G01 X16.5768 Y8.8031 F240.00
G01 X16.5527 Y8.7899 F240.00
G01 X16.5277 Y8.7784 F240.00
G01 X16.5019 Y8.7688 F240.00
G01 X16.4843 Y8.7635 F240.00
G01 X16.4665 Y8.7590 F240.00
G01 X16.4394 Y8.7540 F240.00
G01 X16.4121 Y8.7510 F240.00
G01 X16.3846 Y8.7499 F240.00
G01 X15.7632 Y8.7499 F240.00
G01 X15.7448 Y8.7504 F240.00
G01 X15.7265 Y8.7517 F240.00
G01 X15.7083 Y8.7540 F240.00
G01 X15.6813 Y8.7590 F240.00
G01 X15.6634 Y8.7635 F240.00
G01 X15.6459 Y8.7688 F240.00
G01 X15.6201 Y8.7784 F240.00
G01 X15.6033 Y8.7858 F240.00
G01 X15.5869 Y8.7941 F240.00
G01 X15.5631 Y8.8080 F240.00
G01 X15.5404 Y8.8235 F240.00
G01 X15.5259 Y8.8348 F240.00
G01 X15.5120 Y8.8468 F240.00
G01 X15.4987 Y8.8595 F240.00
G01 X15.0615 Y9.2967 F240.00
G01 X14.5462 Y9.2967 F240.00
G01 X14.1090 Y8.8595 F240.00
G01 X14.0957 Y8.8468 F240.00
G01 X14.0747 Y8.8291 F240.00
G01 X14.0599 Y8.8182 F240.00
G01 X14.0447 Y8.8080 F240.00
G01 X14.0209 Y8.7941 F240.00
G01 X13.9961 Y8.7820 F240.00
G01 X13.9792 Y8.7750 F240.00
G01 X13.9619 Y8.7688 F240.00
G01 X13.9443 Y8.7635 F240.00
G01 X13.9175 Y8.7571 F240.00
G01 X13.8903 Y8.7528 F240.00
G01 X13.8629 Y8.7504 F240.00
G01 X13.8446 Y8.7499 F240.00
G01 X13.2232 Y8.7499 F240.00
G01 X13.1957 Y8.7510 F240.00
G01 X13.1683 Y8.7540 F240.00
G01 X13.1502 Y8.7571 F240.00
G01 X13.1234 Y8.7635 F240.00
G01 X13.0972 Y8.7718 F240.00
G01 X13.0801 Y8.7784 F240.00
G01 X13.0550 Y8.7899 F240.00
G01 X13.0389 Y8.7985 F240.00
G01 X13.0231 Y8.8080 F240.00
G01 X13.0004 Y8.8235 F240.00
G01 X12.9789 Y8.8407 F240.00
G01 X12.9587 Y8.8595 F240.00
G01 X12.5215 Y9.2967 F240.00
G01 X12.4468 Y9.2967 F240.00
G01 X12.4691 Y9.2759 F240.00
G01 X13.1253 Y8.6196 F240.00
G01 X13.1449 Y8.5981 F240.00
G01 X13.1569 Y8.5842 F240.00
G01 X13.1801 Y8.5537 F240.00
G01 X13.1907 Y8.5386 F240.00
G01 X13.2005 Y8.5231 F240.00
G01 X13.2154 Y8.4981 F240.00
G01 X13.2240 Y8.4819 F240.00
G01 X13.2354 Y8.4581 F240.00
G01 X13.8326 Y8.4581 F240.00
G01 X13.8439 Y8.4818 F240.00
G01 X13.8526 Y8.4980 F240.00
G01 X13.8674 Y8.5230 F240.00
G01 X13.8773 Y8.5385 F240.00
G01 X13.8878 Y8.5535 F240.00
G01 X13.9053 Y8.5769 F240.00
G01 X13.9169 Y8.5911 F240.00
G01 X13.9364 Y8.6127 F240.00
G01 X13.9490 Y8.6260 F240.00
G01 X14.3956 Y9.0728 F240.00
G01 X14.4088 Y9.0855 F240.00
G01 X14.4375 Y9.1109 F240.00
G01 X14.4680 Y9.1341 F240.00
G01 X14.4830 Y9.1446 F240.00
G01 X14.4985 Y9.1545 F240.00
G01 X14.5236 Y9.1693 F240.00
G01 X14.5398 Y9.1780 F240.00
G01 X14.5744 Y9.1944 F240.00
G01 X14.5914 Y9.2014 F240.00
G01 X14.6188 Y9.2113 F240.00
G01 X14.6362 Y9.2171 F240.00
G01 X14.6539 Y9.2220 F240.00
G01 X14.6822 Y9.2290 F240.00
G01 X14.7002 Y9.2326 F240.00
G01 X14.7290 Y9.2370 F240.00
G01 X14.7472 Y9.2392 F240.00
G01 X14.7655 Y9.2406 F240.00
G01 X14.8038 Y9.2420 F240.00
G01 X14.8222 Y9.2416 F240.00
G01 X14.8604 Y9.2392 F240.00
G01 X14.8786 Y9.2370 F240.00
G01 X14.9074 Y9.2326 F240.00
G01 X14.9254 Y9.2290 F240.00
G01 X14.9626 Y9.2197 F240.00
G01 X14.9802 Y9.2144 F240.00
G01 X15.0076 Y9.2047 F240.00
G01 X15.0248 Y9.1981 F240.00
G01 X15.0416 Y9.1906 F240.00
G01 X15.0678 Y9.1781 F240.00
G01 X15.0840 Y9.1694 F240.00
G01 X15.1091 Y9.1545 F240.00
G01 X15.1246 Y9.1447 F240.00
G01 X15.1556 Y9.1223 F240.00
G01 X15.1701 Y9.1110 F240.00
G01 X15.1988 Y9.0856 F240.00
G01 X15.2121 Y9.0729 F240.00
G01 X15.6589 Y8.6261 F240.00
G01 X15.6715 Y8.6128 F240.00
G01 X15.6910 Y8.5912 F240.00
G01 X15.7027 Y8.5770 F240.00
G01 X15.7201 Y8.5537 F240.00
G01 X15.7307 Y8.5386 F240.00
G01 X15.7405 Y8.5231 F240.00
G01 X15.7554 Y8.4981 F240.00
G01 X15.7640 Y8.4819 F240.00
G01 X15.7754 Y8.4581 F240.00
G01 X16.3726 Y8.4581 F240.00
G01 X16.3840 Y8.4819 F240.00
G01 X16.3926 Y8.4981 F240.00
G01 X16.4075 Y8.5231 F240.00
G01 X16.4173 Y8.5386 F240.00
G01 X16.4398 Y8.5697 F240.00
G01 X16.4511 Y8.5842 F240.00
G01 X16.4631 Y8.5981 F240.00
G01 X16.4827 Y8.6196 F240.00
G01 X17.1389 Y9.2759 F240.00
G01 X17.1612 Y9.2967 F240.00
G00 Z1.2000
G00 X16.9708 Y11.7213
G01 F120.00
G01 Z-0.0800
G01 F240.00
G01 X21.1926 Y11.7213 F240.00
G01 X21.1444 Y11.7504 F240.00
G01 X21.1291 Y11.7606 F240.00
G01 X21.0513 Y11.8183 F240.00
G01 X21.0294 Y11.8367 F240.00
G01 X17.0862 Y11.8367 F240.00
G01 X16.9708 Y11.7213 F240.00
G00 Z1.2000
G00 X16.9708 Y13.1067
G01 F120.00
G01 Z-0.0800
G01 F240.00
G01 X17.0862 Y12.9913 F240.00
G01 X18.7528 Y12.9913 F240.00
G01 X18.7304 Y13.0121 F240.00
G01 X18.7178 Y13.0254 F240.00
G01 X18.6983 Y13.0471 F240.00
G01 X18.6867 Y13.0613 F240.00
G01 X18.6638 Y13.0920 F240.00
G01 X18.6488 Y13.1151 F240.00
G01 X18.6295 Y13.1482 F240.00
G01 X18.6127 Y13.1826 F240.00
G01 X18.6053 Y13.1994 F240.00
G01 X18.5987 Y13.2165 F240.00
G01 X18.5862 Y13.2528 F240.00
G01 X18.5765 Y13.2898 F240.00
G01 X18.5708 Y13.3167 F240.00
G01 X18.5651 Y13.3546 F240.00
G01 X18.5633 Y13.3729 F240.00
G01 X18.5618 Y13.4020 F240.00
G01 X18.5613 Y13.4203 F240.00
G01 X18.5624 Y13.4511 F240.00
G01 X18.3805 Y13.2694 F240.00
G01 X18.3590 Y13.2497 F240.00
G01 X18.3451 Y13.2377 F240.00
G01 X18.3306 Y13.2264 F240.00
G01 X18.3072 Y13.2092 F240.00
G01 X18.2919 Y13.1990 F240.00
G01 X18.2591 Y13.1793 F240.00
G01 X18.2429 Y13.1706 F240.00
G01 X18.2082 Y13.1543 F240.00
G01 X18.1913 Y13.1472 F240.00
G01 X18.1552 Y13.1343 F240.00
G01 X18.1376 Y13.1290 F240.00
G01 X18.1005 Y13.1197 F240.00
G01 X18.0734 Y13.1147 F240.00
G01 X18.0355 Y13.1095 F240.00
G01 X17.9972 Y13.1071 F240.00
G01 X17.9789 Y13.1067 F240.00
G01 X16.9708 Y13.1067 F240.00
G00 Z1.2000
G00 X16.6522 Y14.1293
G01 F120.00
G01 Z-0.0800
G01 F240.00
G01 X17.7944 Y14.1293 F240.00
G01 X18.9340 Y15.2689 F240.00
G01 X18.9574 Y15.2905 F240.00
G01 X18.9664 Y15.2982 F240.00
G01 X18.9758 Y15.3055 F240.00
G01 X18.9966 Y15.3209 F240.00
G01 X19.0065 Y15.3275 F240.00
G01 X19.0390 Y15.3467 F240.00
G01 X19.0676 Y15.3606 F240.00
G01 X19.0785 Y15.3654 F240.00
G01 X19.0896 Y15.3697 F240.00
G01 X19.1196 Y15.3801 F240.00
G01 X19.1562 Y15.3895 F240.00
G01 X19.1678 Y15.3918 F240.00
G01 X19.1934 Y15.3957 F240.00
G01 X19.2052 Y15.3972 F240.00
G01 X19.2171 Y15.3980 F240.00
G01 X19.2489 Y15.3993 F240.00
G01 X44.3327 Y15.3993 F240.00
G01 X44.3394 Y15.4088 F240.00
G01 X44.3468 Y15.4182 F240.00
G01 X44.3545 Y15.4272 F240.00
G01 X44.3627 Y15.4358 F240.00
G01 X44.7056 Y15.7787 F240.00
G01 X18.7983 Y15.7787 F240.00
G01 X17.6588 Y14.6391 F240.00
G01 X17.6354 Y14.6175 F240.00
G01 X17.6217 Y14.6061 F240.00
G01 X17.5962 Y14.5871 F240.00
G01 X17.5812 Y14.5774 F240.00
G01 X17.5538 Y14.5613 F240.00
G01 X17.5197 Y14.5449 F240.00
G01 X17.5032 Y14.5383 F240.00
G01 X17.4731 Y14.5279 F240.00
G01 X17.4423 Y14.5199 F240.00
G01 X17.4249 Y14.5162 F240.00
G01 X17.3875 Y14.5108 F240.00
G01 X17.3498 Y14.5088 F240.00
G01 X17.0250 Y14.5087 F240.00
G01 X17.0183 Y14.4992 F240.00
G01 X17.0110 Y14.4898 F240.00
G01 X17.0032 Y14.4808 F240.00
G01 X16.9951 Y14.4722 F240.00
G01 X16.6522 Y14.1293 F240.00
G00 Z1.2000
G00 X16.9708 Y14.2613
G01 F120.00
G01 Z-0.0800
G01 F240.00
G01 X17.7398 Y14.2613 F240.00
G01 X18.8407 Y15.3622 F240.00
G01 X18.8540 Y15.3749 F240.00
G01 X18.8756 Y15.3943 F240.00
G01 X18.8898 Y15.4060 F240.00
G01 X18.9131 Y15.4234 F240.00
G01 X18.9282 Y15.4340 F240.00
G01 X18.9437 Y15.4438 F240.00
G01 X18.9687 Y15.4587 F240.00
G01 X18.9849 Y15.4674 F240.00
G01 X19.0112 Y15.4799 F240.00
G01 X19.0280 Y15.4874 F240.00
G01 X19.0451 Y15.4940 F240.00
G01 X19.0813 Y15.5064 F240.00
G01 X19.0990 Y15.5113 F240.00
G01 X19.1273 Y15.5183 F240.00
G01 X19.1453 Y15.5219 F240.00
G01 X19.1741 Y15.5263 F240.00
G01 X19.1923 Y15.5285 F240.00
G01 X19.2106 Y15.5299 F240.00
G01 X19.2489 Y15.5313 F240.00
G01 X44.2715 Y15.5313 F240.00
G01 X44.3869 Y15.6467 F240.00
G01 X18.8530 Y15.6467 F240.00
G01 X17.7521 Y14.5458 F240.00
G01 X17.7388 Y14.5331 F240.00
G01 X17.7171 Y14.5136 F240.00
G01 X17.7030 Y14.5020 F240.00
G01 X17.6796 Y14.4846 F240.00
G01 X17.6569 Y14.4690 F240.00
G01 X17.6241 Y14.4493 F240.00
G01 X17.5996 Y14.4366 F240.00
G01 X17.5648 Y14.4206 F240.00
G01 X17.5477 Y14.4140 F240.00
G01 X17.5115 Y14.4016 F240.00
G01 X17.4744 Y14.3918 F240.00
G01 X17.4475 Y14.3861 F240.00
G01 X17.4187 Y14.3817 F240.00
G01 X17.4005 Y14.3795 F240.00
G01 X17.3822 Y14.3781 F240.00
G01 X17.3531 Y14.3768 F240.00
G01 X17.0862 Y14.3767 F240.00
G01 X16.9708 Y14.2613 F240.00
G00 Z1.2000
G00 X16.9277 Y15.6898
G01 F120.00
G01 Z-0.0800
G01 F240.00
G01 X17.0862 Y15.5313 F240.00
G01 X17.1048 Y15.5313 F240.00
G01 X18.2057 Y16.6322 F240.00
G01 X18.2190 Y16.6449 F240.00
G01 X18.2406 Y16.6643 F240.00
G01 X18.2548 Y16.6760 F240.00
G01 X18.2781 Y16.6934 F240.00
G01 X18.2932 Y16.7040 F240.00
G01 X18.3087 Y16.7138 F240.00
G01 X18.3337 Y16.7287 F240.00
G01 X18.3499 Y16.7374 F240.00
G01 X18.3845 Y16.7537 F240.00
G01 X18.4015 Y16.7608 F240.00
G01 X18.4289 Y16.7707 F240.00
G01 X18.4463 Y16.7764 F240.00
G01 X18.4833 Y16.7862 F240.00
G01 X18.5013 Y16.7902 F240.00
G01 X18.5193 Y16.7933 F240.00
G01 X18.5482 Y16.7975 F240.00
G01 X18.5664 Y16.7993 F240.00
G01 X18.5955 Y16.8008 F240.00
G01 X18.6139 Y16.8013 F240.00
G01 X44.3869 Y16.8013 F240.00
G01 X44.2715 Y16.9167 F240.00
G01 X18.2180 Y16.9167 F240.00
G01 X17.1105 Y15.8094 F240.00
G01 X17.0890 Y15.7897 F240.00
G01 X17.0751 Y15.7777 F240.00
G01 X17.0446 Y15.7546 F240.00
G01 X17.0296 Y15.7440 F240.00
G01 X17.0141 Y15.7342 F240.00
G01 X16.9810 Y15.7149 F240.00
G01 X16.9466 Y15.6981 F240.00
G01 X16.9277 Y15.6898 F240.00
G00 Z1.2000
G00 X16.6522 Y15.7787
G01 F120.00
G01 Z-0.0800
G01 F240.00
G01 X16.9951 Y15.4358 F240.00
G01 X17.0033 Y15.4272 F240.00
G01 X17.0110 Y15.4182 F240.00
G01 X17.0183 Y15.4088 F240.00
G01 X17.0250 Y15.3993 F240.00
G01 X17.1594 Y15.3993 F240.00
G01 X18.2990 Y16.5389 F240.00
G01 X18.3268 Y16.5644 F240.00
G01 X18.3360 Y16.5719 F240.00
G01 X18.3568 Y16.5874 F240.00
G01 X18.3665 Y16.5942 F240.00
G01 X18.3765 Y16.6006 F240.00
G01 X18.3988 Y16.6139 F240.00
G01 X18.4092 Y16.6195 F240.00
G01 X18.4380 Y16.6331 F240.00
G01 X18.4490 Y16.6376 F240.00
G01 X18.4846 Y16.6501 F240.00
G01 X18.5154 Y16.6581 F240.00
G01 X18.5270 Y16.6607 F240.00
G01 X18.5387 Y16.6628 F240.00
G01 X18.5702 Y16.6672 F240.00
G01 X18.6079 Y16.6692 F240.00
G01 X44.7056 Y16.6693 F240.00
G01 X44.3627 Y17.0122 F240.00
G01 X44.3545 Y17.0208 F240.00
G01 X44.3468 Y17.0298 F240.00
G01 X44.3394 Y17.0392 F240.00
G01 X44.3327 Y17.0487 F240.00
G01 X18.1633 Y17.0487 F240.00
G01 X17.0238 Y15.9091 F240.00
G01 X17.0004 Y15.8875 F240.00
G01 X16.9914 Y15.8798 F240.00
G01 X16.9660 Y15.8606 F240.00
G01 X16.9563 Y15.8537 F240.00
G01 X16.9462 Y15.8474 F240.00
G01 X16.9188 Y15.8313 F240.00
G01 X16.8901 Y15.8174 F240.00
G01 X16.8793 Y15.8126 F240.00
G01 X16.8682 Y15.8083 F240.00
G01 X16.8381 Y15.7979 F240.00
G01 X16.8073 Y15.7899 F240.00
G01 X16.7958 Y15.7873 F240.00
G01 X16.7841 Y15.7852 F240.00
G01 X16.7525 Y15.7808 F240.00
G01 X16.7148 Y15.7788 F240.00
G01 X16.6522 Y15.7787 F240.00
G00 Z1.2000
G00 X15.2460 Y14.5655
G01 F120.00
G01 Z-0.0800
G01 F240.00
G01 X15.6873 Y14.1243 F240.00
G01 X15.6955 Y14.1172 F240.00
G01 X15.7043 Y14.1110 F240.00
G01 X15.7137 Y14.1057 F240.00
G01 X15.7236 Y14.1013 F240.00
G01 X15.7339 Y14.0979 F240.00
G01 X15.7444 Y14.0956 F240.00
G01 X15.7524 Y14.0945 F240.00
G01 X15.7632 Y14.0939 F240.00
G01 X16.3846 Y14.0939 F240.00
G01 X16.3927 Y14.0942 F240.00
G01 X16.4034 Y14.0956 F240.00
G01 X16.4139 Y14.0979 F240.00
G01 X16.4242 Y14.1013 F240.00
G01 X16.4340 Y14.1057 F240.00
G01 X16.4434 Y14.1110 F240.00
G01 X16.4522 Y14.1172 F240.00
G01 X16.4604 Y14.1243 F240.00
G01 X16.9036 Y14.5675 F240.00
G01 X16.9090 Y14.5735 F240.00
G01 X16.9154 Y14.5822 F240.00
G01 X16.9210 Y14.5915 F240.00
G01 X16.9256 Y14.6012 F240.00
G01 X16.9292 Y14.6114 F240.00
G01 X16.9318 Y14.6218 F240.00
G01 X16.9334 Y14.6325 F240.00
G01 X16.9339 Y14.6407 F240.00
G01 X17.3439 Y14.6407 F240.00
G01 X17.3692 Y14.6418 F240.00
G01 X17.3773 Y14.6425 F240.00
G01 X17.4050 Y14.6467 F240.00
G01 X17.4296 Y14.6527 F240.00
G01 X17.4400 Y14.6559 F240.00
G01 X17.4638 Y14.6645 F240.00
G01 X17.4867 Y14.6753 F240.00
G01 X17.4963 Y14.6804 F240.00
G01 X17.5179 Y14.6935 F240.00
G01 X17.5405 Y14.7101 F240.00
G01 X17.5467 Y14.7153 F240.00
G01 X17.5654 Y14.7325 F240.00
G01 X18.7437 Y15.9107 F240.00
G01 X46.4241 Y15.9107 F240.00
G01 X46.9942 Y15.3406 F240.00
G01 X46.9888 Y15.3345 F240.00
G01 X46.9824 Y15.3258 F240.00
G01 X46.9768 Y15.3165 F240.00
G01 X46.9722 Y15.3068 F240.00
G01 X46.9686 Y15.2966 F240.00
G01 X46.9665 Y15.2888 F240.00
G01 X46.9647 Y15.2781 F240.00
G01 X46.9639 Y15.2674 F240.00
G01 X46.9639 Y14.6406 F240.00
G01 X46.9650 Y14.6272 F240.00
G01 X46.9678 Y14.6140 F240.00
G01 X46.9722 Y14.6012 F240.00
G01 X46.9756 Y14.5939 F240.00
G01 X46.9795 Y14.5868 F240.00
G01 X46.9871 Y14.5756 F240.00
G01 X46.9960 Y14.5655 F240.00
G01 X47.4393 Y14.1224 F240.00
G01 X47.4477 Y14.1156 F240.00
G01 X47.4566 Y14.1096 F240.00
G01 X47.4637 Y14.1057 F240.00
G01 X47.4736 Y14.1013 F240.00
G01 X47.4813 Y14.0987 F240.00
G01 X47.4917 Y14.0961 F240.00
G01 X47.5024 Y14.0945 F240.00
G01 X47.5105 Y14.0940 F240.00
G01 X48.1373 Y14.0940 F240.00
G01 X48.1480 Y14.0948 F240.00
G01 X48.1587 Y14.0966 F240.00
G01 X48.1665 Y14.0987 F240.00
G01 X48.1767 Y14.1023 F240.00
G01 X48.1864 Y14.1069 F240.00
G01 X48.1957 Y14.1125 F240.00
G01 X48.2022 Y14.1172 F240.00
G01 X48.2104 Y14.1243 F240.00
G01 X48.6517 Y14.5655 F240.00
G01 X48.6590 Y14.5735 F240.00
G01 X48.6639 Y14.5800 F240.00
G01 X48.6696 Y14.5891 F240.00
G01 X48.6745 Y14.5987 F240.00
G01 X48.6775 Y14.6063 F240.00
G01 X48.6806 Y14.6166 F240.00
G01 X48.6827 Y14.6272 F240.00
G01 X48.6838 Y14.6379 F240.00
G01 X48.6839 Y15.2674 F240.00
G01 X48.6834 Y15.2755 F240.00
G01 X48.6818 Y15.2861 F240.00
G01 X48.6792 Y15.2966 F240.00
G01 X48.6756 Y15.3068 F240.00
G01 X48.6722 Y15.3141 F240.00
G01 X48.6669 Y15.3235 F240.00
G01 X48.6623 Y15.3302 F240.00
G01 X48.6554 Y15.3386 F240.00
G01 X48.2123 Y15.7818 F240.00
G01 X48.2022 Y15.7908 F240.00
G01 X48.1911 Y15.7984 F240.00
G01 X48.1791 Y15.8046 F240.00
G01 X48.1665 Y15.8093 F240.00
G01 X48.1587 Y15.8114 F240.00
G01 X48.1507 Y15.8129 F240.00
G01 X48.1373 Y15.8140 F240.00
G01 X47.5105 Y15.8140 F240.00
G01 X47.5024 Y15.8135 F240.00
G01 X47.4917 Y15.8119 F240.00
G01 X47.4813 Y15.8093 F240.00
G01 X47.4711 Y15.8057 F240.00
G01 X47.4613 Y15.8011 F240.00
G01 X47.4521 Y15.7955 F240.00
G01 X47.4434 Y15.7891 F240.00
G01 X47.4373 Y15.7837 F240.00
G01 X46.7754 Y16.4455 F240.00
G01 X46.7547 Y16.4644 F240.00
G01 X46.7324 Y16.4814 F240.00
G01 X46.7234 Y16.4874 F240.00
G01 X46.7016 Y16.5003 F240.00
G01 X46.6787 Y16.5113 F240.00
G01 X46.6713 Y16.5144 F240.00
G01 X46.6448 Y16.5238 F240.00
G01 X46.6150 Y16.5313 F240.00
G01 X46.5846 Y16.5358 F240.00
G01 X46.5593 Y16.5372 F240.00
G01 X18.6112 Y16.5373 F240.00
G01 X18.5832 Y16.5358 F240.00
G01 X18.5528 Y16.5313 F240.00
G01 X18.5229 Y16.5238 F240.00
G01 X18.4940 Y16.5134 F240.00
G01 X18.4662 Y16.5003 F240.00
G01 X18.4398 Y16.4845 F240.00
G01 X18.4151 Y16.4662 F240.00
G01 X18.3963 Y16.4493 F240.00
G01 X17.2141 Y15.2673 F240.00
G01 X16.9339 Y15.2673 F240.00
G01 X16.9334 Y15.2755 F240.00
G01 X16.9318 Y15.2861 F240.00
G01 X16.9292 Y15.2966 F240.00
G01 X16.9256 Y15.3068 F240.00
G01 X16.9210 Y15.3165 F240.00
G01 X16.9169 Y15.3235 F240.00
G01 X16.9107 Y15.3324 F240.00
G01 X16.9036 Y15.3405 F240.00
G01 X16.4604 Y15.7837 F240.00
G01 X16.4522 Y15.7908 F240.00
G01 X16.4434 Y15.7970 F240.00
G01 X16.4316 Y15.8035 F240.00
G01 X16.4216 Y15.8076 F240.00
G01 X16.4139 Y15.8101 F240.00
G01 X16.4034 Y15.8124 F240.00
G01 X16.3953 Y15.8135 F240.00
G01 X16.3846 Y15.8141 F240.00
G01 X15.7605 Y15.8140 F240.00
G01 X15.7471 Y15.8129 F240.00
G01 X15.7339 Y15.8101 F240.00
G01 X15.7211 Y15.8057 F240.00
G01 X15.7137 Y15.8023 F240.00
G01 X15.7066 Y15.7984 F240.00
G01 X15.6955 Y15.7908 F240.00
G01 X15.6854 Y15.7818 F240.00
G01 X15.2460 Y15.3425 F240.00
G01 X15.2388 Y15.3345 F240.00
G01 X15.2309 Y15.3235 F240.00
G01 X15.2256 Y15.3141 F240.00
G01 X15.2212 Y15.3043 F240.00
G01 X15.2178 Y15.2940 F240.00
G01 X15.2154 Y15.2835 F240.00
G01 X15.2144 Y15.2755 F240.00
G01 X15.2138 Y15.2647 F240.00
G01 X15.2139 Y14.6406 F240.00
G01 X15.2144 Y14.6325 F240.00
G01 X15.2159 Y14.6219 F240.00
G01 X15.2186 Y14.6114 F240.00
G01 X15.2222 Y14.6012 F240.00
G01 X15.2268 Y14.5915 F240.00
G01 X15.2324 Y14.5822 F240.00
G01 X15.2388 Y14.5735 F240.00
G01 X15.2460 Y14.5655 F240.00
G00 Z1.2000
G00 X14.7210 Y15.5196
G01 F120.00
G01 Z-0.0800
G01 F240.00
G01 X14.7359 Y15.4922 F240.00
G01 X14.7465 Y15.4697 F240.00
G01 X14.7560 Y15.4468 F240.00
G01 X14.7644 Y15.4234 F240.00
G01 X14.7716 Y15.3996 F240.00
G01 X14.7776 Y15.3755 F240.00
G01 X14.7825 Y15.3512 F240.00
G01 X14.7861 Y15.3266 F240.00
G01 X14.7875 Y15.3143 F240.00
G01 X14.7893 Y15.2895 F240.00
G01 X14.7899 Y15.2647 F240.00
G01 X14.7899 Y14.7010 F240.00
G01 X14.8178 Y14.6732 F240.00
G01 X14.8178 Y15.2647 F240.00
G01 X14.8180 Y15.2771 F240.00
G01 X14.8192 Y15.3019 F240.00
G01 X14.8216 Y15.3266 F240.00
G01 X14.8253 Y15.3512 F240.00
G01 X14.8301 Y15.3755 F240.00
G01 X14.8362 Y15.3996 F240.00
G01 X14.8396 Y15.4116 F240.00
G01 X14.8434 Y15.4234 F240.00
G01 X14.8517 Y15.4468 F240.00
G01 X14.8612 Y15.4697 F240.00
G01 X14.8719 Y15.4922 F240.00
G01 X14.8839 Y15.5147 F240.00
G01 X14.7915 Y15.5148 F240.00
G01 X14.7467 Y15.5170 F240.00
G01 X14.7210 Y15.5196 F240.00
G00 Z1.2000
G00 X15.2460 Y17.1055
G01 F120.00
G01 Z-0.0800
G01 F240.00
G01 X15.6873 Y16.6643 F240.00
G01 X15.6955 Y16.6572 F240.00
G01 X15.7043 Y16.6510 F240.00
G01 X15.7137 Y16.6457 F240.00
G01 X15.7236 Y16.6413 F240.00
G01 X15.7313 Y16.6387 F240.00
G01 X15.7417 Y16.6361 F240.00
G01 X15.7524 Y16.6345 F240.00
G01 X15.7632 Y16.6339 F240.00
G01 X16.3846 Y16.6339 F240.00
G01 X16.3953 Y16.6345 F240.00
G01 X16.4087 Y16.6366 F240.00
G01 X16.4191 Y16.6395 F240.00
G01 X16.4291 Y16.6434 F240.00
G01 X16.4388 Y16.6482 F240.00
G01 X16.4457 Y16.6525 F240.00
G01 X16.4543 Y16.6589 F240.00
G01 X16.4623 Y16.6662 F240.00
G01 X16.9017 Y17.1055 F240.00
G01 X16.9090 Y17.1135 F240.00
G01 X16.9154 Y17.1222 F240.00
G01 X16.9210 Y17.1315 F240.00
G01 X16.9256 Y17.1412 F240.00
G01 X16.9292 Y17.1514 F240.00
G01 X16.9318 Y17.1619 F240.00
G01 X16.9334 Y17.1725 F240.00
G01 X16.9339 Y17.1806 F240.00
G01 X16.9339 Y17.8047 F240.00
G01 X16.9334 Y17.8155 F240.00
G01 X16.9313 Y17.8288 F240.00
G01 X16.9284 Y17.8392 F240.00
G01 X16.9245 Y17.8493 F240.00
G01 X16.9196 Y17.8589 F240.00
G01 X16.9139 Y17.8680 F240.00
G01 X16.9090 Y17.8745 F240.00
G01 X16.9017 Y17.8825 F240.00
G01 X16.4623 Y18.3218 F240.00
G01 X16.4543 Y18.3291 F240.00
G01 X16.4457 Y18.3355 F240.00
G01 X16.4364 Y18.3411 F240.00
G01 X16.4267 Y18.3457 F240.00
G01 X16.4165 Y18.3493 F240.00
G01 X16.4060 Y18.3519 F240.00
G01 X16.3953 Y18.3535 F240.00
G01 X16.3873 Y18.3540 F240.00
G01 X15.7632 Y18.3541 F240.00
G01 X15.7524 Y18.3535 F240.00
G01 X15.7391 Y18.3514 F240.00
G01 X15.7287 Y18.3485 F240.00
G01 X15.7186 Y18.3446 F240.00
G01 X15.7090 Y18.3398 F240.00
G01 X15.6999 Y18.3340 F240.00
G01 X15.6913 Y18.3273 F240.00
G01 X15.6854 Y18.3218 F240.00
G01 X15.2460 Y17.8825 F240.00
G01 X15.2388 Y17.8745 F240.00
G01 X15.2309 Y17.8635 F240.00
G01 X15.2256 Y17.8541 F240.00
G01 X15.2212 Y17.8443 F240.00
G01 X15.2186 Y17.8366 F240.00
G01 X15.2159 Y17.8261 F240.00
G01 X15.2144 Y17.8155 F240.00
G01 X15.2138 Y17.8047 F240.00
G01 X15.2139 Y17.1806 F240.00
G01 X15.2147 Y17.1698 F240.00
G01 X15.2165 Y17.1592 F240.00
G01 X15.2194 Y17.1488 F240.00
G01 X15.2233 Y17.1387 F240.00
G01 X15.2268 Y17.1315 F240.00
G01 X15.2324 Y17.1222 F240.00
G01 X15.2388 Y17.1135 F240.00
G01 X15.2460 Y17.1055 F240.00
G00 Z1.2000
G00 X14.8554 Y17.9960
G01 F120.00
G01 Z-0.0800
G01 F240.00
G01 X14.8286 Y17.9946 F240.00
G01 X14.8038 Y17.9940 F240.00
G01 X14.7790 Y17.9946 F240.00
G01 X14.7524 Y17.9960 F240.00
G01 X14.7604 Y17.9751 F240.00
G01 X14.7682 Y17.9516 F240.00
G01 X14.7748 Y17.9276 F240.00
G01 X14.7776 Y17.9155 F240.00
G01 X14.7825 Y17.8912 F240.00
G01 X14.7861 Y17.8666 F240.00
G01 X14.7875 Y17.8543 F240.00
G01 X14.7893 Y17.8295 F240.00
G01 X14.7899 Y17.8047 F240.00
G01 X14.7899 Y17.2410 F240.00
G01 X14.8178 Y17.2132 F240.00
G01 X14.8178 Y17.8047 F240.00
G01 X14.8184 Y17.8295 F240.00
G01 X14.8192 Y17.8419 F240.00
G01 X14.8216 Y17.8666 F240.00
G01 X14.8253 Y17.8912 F240.00
G01 X14.8301 Y17.9155 F240.00
G01 X14.8362 Y17.9396 F240.00
G01 X14.8396 Y17.9516 F240.00
G01 X14.8474 Y17.9751 F240.00
G01 X14.8554 Y17.9960 F240.00
G00 Z1.2000
G00 X12.7060 Y17.1055
G01 F120.00
G01 Z-0.0800
G01 F240.00
G01 X13.1473 Y16.6643 F240.00
G01 X13.1555 Y16.6572 F240.00
G01 X13.1643 Y16.6510 F240.00
G01 X13.1762 Y16.6445 F240.00
G01 X13.1861 Y16.6404 F240.00
G01 X13.1965 Y16.6372 F240.00
G01 X13.2044 Y16.6356 F240.00
G01 X13.2151 Y16.6342 F240.00
G01 X13.2232 Y16.6339 F240.00
G01 X13.8473 Y16.6340 F240.00
G01 X13.8580 Y16.6348 F240.00
G01 X13.8660 Y16.6361 F240.00
G01 X13.8765 Y16.6387 F240.00
G01 X13.8867 Y16.6423 F240.00
G01 X13.8964 Y16.6469 F240.00
G01 X13.9057 Y16.6525 F240.00
G01 X13.9143 Y16.6589 F240.00
G01 X13.9205 Y16.6643 F240.00
G01 X14.5823 Y16.0025 F240.00
G01 X14.6031 Y15.9836 F240.00
G01 X14.6094 Y15.9785 F240.00
G01 X14.6298 Y15.9635 F240.00
G01 X14.6515 Y15.9504 F240.00
G01 X14.6586 Y15.9464 F240.00
G01 X14.6791 Y15.9367 F240.00
G01 X14.6890 Y15.9326 F240.00
G01 X14.7129 Y15.9242 F240.00
G01 X14.7428 Y15.9167 F240.00
G01 X14.7732 Y15.9122 F240.00
G01 X14.8012 Y15.9107 F240.00
G01 X16.7089 Y15.9107 F240.00
G01 X16.7396 Y15.9122 F240.00
G01 X16.7700 Y15.9167 F240.00
G01 X16.7998 Y15.9242 F240.00
G01 X16.8263 Y15.9335 F240.00
G01 X16.8337 Y15.9367 F240.00
G01 X16.8566 Y15.9477 F240.00
G01 X16.8829 Y15.9635 F240.00
G01 X16.9076 Y15.9818 F240.00
G01 X16.9285 Y16.0006 F240.00
G01 X18.1087 Y17.1807 F240.00
G01 X44.4239 Y17.1807 F240.00
G01 X44.4244 Y17.1725 F240.00
G01 X44.4259 Y17.1619 F240.00
G01 X44.4286 Y17.1514 F240.00
G01 X44.4322 Y17.1412 F240.00
G01 X44.4368 Y17.1315 F240.00
G01 X44.4424 Y17.1222 F240.00
G01 X44.4488 Y17.1135 F240.00
G01 X44.4542 Y17.1075 F240.00
G01 X44.8954 Y16.6662 F240.00
G01 X44.9034 Y16.6589 F240.00
G01 X44.9121 Y16.6525 F240.00
G01 X44.9213 Y16.6469 F240.00
G01 X44.9286 Y16.6434 F240.00
G01 X44.9387 Y16.6395 F240.00
G01 X44.9491 Y16.6366 F240.00
G01 X44.9624 Y16.6345 F240.00
G01 X44.9732 Y16.6339 F240.00
G01 X45.5946 Y16.6339 F240.00
G01 X45.6027 Y16.6342 F240.00
G01 X45.6107 Y16.6351 F240.00
G01 X45.6239 Y16.6379 F240.00
G01 X45.6367 Y16.6423 F240.00
G01 X45.6488 Y16.6482 F240.00
G01 X45.6601 Y16.6556 F240.00
G01 X45.6704 Y16.6643 F240.00
G01 X46.1136 Y17.1075 F240.00
G01 X46.1207 Y17.1156 F240.00
G01 X46.1269 Y17.1245 F240.00
G01 X46.1322 Y17.1339 F240.00
G01 X46.1356 Y17.1412 F240.00
G01 X46.1392 Y17.1514 F240.00
G01 X46.1418 Y17.1619 F240.00
G01 X46.1434 Y17.1725 F240.00
G01 X46.1439 Y17.1806 F240.00
G01 X46.1439 Y17.8074 F240.00
G01 X46.1434 Y17.8155 F240.00
G01 X46.1418 Y17.8261 F240.00
G01 X46.1392 Y17.8366 F240.00
G01 X46.1356 Y17.8468 F240.00
G01 X46.1322 Y17.8541 F240.00
G01 X46.1269 Y17.8635 F240.00
G01 X46.1207 Y17.8724 F240.00
G01 X46.1136 Y17.8805 F240.00
G01 X45.6684 Y18.3256 F240.00
G01 X45.6601 Y18.3324 F240.00
G01 X45.6511 Y18.3384 F240.00
G01 X45.6416 Y18.3435 F240.00
G01 X45.6342 Y18.3467 F240.00
G01 X45.6265 Y18.3493 F240.00
G01 X45.6160 Y18.3519 F240.00
G01 X45.6080 Y18.3532 F240.00
G01 X45.5973 Y18.3540 F240.00
G01 X44.9732 Y18.3541 F240.00
G01 X44.9624 Y18.3535 F240.00
G01 X44.9517 Y18.3519 F240.00
G01 X44.9413 Y18.3493 F240.00
G01 X44.9336 Y18.3467 F240.00
G01 X44.9237 Y18.3423 F240.00
G01 X44.9143 Y18.3370 F240.00
G01 X44.9055 Y18.3308 F240.00
G01 X44.8973 Y18.3237 F240.00
G01 X44.4542 Y17.8805 F240.00
G01 X44.4471 Y17.8724 F240.00
G01 X44.4424 Y17.8658 F240.00
G01 X44.4368 Y17.8565 F240.00
G01 X44.4322 Y17.8468 F240.00
G01 X44.4286 Y17.8366 F240.00
G01 X44.4259 Y17.8261 F240.00
G01 X44.4244 Y17.8155 F240.00
G01 X44.4239 Y17.8073 F240.00
G01 X44.3272 Y17.8073 F240.00
G01 X44.3272 Y21.1742 F240.00
G01 X45.5073 Y22.3544 F240.00
G01 X45.5278 Y22.3773 F240.00
G01 X45.5429 Y22.3977 F240.00
G01 X45.5473 Y22.4045 F240.00
G01 X45.5602 Y22.4263 F240.00
G01 X45.5711 Y22.4492 F240.00
G01 X45.5743 Y22.4566 F240.00
G01 X45.5820 Y22.4779 F240.00
G01 X45.5844 Y22.4856 F240.00
G01 X45.5900 Y22.5076 F240.00
G01 X45.5921 Y22.5182 F240.00
G01 X45.5957 Y22.5433 F240.00
G01 X45.5972 Y22.5740 F240.00
G01 X45.5972 Y23.7634 F240.00
G01 X45.6442 Y23.7858 F240.00
G01 X45.7040 Y23.8215 F240.00
G01 X45.7130 Y23.8275 F240.00
G01 X45.7688 Y23.8691 F240.00
G01 X45.8205 Y23.9157 F240.00
G01 X45.8281 Y23.9234 F240.00
G01 X45.8748 Y23.9750 F240.00
G01 X45.9179 Y24.0331 F240.00
G01 X45.9223 Y24.0398 F240.00
G01 X45.9580 Y24.0996 F240.00
G01 X45.9879 Y24.1625 F240.00
G01 X45.9920 Y24.1725 F240.00
G01 X46.0153 Y24.2381 F240.00
G01 X46.0324 Y24.3056 F240.00
G01 X46.0345 Y24.3161 F240.00
G01 X46.0443 Y24.3823 F240.00
G01 X46.0450 Y24.3904 F240.00
G01 X46.0483 Y24.4599 F240.00
G01 X46.0482 Y25.7707 F240.00
G01 X46.0450 Y25.8376 F240.00
G01 X46.0439 Y25.8483 F240.00
G01 X46.0336 Y25.9172 F240.00
G01 X46.0161 Y25.9873 F240.00
G01 X46.0136 Y25.9951 F240.00
G01 X45.9920 Y26.0555 F240.00
G01 X45.9879 Y26.0655 F240.00
G01 X45.9580 Y26.1284 F240.00
G01 X45.9194 Y26.1927 F240.00
G01 X45.8748 Y26.2530 F240.00
G01 X45.8281 Y26.3046 F240.00
G01 X45.8205 Y26.3123 F240.00
G01 X45.7729 Y26.3554 F240.00
G01 X45.7645 Y26.3622 F240.00
G01 X45.7085 Y26.4036 F240.00
G01 X45.6442 Y26.4422 F240.00
G01 X45.5764 Y26.4742 F240.00
G01 X45.5109 Y26.4978 F240.00
G01 X45.5006 Y26.5009 F240.00
G01 X45.4383 Y26.5166 F240.00
G01 X45.4277 Y26.5187 F240.00
G01 X45.3588 Y26.5287 F240.00
G01 X45.2839 Y26.5324 F240.00
G01 X45.2090 Y26.5287 F240.00
G01 X45.1401 Y26.5187 F240.00
G01 X45.1295 Y26.5166 F240.00
G01 X45.0672 Y26.5009 F240.00
G01 X45.0569 Y26.4978 F240.00
G01 X44.9914 Y26.4742 F240.00
G01 X44.9236 Y26.4422 F240.00
G01 X44.8592 Y26.4036 F240.00
G01 X44.8032 Y26.3622 F240.00
G01 X44.7949 Y26.3554 F240.00
G01 X44.7473 Y26.3123 F240.00
G01 X44.7397 Y26.3046 F240.00
G01 X44.6930 Y26.2530 F240.00
G01 X44.6483 Y26.1927 F240.00
G01 X44.6098 Y26.1284 F240.00
G01 X44.5799 Y26.0655 F240.00
G01 X44.5757 Y26.0555 F240.00
G01 X44.5541 Y25.9951 F240.00
G01 X44.5517 Y25.9873 F240.00
G01 X44.5342 Y25.9172 F240.00
G01 X44.5238 Y25.8483 F240.00
G01 X44.5228 Y25.8376 F240.00
G01 X44.5195 Y25.7707 F240.00
G01 X44.5195 Y24.4599 F240.00
G01 X44.5228 Y24.3904 F240.00
G01 X44.5235 Y24.3823 F240.00
G01 X44.5333 Y24.3161 F240.00
G01 X44.5354 Y24.3056 F240.00
G01 X44.5524 Y24.2381 F240.00
G01 X44.5757 Y24.1725 F240.00
G01 X44.5799 Y24.1625 F240.00
G01 X44.6098 Y24.0996 F240.00
G01 X44.6454 Y24.0398 F240.00
G01 X44.6499 Y24.0331 F240.00
G01 X44.6930 Y23.9750 F240.00
G01 X44.7397 Y23.9234 F240.00
G01 X44.7473 Y23.9157 F240.00
G01 X44.7990 Y23.8691 F240.00
G01 X44.8548 Y23.8275 F240.00
G01 X44.8638 Y23.8215 F240.00
G01 X44.9236 Y23.7858 F240.00
G01 X44.9706 Y23.7634 F240.00
G01 X44.9706 Y22.7038 F240.00
G01 X43.7905 Y21.5236 F240.00
G01 X43.7734 Y21.5048 F240.00
G01 X43.7684 Y21.4985 F240.00
G01 X43.7534 Y21.4781 F240.00
G01 X43.7389 Y21.4540 F240.00
G01 X43.7351 Y21.4469 F240.00
G01 X43.7244 Y21.4239 F240.00
G01 X43.7158 Y21.4001 F240.00
G01 X43.7126 Y21.3897 F240.00
G01 X43.7066 Y21.3651 F240.00
G01 X43.7028 Y21.3401 F240.00
G01 X43.7017 Y21.3293 F240.00
G01 X43.7006 Y21.3040 F240.00
G01 X43.7006 Y17.8073 F240.00
G01 X26.5472 Y17.8073 F240.00
G01 X26.5472 Y20.3515 F240.00
G01 X26.5457 Y20.3822 F240.00
G01 X26.5421 Y20.4073 F240.00
G01 X26.5400 Y20.4179 F240.00
G01 X26.5329 Y20.4450 F240.00
G01 X26.5243 Y20.4689 F240.00
G01 X26.5211 Y20.4763 F240.00
G01 X26.5102 Y20.4992 F240.00
G01 X26.4973 Y20.5210 F240.00
G01 X26.4913 Y20.5300 F240.00
G01 X26.4761 Y20.5503 F240.00
G01 X26.4554 Y20.5730 F240.00
G01 X24.0072 Y23.0213 F240.00
G01 X24.0072 Y23.7634 F240.00
G01 X24.0542 Y23.7858 F240.00
G01 X24.1140 Y23.8215 F240.00
G01 X24.1230 Y23.8275 F240.00
G01 X24.1767 Y23.8674 F240.00
G01 X24.1829 Y23.8726 F240.00
G01 X24.2344 Y23.9195 F240.00
G01 X24.2812 Y23.9709 F240.00
G01 X24.2864 Y23.9771 F240.00
G01 X24.3263 Y24.0309 F240.00
G01 X24.3323 Y24.0398 F240.00
G01 X24.3680 Y24.0996 F240.00
G01 X24.3979 Y24.1625 F240.00
G01 X24.4020 Y24.1725 F240.00
G01 X24.4253 Y24.2381 F240.00
G01 X24.4424 Y24.3056 F240.00
G01 X24.4445 Y24.3161 F240.00
G01 X24.4546 Y24.3850 F240.00
G01 X24.4583 Y24.4599 F240.00
G01 X24.4583 Y25.7680 F240.00
G01 X24.4546 Y25.8430 F240.00
G01 X24.4436 Y25.9172 F240.00
G01 X24.4253 Y25.9899 F240.00
G01 X24.4001 Y26.0606 F240.00
G01 X24.3680 Y26.1284 F240.00
G01 X24.3294 Y26.1927 F240.00
G01 X24.2848 Y26.2530 F240.00
G01 X24.2344 Y26.3085 F240.00
G01 X24.1829 Y26.3554 F240.00
G01 X24.1745 Y26.3622 F240.00
G01 X24.1230 Y26.4005 F240.00
G01 X24.1140 Y26.4065 F240.00
G01 X24.0542 Y26.4422 F240.00
G01 X23.9913 Y26.4720 F240.00
G01 X23.9814 Y26.4762 F240.00
G01 X23.9158 Y26.4995 F240.00
G01 X23.8430 Y26.5177 F240.00
G01 X23.7688 Y26.5287 F240.00
G01 X23.6993 Y26.5323 F240.00
G01 X23.6912 Y26.5324 F240.00
G01 X23.6190 Y26.5287 F240.00
G01 X23.5501 Y26.5187 F240.00
G01 X23.5395 Y26.5166 F240.00
G01 X23.4772 Y26.5009 F240.00
G01 X23.4669 Y26.4978 F240.00
G01 X23.4014 Y26.4742 F240.00
G01 X23.3336 Y26.4422 F240.00
G01 X23.2692 Y26.4036 F240.00
G01 X23.2132 Y26.3622 F240.00
G01 X23.2049 Y26.3554 F240.00
G01 X23.1573 Y26.3123 F240.00
G01 X23.1497 Y26.3046 F240.00
G01 X23.1030 Y26.2530 F240.00
G01 X23.0583 Y26.1927 F240.00
G01 X23.0224 Y26.1331 F240.00
G01 X23.0173 Y26.1235 F240.00
G01 X22.9877 Y26.0606 F240.00
G01 X22.9632 Y25.9925 F240.00
G01 X22.9610 Y25.9847 F240.00
G01 X22.9454 Y25.9224 F240.00
G01 X22.9433 Y25.9118 F240.00
G01 X22.9332 Y25.8430 F240.00
G01 X22.9295 Y25.7680 F240.00
G01 X22.9295 Y24.4572 F240.00
G01 X22.9328 Y24.3904 F240.00
G01 X22.9338 Y24.3797 F240.00
G01 X22.9442 Y24.3108 F240.00
G01 X22.9610 Y24.2433 F240.00
G01 X22.9641 Y24.2329 F240.00
G01 X22.9877 Y24.1674 F240.00
G01 X23.0198 Y24.0996 F240.00
G01 X23.0583 Y24.0353 F240.00
G01 X23.0997 Y23.9793 F240.00
G01 X23.1048 Y23.9730 F240.00
G01 X23.1534 Y23.9195 F240.00
G01 X23.2049 Y23.8726 F240.00
G01 X23.2132 Y23.8658 F240.00
G01 X23.2648 Y23.8275 F240.00
G01 X23.2738 Y23.8215 F240.00
G01 X23.3336 Y23.7858 F240.00
G01 X23.3806 Y23.7634 F240.00
G01 X23.3806 Y22.8915 F240.00
G01 X23.3817 Y22.8662 F240.00
G01 X23.3828 Y22.8554 F240.00
G01 X23.3872 Y22.8277 F240.00
G01 X23.3941 Y22.8006 F240.00
G01 X23.4025 Y22.7766 F240.00
G01 X23.4066 Y22.7667 F240.00
G01 X23.4176 Y22.7438 F240.00
G01 X23.4305 Y22.7220 F240.00
G01 X23.4365 Y22.7130 F240.00
G01 X23.4517 Y22.6927 F240.00
G01 X23.4723 Y22.6700 F240.00
G01 X25.9206 Y20.2217 F240.00
G01 X25.9206 Y17.8073 F240.00
G01 X17.9789 Y17.8073 F240.00
G01 X17.9536 Y17.8062 F240.00
G01 X17.9455 Y17.8055 F240.00
G01 X17.9178 Y17.8013 F240.00
G01 X17.8905 Y17.7946 F240.00
G01 X17.8640 Y17.7854 F240.00
G01 X17.8541 Y17.7813 F240.00
G01 X17.8312 Y17.7703 F240.00
G01 X17.8048 Y17.7545 F240.00
G01 X17.7801 Y17.7362 F240.00
G01 X17.7613 Y17.7193 F240.00
G01 X16.5791 Y16.5373 F240.00
G01 X14.9337 Y16.5373 F240.00
G01 X14.3635 Y17.1074 F240.00
G01 X14.3690 Y17.1135 F240.00
G01 X14.3754 Y17.1222 F240.00
G01 X14.3810 Y17.1315 F240.00
G01 X14.3856 Y17.1412 F240.00
G01 X14.3892 Y17.1514 F240.00
G01 X14.3918 Y17.1619 F240.00
G01 X14.3934 Y17.1725 F240.00
G01 X14.3939 Y17.1833 F240.00
G01 X14.3938 Y17.8101 F240.00
G01 X14.3931 Y17.8181 F240.00
G01 X14.3913 Y17.8288 F240.00
G01 X14.3892 Y17.8366 F240.00
G01 X14.3856 Y17.8468 F240.00
G01 X14.3822 Y17.8541 F240.00
G01 X14.3769 Y17.8635 F240.00
G01 X14.3707 Y17.8724 F240.00
G01 X14.3636 Y17.8805 F240.00
G01 X13.9204 Y18.3237 F240.00
G01 X13.9143 Y18.3291 F240.00
G01 X13.9057 Y18.3355 F240.00
G01 X13.8964 Y18.3411 F240.00
G01 X13.8867 Y18.3457 F240.00
G01 X13.8765 Y18.3493 F240.00
G01 X13.8660 Y18.3519 F240.00
G01 X13.8553 Y18.3535 F240.00
G01 X13.8473 Y18.3540 F240.00
G01 X13.2178 Y18.3539 F240.00
G01 X13.2071 Y18.3529 F240.00
G01 X13.1991 Y18.3514 F240.00
G01 X13.1887 Y18.3485 F240.00
G01 X13.1811 Y18.3457 F240.00
G01 X13.1737 Y18.3423 F240.00
G01 X13.1643 Y18.3370 F240.00
G01 X13.1555 Y18.3308 F240.00
G01 X13.1473 Y18.3237 F240.00
G01 X12.7042 Y17.8805 F240.00
G01 X12.6971 Y17.8724 F240.00
G01 X12.6909 Y17.8635 F240.00
G01 X12.6868 Y17.8565 F240.00
G01 X12.6822 Y17.8468 F240.00
G01 X12.6786 Y17.8366 F240.00
G01 X12.6765 Y17.8288 F240.00
G01 X12.6747 Y17.8181 F240.00
G01 X12.6739 Y17.8074 F240.00
G01 X12.6739 Y17.1806 F240.00
G01 X12.6747 Y17.1698 F240.00
G01 X12.6765 Y17.1592 F240.00
G01 X12.6794 Y17.1488 F240.00
G01 X12.6833 Y17.1387 F240.00
G01 X12.6868 Y17.1315 F240.00
G01 X12.6924 Y17.1222 F240.00
G01 X12.6988 Y17.1135 F240.00
G01 X12.7060 Y17.1055 F240.00
G00 Z1.2000
G00 X13.0319 Y16.2755
G01 F120.00
G01 Z-0.0800
G01 F240.00
G01 X13.0333 Y16.2488 F240.00
G01 X13.0339 Y16.2240 F240.00
G01 X13.0333 Y16.1992 F240.00
G01 X13.0319 Y16.1725 F240.00
G01 X13.0527 Y16.1805 F240.00
G01 X13.0763 Y16.1883 F240.00
G01 X13.1002 Y16.1949 F240.00
G01 X13.1123 Y16.1978 F240.00
G01 X13.1245 Y16.2003 F240.00
G01 X13.1490 Y16.2046 F240.00
G01 X13.1736 Y16.2076 F240.00
G01 X13.1984 Y16.2094 F240.00
G01 X13.2232 Y16.2101 F240.00
G01 X13.8147 Y16.2101 F240.00
G01 X13.7868 Y16.2379 F240.00
G01 X13.2232 Y16.2379 F240.00
G01 X13.1984 Y16.2385 F240.00
G01 X13.1736 Y16.2404 F240.00
G01 X13.1490 Y16.2434 F240.00
G01 X13.1367 Y16.2454 F240.00
G01 X13.1123 Y16.2502 F240.00
G01 X13.1002 Y16.2531 F240.00
G01 X13.0763 Y16.2597 F240.00
G01 X13.0527 Y16.2675 F240.00
G01 X13.0319 Y16.2755 F240.00
G00 Z1.2000
G00 X12.7060 Y14.5655
G01 F120.00
G01 Z-0.0800
G01 F240.00
G01 X13.1473 Y14.1243 F240.00
G01 X13.1577 Y14.1156 F240.00
G01 X13.1666 Y14.1096 F240.00
G01 X13.1762 Y14.1045 F240.00
G01 X13.1861 Y14.1004 F240.00
G01 X13.1965 Y14.0972 F240.00
G01 X13.2044 Y14.0956 F240.00
G01 X13.2124 Y14.0945 F240.00
G01 X13.2232 Y14.0939 F240.00
G01 X13.8473 Y14.0940 F240.00
G01 X13.8553 Y14.0945 F240.00
G01 X13.8660 Y14.0961 F240.00
G01 X13.8765 Y14.0987 F240.00
G01 X13.8867 Y14.1023 F240.00
G01 X13.8964 Y14.1069 F240.00
G01 X13.9057 Y14.1125 F240.00
G01 X13.9143 Y14.1189 F240.00
G01 X13.9205 Y14.1243 F240.00
G01 X14.5863 Y13.4587 F240.00
G01 X14.6051 Y13.4418 F240.00
G01 X14.6254 Y13.4266 F240.00
G01 X14.6344 Y13.4206 F240.00
G01 X14.6562 Y13.4077 F240.00
G01 X14.6791 Y13.3967 F240.00
G01 X14.6890 Y13.3926 F240.00
G01 X14.7129 Y13.3842 F240.00
G01 X14.7401 Y13.3773 F240.00
G01 X14.7481 Y13.3758 F240.00
G01 X14.7732 Y13.3722 F240.00
G01 X14.8039 Y13.3707 F240.00
G01 X17.9789 Y13.3707 F240.00
G01 X18.0096 Y13.3722 F240.00
G01 X18.0400 Y13.3767 F240.00
G01 X18.0698 Y13.3842 F240.00
G01 X18.0988 Y13.3945 F240.00
G01 X18.1266 Y13.4077 F240.00
G01 X18.1529 Y13.4235 F240.00
G01 X18.1776 Y13.4418 F240.00
G01 X18.1965 Y13.4587 F240.00
G01 X19.3787 Y14.6407 F240.00
G01 X23.0464 Y14.6407 F240.00
G01 X22.9905 Y14.5788 F240.00
G01 X22.9404 Y14.5115 F240.00
G01 X22.9344 Y14.5025 F240.00
G01 X22.8914 Y14.4305 F240.00
G01 X22.8554 Y14.3547 F240.00
G01 X22.8512 Y14.3447 F240.00
G01 X22.8231 Y14.2656 F240.00
G01 X22.8014 Y14.1790 F240.00
G01 X22.7890 Y14.0960 F240.00
G01 X22.7879 Y14.0853 F240.00
G01 X22.7839 Y14.0015 F240.00
G01 X22.7883 Y13.9123 F240.00
G01 X22.8005 Y13.8293 F240.00
G01 X22.8026 Y13.8187 F240.00
G01 X22.8231 Y13.7373 F240.00
G01 X22.8532 Y13.6533 F240.00
G01 X22.8889 Y13.5774 F240.00
G01 X22.8940 Y13.5678 F240.00
G01 X22.9373 Y13.4959 F240.00
G01 X22.9905 Y13.4242 F240.00
G01 X23.0504 Y13.3580 F240.00
G01 X23.1125 Y13.3016 F240.00
G01 X23.1209 Y13.2948 F240.00
G01 X23.1883 Y13.2449 F240.00
G01 X23.2649 Y13.1990 F240.00
G01 X23.3407 Y13.1630 F240.00
G01 X23.3507 Y13.1588 F240.00
G01 X23.4297 Y13.1307 F240.00
G01 X23.5111 Y13.1102 F240.00
G01 X23.5217 Y13.1081 F240.00
G01 X23.6047 Y13.0959 F240.00
G01 X23.6939 Y13.0915 F240.00
G01 X23.7831 Y13.0959 F240.00
G01 X23.8661 Y13.1081 F240.00
G01 X23.8767 Y13.1102 F240.00
G01 X23.9580 Y13.1307 F240.00
G01 X24.0371 Y13.1588 F240.00
G01 X24.0470 Y13.1630 F240.00
G01 X24.1228 Y13.1990 F240.00
G01 X24.1994 Y13.2449 F240.00
G01 X24.2669 Y13.2948 F240.00
G01 X24.2752 Y13.3016 F240.00
G01 X24.3373 Y13.3580 F240.00
G01 X24.3973 Y13.4242 F240.00
G01 X24.4474 Y13.4915 F240.00
G01 X24.4534 Y13.5005 F240.00
G01 X24.4964 Y13.5725 F240.00
G01 X24.5346 Y13.6533 F240.00
G01 X24.5647 Y13.7373 F240.00
G01 X24.5852 Y13.8187 F240.00
G01 X24.5873 Y13.8293 F240.00
G01 X24.5995 Y13.9123 F240.00
G01 X24.6039 Y14.0015 F240.00
G01 X24.5999 Y14.0853 F240.00
G01 X24.5988 Y14.0960 F240.00
G01 X24.5864 Y14.1790 F240.00
G01 X24.5647 Y14.2656 F240.00
G01 X24.5365 Y14.3447 F240.00
G01 X24.5324 Y14.3547 F240.00
G01 X24.4964 Y14.4305 F240.00
G01 X24.4534 Y14.5025 F240.00
G01 X24.4474 Y14.5115 F240.00
G01 X24.3973 Y14.5788 F240.00
G01 X24.3414 Y14.6407 F240.00
G01 X38.2864 Y14.6407 F240.00
G01 X38.2305 Y14.5788 F240.00
G01 X38.1804 Y14.5115 F240.00
G01 X38.1744 Y14.5025 F240.00
G01 X38.1314 Y14.4305 F240.00
G01 X38.0954 Y14.3547 F240.00
G01 X38.0912 Y14.3447 F240.00
G01 X38.0631 Y14.2656 F240.00
G01 X38.0414 Y14.1790 F240.00
G01 X38.0290 Y14.0960 F240.00
G01 X38.0279 Y14.0853 F240.00
G01 X38.0239 Y14.0015 F240.00
G01 X38.0283 Y13.9123 F240.00
G01 X38.0405 Y13.8293 F240.00
G01 X38.0426 Y13.8187 F240.00
G01 X38.0631 Y13.7373 F240.00
G01 X38.0932 Y13.6533 F240.00
G01 X38.1289 Y13.5774 F240.00
G01 X38.1340 Y13.5678 F240.00
G01 X38.1773 Y13.4959 F240.00
G01 X38.2305 Y13.4242 F240.00
G01 X38.2904 Y13.3580 F240.00
G01 X38.3525 Y13.3016 F240.00
G01 X38.3609 Y13.2948 F240.00
G01 X38.4283 Y13.2449 F240.00
G01 X38.5049 Y13.1990 F240.00
G01 X38.5807 Y13.1630 F240.00
G01 X38.5907 Y13.1588 F240.00
G01 X38.6697 Y13.1307 F240.00
G01 X38.7564 Y13.1090 F240.00
G01 X38.8393 Y13.0966 F240.00
G01 X38.8501 Y13.0955 F240.00
G01 X38.9285 Y13.0917 F240.00
G01 X38.9366 Y13.0916 F240.00
G01 X39.0231 Y13.0959 F240.00
G01 X39.1061 Y13.1081 F240.00
G01 X39.1167 Y13.1102 F240.00
G01 X39.1980 Y13.1307 F240.00
G01 X39.2771 Y13.1588 F240.00
G01 X39.2870 Y13.1630 F240.00
G01 X39.3628 Y13.1990 F240.00
G01 X39.4394 Y13.2449 F240.00
G01 X39.5069 Y13.2948 F240.00
G01 X39.5152 Y13.3016 F240.00
G01 X39.5773 Y13.3580 F240.00
G01 X39.6373 Y13.4242 F240.00
G01 X39.6874 Y13.4915 F240.00
G01 X39.6934 Y13.5005 F240.00
G01 X39.7364 Y13.5725 F240.00
G01 X39.7746 Y13.6533 F240.00
G01 X39.8047 Y13.7373 F240.00
G01 X39.8252 Y13.8187 F240.00
G01 X39.8273 Y13.8293 F240.00
G01 X39.8395 Y13.9123 F240.00
G01 X39.8439 Y14.0015 F240.00
G01 X39.8399 Y14.0853 F240.00
G01 X39.8388 Y14.0960 F240.00
G01 X39.8264 Y14.1790 F240.00
G01 X39.8047 Y14.2656 F240.00
G01 X39.7765 Y14.3447 F240.00
G01 X39.7724 Y14.3547 F240.00
G01 X39.7364 Y14.4305 F240.00
G01 X39.6934 Y14.5025 F240.00
G01 X39.6874 Y14.5115 F240.00
G01 X39.6373 Y14.5788 F240.00
G01 X39.5814 Y14.6407 F240.00
G01 X44.4239 Y14.6407 F240.00
G01 X44.4244 Y14.6325 F240.00
G01 X44.4259 Y14.6219 F240.00
G01 X44.4286 Y14.6114 F240.00
G01 X44.4322 Y14.6012 F240.00
G01 X44.4368 Y14.5915 F240.00
G01 X44.4424 Y14.5822 F240.00
G01 X44.4471 Y14.5756 F240.00
G01 X44.4542 Y14.5675 F240.00
G01 X44.8954 Y14.1262 F240.00
G01 X44.9034 Y14.1189 F240.00
G01 X44.9099 Y14.1140 F240.00
G01 X44.9190 Y14.1082 F240.00
G01 X44.9262 Y14.1045 F240.00
G01 X44.9361 Y14.1004 F240.00
G01 X44.9465 Y14.0972 F240.00
G01 X44.9571 Y14.0951 F240.00
G01 X44.9705 Y14.0940 F240.00
G01 X45.5946 Y14.0939 F240.00
G01 X45.6053 Y14.0945 F240.00
G01 X45.6134 Y14.0956 F240.00
G01 X45.6239 Y14.0979 F240.00
G01 X45.6316 Y14.1004 F240.00
G01 X45.6391 Y14.1034 F240.00
G01 X45.6488 Y14.1082 F240.00
G01 X45.6557 Y14.1125 F240.00
G01 X45.6622 Y14.1172 F240.00
G01 X45.6704 Y14.1243 F240.00
G01 X46.1117 Y14.5655 F240.00
G01 X46.1190 Y14.5735 F240.00
G01 X46.1239 Y14.5800 F240.00
G01 X46.1283 Y14.5868 F240.00
G01 X46.1334 Y14.5963 F240.00
G01 X46.1375 Y14.6063 F240.00
G01 X46.1406 Y14.6166 F240.00
G01 X46.1427 Y14.6272 F240.00
G01 X46.1439 Y14.6406 F240.00
G01 X46.1439 Y15.2674 F240.00
G01 X46.1434 Y15.2755 F240.00
G01 X46.1418 Y15.2861 F240.00
G01 X46.1392 Y15.2966 F240.00
G01 X46.1356 Y15.3068 F240.00
G01 X46.1322 Y15.3141 F240.00
G01 X46.1269 Y15.3235 F240.00
G01 X46.1207 Y15.3324 F240.00
G01 X46.1136 Y15.3405 F240.00
G01 X45.6723 Y15.7818 F240.00
G01 X45.6643 Y15.7891 F240.00
G01 X45.6579 Y15.7940 F240.00
G01 X45.6511 Y15.7984 F240.00
G01 X45.6416 Y15.8035 F240.00
G01 X45.6291 Y15.8085 F240.00
G01 X45.6187 Y15.8114 F240.00
G01 X45.6080 Y15.8132 F240.00
G01 X45.5973 Y15.8140 F240.00
G01 X44.9732 Y15.8141 F240.00
G01 X44.9624 Y15.8135 F240.00
G01 X44.9517 Y15.8119 F240.00
G01 X44.9413 Y15.8093 F240.00
G01 X44.9311 Y15.8057 F240.00
G01 X44.9213 Y15.8011 F240.00
G01 X44.9121 Y15.7955 F240.00
G01 X44.9034 Y15.7891 F240.00
G01 X44.8954 Y15.7818 F240.00
G01 X44.4523 Y15.3386 F240.00
G01 X44.4455 Y15.3302 F240.00
G01 X44.4409 Y15.3235 F240.00
G01 X44.4356 Y15.3141 F240.00
G01 X44.4312 Y15.3043 F240.00
G01 X44.4278 Y15.2940 F240.00
G01 X44.4259 Y15.2861 F240.00
G01 X44.4244 Y15.2755 F240.00
G01 X44.4239 Y15.2673 F240.00
G01 X19.2435 Y15.2672 F240.00
G01 X19.2182 Y15.2658 F240.00
G01 X19.1878 Y15.2613 F240.00
G01 X19.1579 Y15.2538 F240.00
G01 X19.1290 Y15.2434 F240.00
G01 X19.1012 Y15.2303 F240.00
G01 X19.0748 Y15.2145 F240.00
G01 X19.0501 Y15.1962 F240.00
G01 X19.0313 Y15.1793 F240.00
G01 X17.8491 Y13.9973 F240.00
G01 X14.9337 Y13.9973 F240.00
G01 X14.3635 Y14.5674 F240.00
G01 X14.3690 Y14.5735 F240.00
G01 X14.3754 Y14.5822 F240.00
G01 X14.3810 Y14.5915 F240.00
G01 X14.3856 Y14.6012 F240.00
G01 X14.3892 Y14.6114 F240.00
G01 X14.3918 Y14.6219 F240.00
G01 X14.3934 Y14.6325 F240.00
G01 X14.3939 Y14.6433 F240.00
G01 X14.3938 Y15.2701 F240.00
G01 X14.3927 Y15.2808 F240.00
G01 X14.3913 Y15.2888 F240.00
G01 X14.3884 Y15.2992 F240.00
G01 X14.3856 Y15.3068 F240.00
G01 X14.3810 Y15.3165 F240.00
G01 X14.3769 Y15.3235 F240.00
G01 X14.3707 Y15.3324 F240.00
G01 X14.3636 Y15.3405 F240.00
G01 X13.9204 Y15.7837 F240.00
G01 X13.9122 Y15.7908 F240.00
G01 X13.9057 Y15.7955 F240.00
G01 X13.8964 Y15.8011 F240.00
G01 X13.8867 Y15.8057 F240.00
G01 X13.8791 Y15.8085 F240.00
G01 X13.8687 Y15.8114 F240.00
G01 X13.8580 Y15.8132 F240.00
G01 X13.8473 Y15.8140 F240.00
G01 X13.2205 Y15.8140 F240.00
G01 X13.2124 Y15.8135 F240.00
G01 X13.2017 Y15.8119 F240.00
G01 X13.1913 Y15.8093 F240.00
G01 X13.1811 Y15.8057 F240.00
G01 X13.1713 Y15.8011 F240.00
G01 X13.1621 Y15.7955 F240.00
G01 X13.1534 Y15.7891 F240.00
G01 X13.1473 Y15.7837 F240.00
G01 X12.7042 Y15.3405 F240.00
G01 X12.6971 Y15.3324 F240.00
G01 X12.6909 Y15.3235 F240.00
G01 X12.6868 Y15.3165 F240.00
G01 X12.6822 Y15.3068 F240.00
G01 X12.6786 Y15.2966 F240.00
G01 X12.6765 Y15.2888 F240.00
G01 X12.6747 Y15.2781 F240.00
G01 X12.6739 Y15.2674 F240.00
G01 X12.6739 Y14.6406 F240.00
G01 X12.6744 Y14.6325 F240.00
G01 X12.6759 Y14.6219 F240.00
G01 X12.6786 Y14.6114 F240.00
G01 X12.6822 Y14.6012 F240.00
G01 X12.6868 Y14.5915 F240.00
G01 X12.6924 Y14.5822 F240.00
G01 X12.6988 Y14.5735 F240.00
G01 X12.7060 Y14.5655 F240.00
G00 Z1.2000
G00 X13.0319 Y13.6325
G01 F120.00
G01 Z-0.0800
G01 F240.00
G01 X13.0527 Y13.6405 F240.00
G01 X13.0763 Y13.6483 F240.00
G01 X13.1002 Y13.6549 F240.00
G01 X13.1123 Y13.6578 F240.00
G01 X13.1367 Y13.6626 F240.00
G01 X13.1613 Y13.6662 F240.00
G01 X13.1860 Y13.6687 F240.00
G01 X13.1984 Y13.6694 F240.00
G01 X13.2232 Y13.6701 F240.00
G01 X13.8147 Y13.6701 F240.00
G01 X13.7868 Y13.6979 F240.00
G01 X13.2232 Y13.6979 F240.00
G01 X13.1984 Y13.6985 F240.00
G01 X13.1860 Y13.6993 F240.00
G01 X13.1613 Y13.7017 F240.00
G01 X13.1367 Y13.7054 F240.00
G01 X13.1123 Y13.7102 F240.00
G01 X13.0882 Y13.7163 F240.00
G01 X13.0763 Y13.7197 F240.00
G01 X13.0527 Y13.7275 F240.00
G01 X13.0319 Y13.7355 F240.00
G01 X13.0333 Y13.7088 F240.00
G01 X13.0339 Y13.6840 F240.00
G01 X13.0333 Y13.6592 F240.00
G01 X13.0319 Y13.6325 F240.00
G00 Z1.2000
G00 X12.7060 Y12.0255
G01 F120.00
G01 Z-0.0800
G01 F240.00
G01 X13.1473 Y11.5843 F240.00
G01 X13.1555 Y11.5772 F240.00
G01 X13.1643 Y11.5710 F240.00
G01 X13.1737 Y11.5657 F240.00
G01 X13.1861 Y11.5604 F240.00
G01 X13.1965 Y11.5572 F240.00
G01 X13.2044 Y11.5556 F240.00
G01 X13.2151 Y11.5542 F240.00
G01 X13.2232 Y11.5539 F240.00
G01 X13.8473 Y11.5540 F240.00
G01 X13.8580 Y11.5548 F240.00
G01 X13.8660 Y11.5561 F240.00
G01 X13.8765 Y11.5587 F240.00
G01 X13.8867 Y11.5623 F240.00
G01 X13.8964 Y11.5669 F240.00
G01 X13.9057 Y11.5725 F240.00
G01 X13.9143 Y11.5789 F240.00
G01 X13.9205 Y11.5843 F240.00
G01 X14.5823 Y10.9225 F240.00
G01 X14.6031 Y10.9036 F240.00
G01 X14.6254 Y10.8866 F240.00
G01 X14.6344 Y10.8806 F240.00
G01 X14.6562 Y10.8677 F240.00
G01 X14.6791 Y10.8567 F240.00
G01 X14.6865 Y10.8535 F240.00
G01 X14.7129 Y10.8442 F240.00
G01 X14.7428 Y10.8367 F240.00
G01 X14.7732 Y10.8322 F240.00
G01 X14.7985 Y10.8308 F240.00
G01 X44.0166 Y10.8307 F240.00
G01 X44.0446 Y10.8322 F240.00
G01 X44.0750 Y10.8367 F240.00
G01 X44.1048 Y10.8442 F240.00
G01 X44.1287 Y10.8526 F240.00
G01 X44.1387 Y10.8567 F240.00
G01 X44.1592 Y10.8664 F240.00
G01 X44.1663 Y10.8704 F240.00
G01 X44.1879 Y10.8835 F240.00
G01 X44.2084 Y10.8985 F240.00
G01 X44.2147 Y10.9036 F240.00
G01 X44.2354 Y10.9225 F240.00
G01 X44.8973 Y11.5843 F240.00
G01 X44.9034 Y11.5789 F240.00
G01 X44.9121 Y11.5725 F240.00
G01 X44.9213 Y11.5669 F240.00
G01 X44.9311 Y11.5623 F240.00
G01 X44.9413 Y11.5587 F240.00
G01 X44.9517 Y11.5561 F240.00
G01 X44.9624 Y11.5545 F240.00
G01 X44.9732 Y11.5539 F240.00
G01 X45.6000 Y11.5541 F240.00
G01 X45.6107 Y11.5551 F240.00
G01 X45.6187 Y11.5566 F240.00
G01 X45.6291 Y11.5595 F240.00
G01 X45.6367 Y11.5623 F240.00
G01 X45.6440 Y11.5657 F240.00
G01 X45.6534 Y11.5710 F240.00
G01 X45.6622 Y11.5772 F240.00
G01 X45.6684 Y11.5824 F240.00
G01 X46.1136 Y12.0275 F240.00
G01 X46.1207 Y12.0356 F240.00
G01 X46.1269 Y12.0445 F240.00
G01 X46.1322 Y12.0539 F240.00
G01 X46.1356 Y12.0612 F240.00
G01 X46.1392 Y12.0714 F240.00
G01 X46.1418 Y12.0819 F240.00
G01 X46.1434 Y12.0925 F240.00
G01 X46.1439 Y12.1006 F240.00
G01 X46.1439 Y12.7274 F240.00
G01 X46.1434 Y12.7355 F240.00
G01 X46.1418 Y12.7461 F240.00
G01 X46.1392 Y12.7566 F240.00
G01 X46.1356 Y12.7668 F240.00
G01 X46.1322 Y12.7741 F240.00
G01 X46.1269 Y12.7835 F240.00
G01 X46.1207 Y12.7924 F240.00
G01 X46.1136 Y12.8005 F240.00
G01 X45.6723 Y13.2418 F240.00
G01 X45.6643 Y13.2491 F240.00
G01 X45.6579 Y13.2540 F240.00
G01 X45.6488 Y13.2598 F240.00
G01 X45.6391 Y13.2646 F240.00
G01 X45.6291 Y13.2685 F240.00
G01 X45.6187 Y13.2714 F240.00
G01 X45.6080 Y13.2732 F240.00
G01 X45.5973 Y13.2740 F240.00
G01 X44.9732 Y13.2741 F240.00
G01 X44.9597 Y13.2732 F240.00
G01 X44.9517 Y13.2719 F240.00
G01 X44.9439 Y13.2701 F240.00
G01 X44.9311 Y13.2657 F240.00
G01 X44.9190 Y13.2598 F240.00
G01 X44.9077 Y13.2524 F240.00
G01 X44.9013 Y13.2473 F240.00
G01 X44.8954 Y13.2418 F240.00
G01 X44.4560 Y12.8025 F240.00
G01 X44.4471 Y12.7924 F240.00
G01 X44.4409 Y12.7835 F240.00
G01 X44.4356 Y12.7741 F240.00
G01 X44.4312 Y12.7643 F240.00
G01 X44.4278 Y12.7540 F240.00
G01 X44.4259 Y12.7461 F240.00
G01 X44.4244 Y12.7355 F240.00
G01 X44.4238 Y12.7247 F240.00
G01 X44.4239 Y12.1006 F240.00
G01 X44.4247 Y12.0898 F240.00
G01 X44.4265 Y12.0792 F240.00
G01 X44.4286 Y12.0714 F240.00
G01 X44.4322 Y12.0612 F240.00
G01 X44.4368 Y12.0515 F240.00
G01 X44.4424 Y12.0422 F240.00
G01 X44.4488 Y12.0335 F240.00
G01 X44.4542 Y12.0274 F240.00
G01 X43.8841 Y11.4573 F240.00
G01 X14.9337 Y11.4573 F240.00
G01 X14.3635 Y12.0274 F240.00
G01 X14.3690 Y12.0335 F240.00
G01 X14.3754 Y12.0422 F240.00
G01 X14.3810 Y12.0515 F240.00
G01 X14.3856 Y12.0612 F240.00
G01 X14.3892 Y12.0714 F240.00
G01 X14.3918 Y12.0819 F240.00
G01 X14.3934 Y12.0925 F240.00
G01 X14.3939 Y12.1033 F240.00
G01 X14.3938 Y12.7301 F240.00
G01 X14.3927 Y12.7408 F240.00
G01 X14.3906 Y12.7514 F240.00
G01 X14.3884 Y12.7592 F240.00
G01 X14.3845 Y12.7693 F240.00
G01 X14.3796 Y12.7789 F240.00
G01 X14.3754 Y12.7858 F240.00
G01 X14.3690 Y12.7945 F240.00
G01 X14.3636 Y12.8005 F240.00
G01 X13.9204 Y13.2437 F240.00
G01 X13.9122 Y13.2508 F240.00
G01 X13.9034 Y13.2570 F240.00
G01 X13.8964 Y13.2611 F240.00
G01 X13.8867 Y13.2657 F240.00
G01 X13.8791 Y13.2685 F240.00
G01 X13.8687 Y13.2714 F240.00
G01 X13.8580 Y13.2732 F240.00
G01 X13.8473 Y13.2740 F240.00
G01 X13.2205 Y13.2740 F240.00
G01 X13.2097 Y13.2732 F240.00
G01 X13.1991 Y13.2714 F240.00
G01 X13.1913 Y13.2693 F240.00
G01 X13.1811 Y13.2657 F240.00
G01 X13.1713 Y13.2611 F240.00
G01 X13.1621 Y13.2555 F240.00
G01 X13.1534 Y13.2491 F240.00
G01 X13.1473 Y13.2437 F240.00
G01 X12.7042 Y12.8005 F240.00
G01 X12.6971 Y12.7924 F240.00
G01 X12.6909 Y12.7835 F240.00
G01 X12.6868 Y12.7765 F240.00
G01 X12.6822 Y12.7668 F240.00
G01 X12.6786 Y12.7566 F240.00
G01 X12.6765 Y12.7488 F240.00
G01 X12.6747 Y12.7381 F240.00
G01 X12.6739 Y12.7274 F240.00
G01 X12.6739 Y12.1006 F240.00
G01 X12.6744 Y12.0925 F240.00
G01 X12.6759 Y12.0819 F240.00
G01 X12.6786 Y12.0714 F240.00
G01 X12.6822 Y12.0612 F240.00
G01 X12.6868 Y12.0515 F240.00
G01 X12.6924 Y12.0422 F240.00
G01 X12.6988 Y12.0335 F240.00
G01 X12.7060 Y12.0255 F240.00
G00 Z1.2000
G00 X12.6127 Y11.9322
G01 F120.00
G01 Z-0.0800
G01 F240.00
G01 X12.6045 Y11.9408 F240.00
G01 X12.5968 Y11.9498 F240.00
G01 X12.5894 Y11.9592 F240.00
G01 X12.5826 Y11.9689 F240.00
G01 X12.5763 Y11.9789 F240.00
G01 X12.5704 Y11.9892 F240.00
G01 X12.5651 Y11.9998 F240.00
G01 X12.5602 Y12.0107 F240.00
G01 X12.5560 Y12.0218 F240.00
G01 X12.5522 Y12.0331 F240.00
G01 X12.5477 Y12.0503 F240.00
G01 X12.5454 Y12.0619 F240.00
G01 X12.5436 Y12.0737 F240.00
G01 X12.5425 Y12.0855 F240.00
G01 X12.5419 Y12.0974 F240.00
G01 X12.5418 Y12.7247 F240.00
G01 X12.5425 Y12.7425 F240.00
G01 X12.5444 Y12.7602 F240.00
G01 X12.5477 Y12.7777 F240.00
G01 X12.5522 Y12.7949 F240.00
G01 X12.5560 Y12.8062 F240.00
G01 X12.5602 Y12.8173 F240.00
G01 X12.5677 Y12.8335 F240.00
G01 X12.5733 Y12.8440 F240.00
G01 X12.5794 Y12.8541 F240.00
G01 X12.5894 Y12.8688 F240.00
G01 X12.6006 Y12.8827 F240.00
G01 X12.6127 Y12.8958 F240.00
G01 X13.0563 Y13.3393 F240.00
G01 X13.0651 Y13.3473 F240.00
G01 X13.0743 Y13.3548 F240.00
G01 X13.0839 Y13.3619 F240.00
G01 X13.0937 Y13.3685 F240.00
G01 X13.1039 Y13.3746 F240.00
G01 X13.1144 Y13.3802 F240.00
G01 X13.1306 Y13.3876 F240.00
G01 X13.1417 Y13.3919 F240.00
G01 X13.1529 Y13.3956 F240.00
G01 X13.1644 Y13.3988 F240.00
G01 X13.1760 Y13.4014 F240.00
G01 X13.1877 Y13.4034 F240.00
G01 X13.1995 Y13.4049 F240.00
G01 X13.2173 Y13.4060 F240.00
G01 X13.8446 Y13.4061 F240.00
G01 X13.8564 Y13.4058 F240.00
G01 X13.8742 Y13.4042 F240.00
G01 X13.8918 Y13.4014 F240.00
G01 X13.9091 Y13.3973 F240.00
G01 X13.9261 Y13.3919 F240.00
G01 X13.9372 Y13.3876 F240.00
G01 X13.9480 Y13.3828 F240.00
G01 X13.9638 Y13.3746 F240.00
G01 X13.9790 Y13.3653 F240.00
G01 X13.9935 Y13.3548 F240.00
G01 X14.0071 Y13.3434 F240.00
G01 X14.0157 Y13.3352 F240.00
G01 X14.4592 Y12.8915 F240.00
G01 X14.4710 Y12.8782 F240.00
G01 X14.4783 Y12.8688 F240.00
G01 X14.4852 Y12.8591 F240.00
G01 X14.4945 Y12.8440 F240.00
G01 X14.5027 Y12.8281 F240.00
G01 X14.5075 Y12.8173 F240.00
G01 X14.5118 Y12.8062 F240.00
G01 X14.5155 Y12.7949 F240.00
G01 X14.5187 Y12.7835 F240.00
G01 X14.5213 Y12.7719 F240.00
G01 X14.5233 Y12.7602 F240.00
G01 X14.5248 Y12.7484 F240.00
G01 X14.5259 Y12.7306 F240.00
G01 X14.5259 Y12.1033 F240.00
G01 X14.5256 Y12.0914 F240.00
G01 X14.5248 Y12.0796 F240.00
G01 X14.5233 Y12.0678 F240.00
G01 X14.5213 Y12.0563 F240.00
G01 X14.9883 Y11.5893 F240.00
G01 X15.4956 Y11.5893 F240.00
G01 X15.1527 Y11.9322 F240.00
G01 X15.1445 Y11.9408 F240.00
G01 X15.1368 Y11.9498 F240.00
G01 X15.1294 Y11.9592 F240.00
G01 X15.1226 Y11.9689 F240.00
G01 X15.1163 Y11.9789 F240.00
G01 X15.1104 Y11.9892 F240.00
G01 X15.1051 Y11.9998 F240.00
G01 X15.1002 Y12.0107 F240.00
G01 X15.0960 Y12.0218 F240.00
G01 X15.0922 Y12.0331 F240.00
G01 X15.0891 Y12.0445 F240.00
G01 X15.0854 Y12.0619 F240.00
G01 X15.0830 Y12.0796 F240.00
G01 X15.0819 Y12.0974 F240.00
G01 X15.0818 Y12.7247 F240.00
G01 X15.0821 Y12.7366 F240.00
G01 X15.0830 Y12.7484 F240.00
G01 X15.0854 Y12.7661 F240.00
G01 X15.0877 Y12.7777 F240.00
G01 X15.0906 Y12.7892 F240.00
G01 X15.0960 Y12.8062 F240.00
G01 X15.1026 Y12.8227 F240.00
G01 X15.1077 Y12.8335 F240.00
G01 X15.1133 Y12.8440 F240.00
G01 X15.1194 Y12.8541 F240.00
G01 X15.1260 Y12.8640 F240.00
G01 X15.1368 Y12.8782 F240.00
G01 X15.1445 Y12.8872 F240.00
G01 X15.1527 Y12.8958 F240.00
G01 X15.4956 Y13.2387 F240.00
G01 X14.8039 Y13.2387 F240.00
G01 X14.7920 Y13.2390 F240.00
G01 X14.7662 Y13.2403 F240.00
G01 X14.7543 Y13.2415 F240.00
G01 X14.7228 Y13.2462 F240.00
G01 X14.7112 Y13.2485 F240.00
G01 X14.6803 Y13.2562 F240.00
G01 X14.6690 Y13.2597 F240.00
G01 X14.6390 Y13.2704 F240.00
G01 X14.6280 Y13.2749 F240.00
G01 X14.5940 Y13.2913 F240.00
G01 X14.5665 Y13.3074 F240.00
G01 X14.5565 Y13.3137 F240.00
G01 X14.5308 Y13.3325 F240.00
G01 X14.5214 Y13.3398 F240.00
G01 X14.4933 Y13.3650 F240.00
G01 X13.8916 Y13.9666 F240.00
G01 X13.8801 Y13.9646 F240.00
G01 X13.8683 Y13.9631 F240.00
G01 X13.8564 Y13.9622 F240.00
G01 X13.8446 Y13.9619 F240.00
G01 X13.2173 Y13.9620 F240.00
G01 X13.2054 Y13.9626 F240.00
G01 X13.1936 Y13.9638 F240.00
G01 X13.1818 Y13.9655 F240.00
G01 X13.1702 Y13.9678 F240.00
G01 X13.1587 Y13.9707 F240.00
G01 X13.1473 Y13.9742 F240.00
G01 X13.1361 Y13.9782 F240.00
G01 X13.1251 Y13.9827 F240.00
G01 X13.1091 Y13.9905 F240.00
G01 X13.0988 Y13.9964 F240.00
G01 X13.0887 Y14.0027 F240.00
G01 X13.0743 Y14.0132 F240.00
G01 X13.0651 Y14.0207 F240.00
G01 X13.0563 Y14.0287 F240.00
G01 X12.6127 Y14.4722 F240.00
G01 X12.6045 Y14.4808 F240.00
G01 X12.5968 Y14.4898 F240.00
G01 X12.5894 Y14.4992 F240.00
G01 X12.5794 Y14.5138 F240.00
G01 X12.5733 Y14.5240 F240.00
G01 X12.5677 Y14.5345 F240.00
G01 X12.5602 Y14.5507 F240.00
G01 X12.5560 Y14.5618 F240.00
G01 X12.5522 Y14.5731 F240.00
G01 X12.5491 Y14.5845 F240.00
G01 X12.5454 Y14.6019 F240.00
G01 X12.5430 Y14.6196 F240.00
G01 X12.5419 Y14.6374 F240.00
G01 X12.5418 Y15.2647 F240.00
G01 X12.5421 Y15.2766 F240.00
G01 X12.5436 Y15.2943 F240.00
G01 X12.5454 Y15.3061 F240.00
G01 X12.5477 Y15.3177 F240.00
G01 X12.5506 Y15.3292 F240.00
G01 X12.5540 Y15.3406 F240.00
G01 X12.5580 Y15.3518 F240.00
G01 X12.5626 Y15.3627 F240.00
G01 X12.5677 Y15.3735 F240.00
G01 X12.5733 Y15.3840 F240.00
G01 X12.5826 Y15.3991 F240.00
G01 X12.5894 Y15.4088 F240.00
G01 X12.5968 Y15.4182 F240.00
G01 X12.6086 Y15.4315 F240.00
G01 X13.0563 Y15.8793 F240.00
G01 X13.0697 Y15.8911 F240.00
G01 X13.0790 Y15.8984 F240.00
G01 X13.0887 Y15.9053 F240.00
G01 X13.0988 Y15.9116 F240.00
G01 X13.1091 Y15.9175 F240.00
G01 X13.1197 Y15.9228 F240.00
G01 X13.1306 Y15.9276 F240.00
G01 X13.1473 Y15.9338 F240.00
G01 X13.1587 Y15.9373 F240.00
G01 X13.1702 Y15.9402 F240.00
G01 X13.1818 Y15.9425 F240.00
G01 X13.1936 Y15.9442 F240.00
G01 X13.2054 Y15.9454 F240.00
G01 X13.2173 Y15.9460 F240.00
G01 X13.8446 Y15.9461 F240.00
G01 X13.8624 Y15.9454 F240.00
G01 X13.8801 Y15.9434 F240.00
G01 X13.8976 Y15.9402 F240.00
G01 X13.9148 Y15.9356 F240.00
G01 X13.9317 Y15.9298 F240.00
G01 X13.9480 Y15.9228 F240.00
G01 X13.9638 Y15.9146 F240.00
G01 X13.9790 Y15.9053 F240.00
G01 X13.9935 Y15.8948 F240.00
G01 X14.0071 Y15.8834 F240.00
G01 X14.0157 Y15.8752 F240.00
G01 X14.4592 Y15.4315 F240.00
G01 X14.4710 Y15.4182 F240.00
G01 X14.4783 Y15.4088 F240.00
G01 X14.4852 Y15.3991 F240.00
G01 X14.4945 Y15.3840 F240.00
G01 X14.5027 Y15.3681 F240.00
G01 X14.5097 Y15.3518 F240.00
G01 X14.5137 Y15.3406 F240.00
G01 X14.5172 Y15.3292 F240.00
G01 X14.5201 Y15.3177 F240.00
G01 X14.5224 Y15.3061 F240.00
G01 X14.5241 Y15.2943 F240.00
G01 X14.5253 Y15.2825 F240.00
G01 X14.5259 Y15.2706 F240.00
G01 X14.5259 Y14.6433 F240.00
G01 X14.5256 Y14.6314 F240.00
G01 X14.5248 Y14.6196 F240.00
G01 X14.5233 Y14.6078 F240.00
G01 X14.5213 Y14.5963 F240.00
G01 X14.9883 Y14.1293 F240.00
G01 X15.4956 Y14.1293 F240.00
G01 X15.1527 Y14.4722 F240.00
G01 X15.1445 Y14.4808 F240.00
G01 X15.1368 Y14.4898 F240.00
G01 X15.1294 Y14.4992 F240.00
G01 X15.1226 Y14.5089 F240.00
G01 X15.1163 Y14.5189 F240.00
G01 X15.1104 Y14.5292 F240.00
G01 X15.1051 Y14.5398 F240.00
G01 X15.1002 Y14.5507 F240.00
G01 X15.0960 Y14.5618 F240.00
G01 X15.0906 Y14.5788 F240.00
G01 X15.0877 Y14.5903 F240.00
G01 X15.0854 Y14.6019 F240.00
G01 X15.0830 Y14.6196 F240.00
G01 X15.0819 Y14.6374 F240.00
G01 X15.0818 Y15.2647 F240.00
G01 X15.0821 Y15.2766 F240.00
G01 X15.0830 Y15.2884 F240.00
G01 X15.0854 Y15.3061 F240.00
G01 X15.0877 Y15.3177 F240.00
G01 X15.0906 Y15.3292 F240.00
G01 X15.0960 Y15.3462 F240.00
G01 X15.1026 Y15.3627 F240.00
G01 X15.1077 Y15.3735 F240.00
G01 X15.1133 Y15.3840 F240.00
G01 X15.1194 Y15.3941 F240.00
G01 X15.1260 Y15.4040 F240.00
G01 X15.1368 Y15.4182 F240.00
G01 X15.1445 Y15.4272 F240.00
G01 X15.1527 Y15.4358 F240.00
G01 X15.4956 Y15.7787 F240.00
G01 X14.8039 Y15.7787 F240.00
G01 X14.7920 Y15.7790 F240.00
G01 X14.7662 Y15.7803 F240.00
G01 X14.7543 Y15.7815 F240.00
G01 X14.7228 Y15.7862 F240.00
G01 X14.7112 Y15.7885 F240.00
G01 X14.6803 Y15.7962 F240.00
G01 X14.6690 Y15.7997 F240.00
G01 X14.6390 Y15.8104 F240.00
G01 X14.6280 Y15.8149 F240.00
G01 X14.5940 Y15.8313 F240.00
G01 X14.5665 Y15.8474 F240.00
G01 X14.5565 Y15.8537 F240.00
G01 X14.5308 Y15.8725 F240.00
G01 X14.5214 Y15.8798 F240.00
G01 X14.4933 Y15.9050 F240.00
G01 X13.8916 Y16.5066 F240.00
G01 X13.8801 Y16.5046 F240.00
G01 X13.8683 Y16.5031 F240.00
G01 X13.8564 Y16.5022 F240.00
G01 X13.8446 Y16.5019 F240.00
G01 X13.2173 Y16.5020 F240.00
G01 X13.1995 Y16.5031 F240.00
G01 X13.1877 Y16.5046 F240.00
G01 X13.1760 Y16.5066 F240.00
G01 X13.1644 Y16.5092 F240.00
G01 X13.1529 Y16.5124 F240.00
G01 X13.1417 Y16.5161 F240.00
G01 X13.1306 Y16.5204 F240.00
G01 X13.1197 Y16.5252 F240.00
G01 X13.1091 Y16.5305 F240.00
G01 X13.0988 Y16.5364 F240.00
G01 X13.0887 Y16.5427 F240.00
G01 X13.0790 Y16.5496 F240.00
G01 X13.0697 Y16.5569 F240.00
G01 X13.0607 Y16.5646 F240.00
G01 X13.0521 Y16.5728 F240.00
G01 X12.6086 Y17.0164 F240.00
G01 X12.6006 Y17.0252 F240.00
G01 X12.5894 Y17.0392 F240.00
G01 X12.5794 Y17.0538 F240.00
G01 X12.5704 Y17.0692 F240.00
G01 X12.5651 Y17.0798 F240.00
G01 X12.5602 Y17.0907 F240.00
G01 X12.5540 Y17.1074 F240.00
G01 X12.5506 Y17.1188 F240.00
G01 X12.5465 Y17.1361 F240.00
G01 X12.5444 Y17.1478 F240.00
G01 X12.5425 Y17.1655 F240.00
G01 X12.5419 Y17.1774 F240.00
G01 X12.5419 Y17.8106 F240.00
G01 X12.5430 Y17.8284 F240.00
G01 X12.5444 Y17.8402 F240.00
G01 X12.5465 Y17.8519 F240.00
G01 X12.5491 Y17.8635 F240.00
G01 X12.5522 Y17.8749 F240.00
G01 X12.5580 Y17.8918 F240.00
G01 X12.5626 Y17.9027 F240.00
G01 X12.5677 Y17.9135 F240.00
G01 X12.5733 Y17.9240 F240.00
G01 X12.5794 Y17.9341 F240.00
G01 X12.5894 Y17.9488 F240.00
G01 X12.5968 Y17.9582 F240.00
G01 X12.6045 Y17.9672 F240.00
G01 X12.6127 Y17.9758 F240.00
G01 X13.0563 Y18.4193 F240.00
G01 X13.0697 Y18.4311 F240.00
G01 X13.0790 Y18.4384 F240.00
G01 X13.0887 Y18.4453 F240.00
G01 X13.0988 Y18.4516 F240.00
G01 X13.1091 Y18.4575 F240.00
G01 X13.1251 Y18.4653 F240.00
G01 X13.1361 Y18.4698 F240.00
G01 X13.1473 Y18.4738 F240.00
G01 X13.1587 Y18.4773 F240.00
G01 X13.1702 Y18.4802 F240.00
G01 X13.1818 Y18.4825 F240.00
G01 X13.1936 Y18.4842 F240.00
G01 X13.2054 Y18.4854 F240.00
G01 X13.2173 Y18.4860 F240.00
G01 X13.8446 Y18.4861 F240.00
G01 X13.8564 Y18.4858 F240.00
G01 X13.8683 Y18.4849 F240.00
G01 X13.8801 Y18.4834 F240.00
G01 X13.8976 Y18.4802 F240.00
G01 X13.9091 Y18.4773 F240.00
G01 X13.9205 Y18.4738 F240.00
G01 X13.9372 Y18.4676 F240.00
G01 X13.9480 Y18.4628 F240.00
G01 X13.9586 Y18.4575 F240.00
G01 X13.9690 Y18.4516 F240.00
G01 X13.9790 Y18.4453 F240.00
G01 X13.9887 Y18.4384 F240.00
G01 X13.9981 Y18.4311 F240.00
G01 X14.0114 Y18.4193 F240.00
G01 X14.4592 Y17.9715 F240.00
G01 X14.4710 Y17.9582 F240.00
G01 X14.4783 Y17.9488 F240.00
G01 X14.4884 Y17.9341 F240.00
G01 X14.4945 Y17.9240 F240.00
G01 X14.5001 Y17.9135 F240.00
G01 X14.5075 Y17.8973 F240.00
G01 X14.5137 Y17.8806 F240.00
G01 X14.5172 Y17.8692 F240.00
G01 X14.5201 Y17.8577 F240.00
G01 X14.5233 Y17.8402 F240.00
G01 X14.5253 Y17.8225 F240.00
G01 X14.5259 Y17.8106 F240.00
G01 X14.5259 Y17.1833 F240.00
G01 X14.5256 Y17.1714 F240.00
G01 X14.5248 Y17.1596 F240.00
G01 X14.5233 Y17.1478 F240.00
G01 X14.5213 Y17.1363 F240.00
G01 X14.9883 Y16.6693 F240.00
G01 X15.4956 Y16.6693 F240.00
G01 X15.1527 Y17.0122 F240.00
G01 X15.1445 Y17.0208 F240.00
G01 X15.1368 Y17.0298 F240.00
G01 X15.1294 Y17.0392 F240.00
G01 X15.1226 Y17.0489 F240.00
G01 X15.1163 Y17.0589 F240.00
G01 X15.1104 Y17.0692 F240.00
G01 X15.1051 Y17.0798 F240.00
G01 X15.1002 Y17.0907 F240.00
G01 X15.0960 Y17.1018 F240.00
G01 X15.0906 Y17.1188 F240.00
G01 X15.0877 Y17.1303 F240.00
G01 X15.0854 Y17.1419 F240.00
G01 X15.0830 Y17.1596 F240.00
G01 X15.0819 Y17.1774 F240.00
G01 X15.0818 Y17.8047 F240.00
G01 X15.0821 Y17.8166 F240.00
G01 X15.0836 Y17.8343 F240.00
G01 X15.0865 Y17.8519 F240.00
G01 X15.0906 Y17.8692 F240.00
G01 X15.0960 Y17.8862 F240.00
G01 X15.1026 Y17.9027 F240.00
G01 X15.1104 Y17.9188 F240.00
G01 X15.1194 Y17.9341 F240.00
G01 X15.1294 Y17.9488 F240.00
G01 X15.1406 Y17.9627 F240.00
G01 X15.1527 Y17.9758 F240.00
G01 X15.5921 Y18.4152 F240.00
G01 X15.6007 Y18.4234 F240.00
G01 X15.6097 Y18.4311 F240.00
G01 X15.6239 Y18.4419 F240.00
G01 X15.6337 Y18.4485 F240.00
G01 X15.6439 Y18.4546 F240.00
G01 X15.6597 Y18.4628 F240.00
G01 X15.6761 Y18.4698 F240.00
G01 X15.6929 Y18.4756 F240.00
G01 X15.7044 Y18.4788 F240.00
G01 X15.7160 Y18.4814 F240.00
G01 X15.7336 Y18.4842 F240.00
G01 X15.7454 Y18.4854 F240.00
G01 X15.7632 Y18.4861 F240.00
G01 X16.3846 Y18.4861 F240.00
G01 X16.4024 Y18.4854 F240.00
G01 X16.4142 Y18.4842 F240.00
G01 X16.4259 Y18.4825 F240.00
G01 X16.4434 Y18.4788 F240.00
G01 X16.4605 Y18.4738 F240.00
G01 X16.4717 Y18.4698 F240.00
G01 X16.4826 Y18.4653 F240.00
G01 X16.4986 Y18.4575 F240.00
G01 X16.5090 Y18.4516 F240.00
G01 X16.5190 Y18.4453 F240.00
G01 X16.5287 Y18.4384 F240.00
G01 X16.5381 Y18.4311 F240.00
G01 X16.5514 Y18.4193 F240.00
G01 X16.9992 Y17.9715 F240.00
G01 X17.0072 Y17.9627 F240.00
G01 X17.0147 Y17.9536 F240.00
G01 X17.0218 Y17.9440 F240.00
G01 X17.0284 Y17.9341 F240.00
G01 X17.0345 Y17.9240 F240.00
G01 X17.0401 Y17.9135 F240.00
G01 X17.0475 Y17.8973 F240.00
G01 X17.0537 Y17.8806 F240.00
G01 X17.0572 Y17.8692 F240.00
G01 X17.0601 Y17.8577 F240.00
G01 X17.0624 Y17.8461 F240.00
G01 X17.0641 Y17.8343 F240.00
G01 X17.0653 Y17.8225 F240.00
G01 X17.0659 Y17.8106 F240.00
G01 X17.0659 Y17.2108 F240.00
G01 X17.6640 Y17.8089 F240.00
G01 X17.6874 Y17.8305 F240.00
G01 X17.6964 Y17.8382 F240.00
G01 X17.7266 Y17.8609 F240.00
G01 X17.7415 Y17.8706 F240.00
G01 X17.7690 Y17.8867 F240.00
G01 X17.7976 Y17.9006 F240.00
G01 X17.8085 Y17.9054 F240.00
G01 X17.8196 Y17.9097 F240.00
G01 X17.8496 Y17.9201 F240.00
G01 X17.8804 Y17.9281 F240.00
G01 X17.8920 Y17.9307 F240.00
G01 X17.9037 Y17.9328 F240.00
G01 X17.9293 Y17.9365 F240.00
G01 X17.9412 Y17.9377 F240.00
G01 X17.9789 Y17.9393 F240.00
G01 X25.7886 Y17.9393 F240.00
G01 X25.7886 Y20.1670 F240.00
G01 X23.3790 Y22.5766 F240.00
G01 X23.3574 Y22.6000 F240.00
G01 X23.3497 Y22.6090 F240.00
G01 X23.3270 Y22.6392 F240.00
G01 X23.3173 Y22.6541 F240.00
G01 X23.3012 Y22.6816 F240.00
G01 X23.2848 Y22.7156 F240.00
G01 X23.2782 Y22.7322 F240.00
G01 X23.2678 Y22.7622 F240.00
G01 X23.2584 Y22.7988 F240.00
G01 X23.2551 Y22.8163 F240.00
G01 X23.2514 Y22.8419 F240.00
G01 X23.2502 Y22.8538 F240.00
G01 X23.2486 Y22.8915 F240.00
G01 X23.2486 Y23.6827 F240.00
G01 X23.1959 Y23.7146 F240.00
G01 X23.1346 Y23.7597 F240.00
G01 X23.1207 Y23.7709 F240.00
G01 X23.0687 Y23.8179 F240.00
G01 X23.0600 Y23.8261 F240.00
G01 X23.0519 Y23.8347 F240.00
G01 X23.0010 Y23.8913 F240.00
G01 X22.9937 Y23.9007 F240.00
G01 X22.9519 Y23.9570 F240.00
G01 X22.9422 Y23.9720 F240.00
G01 X22.9034 Y24.0374 F240.00
G01 X22.8706 Y24.1061 F240.00
G01 X22.8657 Y24.1169 F240.00
G01 X22.8398 Y24.1885 F240.00
G01 X22.8361 Y24.1997 F240.00
G01 X22.8173 Y24.2735 F240.00
G01 X22.8147 Y24.2851 F240.00
G01 X22.8127 Y24.2968 F240.00
G01 X22.8018 Y24.3721 F240.00
G01 X22.7978 Y24.4481 F240.00
G01 X22.7975 Y24.4599 F240.00
G01 X22.7975 Y25.7680 F240.00
G01 X22.7978 Y25.7799 F240.00
G01 X22.8013 Y25.8500 F240.00
G01 X22.8033 Y25.8677 F240.00
G01 X22.8147 Y25.9429 F240.00
G01 X22.8329 Y26.0168 F240.00
G01 X22.8361 Y26.0282 F240.00
G01 X22.8398 Y26.0395 F240.00
G01 X22.8657 Y26.1111 F240.00
G01 X22.8980 Y26.1800 F240.00
G01 X22.9034 Y26.1906 F240.00
G01 X22.9092 Y26.2009 F240.00
G01 X22.9453 Y26.2611 F240.00
G01 X22.9554 Y26.2758 F240.00
G01 X22.9937 Y26.3273 F240.00
G01 X23.0010 Y26.3367 F240.00
G01 X23.0087 Y26.3457 F240.00
G01 X23.0600 Y26.4019 F240.00
G01 X23.1162 Y26.4532 F240.00
G01 X23.1252 Y26.4610 F240.00
G01 X23.1346 Y26.4683 F240.00
G01 X23.1959 Y26.5134 F240.00
G01 X23.2610 Y26.5527 F240.00
G01 X23.2713 Y26.5586 F240.00
G01 X23.2819 Y26.5639 F240.00
G01 X23.3509 Y26.5962 F240.00
G01 X23.4224 Y26.6221 F240.00
G01 X23.4337 Y26.6258 F240.00
G01 X23.4451 Y26.6290 F240.00
G01 X23.5190 Y26.6472 F240.00
G01 X23.5307 Y26.6492 F240.00
G01 X23.6060 Y26.6601 F240.00
G01 X23.6820 Y26.6641 F240.00
G01 X23.6939 Y26.6644 F240.00
G01 X23.7058 Y26.6641 F240.00
G01 X23.7817 Y26.6601 F240.00
G01 X23.8571 Y26.6492 F240.00
G01 X23.8688 Y26.6472 F240.00
G01 X23.8803 Y26.6446 F240.00
G01 X23.9541 Y26.6258 F240.00
G01 X24.0258 Y26.6005 F240.00
G01 X24.0369 Y26.5962 F240.00
G01 X24.0478 Y26.5914 F240.00
G01 X24.1164 Y26.5586 F240.00
G01 X24.1818 Y26.5197 F240.00
G01 X24.1919 Y26.5134 F240.00
G01 X24.2016 Y26.5065 F240.00
G01 X24.2625 Y26.4610 F240.00
G01 X24.3191 Y26.4101 F240.00
G01 X24.3277 Y26.4019 F240.00
G01 X24.3359 Y26.3933 F240.00
G01 X24.3868 Y26.3367 F240.00
G01 X24.4324 Y26.2758 F240.00
G01 X24.4392 Y26.2660 F240.00
G01 X24.4455 Y26.2560 F240.00
G01 X24.4844 Y26.1906 F240.00
G01 X24.4898 Y26.1800 F240.00
G01 X24.5186 Y26.1189 F240.00
G01 X24.5186 Y26.6573 F240.00
G01 X24.3804 Y26.7955 F240.00
G01 X24.1975 Y26.8713 F240.00
G01 X24.1686 Y26.8847 F240.00
G01 X24.1558 Y26.8912 F240.00
G01 X23.2322 Y26.8912 F240.00
G01 X23.2194 Y26.8847 F240.00
G01 X23.1906 Y26.8713 F240.00
G01 X23.0076 Y26.7954 F240.00
G01 X22.7344 Y26.5225 F240.00
G01 X22.7109 Y26.5013 F240.00
G01 X22.7016 Y26.4937 F240.00
G01 X22.6762 Y26.4748 F240.00
G01 X22.6611 Y26.4650 F240.00
G01 X22.6337 Y26.4489 F240.00
G01 X22.5997 Y26.4326 F240.00
G01 X22.5830 Y26.4260 F240.00
G01 X22.5588 Y26.4174 F240.00
G01 X22.5473 Y26.4139 F240.00
G01 X22.5107 Y26.4050 F240.00
G01 X22.4734 Y26.3992 F240.00
G01 X22.4555 Y26.3977 F240.00
G01 X22.4298 Y26.3965 F240.00
G01 X22.4178 Y26.3965 F240.00
G01 X22.3802 Y26.3986 F240.00
G01 X22.3487 Y26.4029 F240.00
G01 X22.3311 Y26.4062 F240.00
G01 X22.2946 Y26.4156 F240.00
G01 X22.2590 Y26.4281 F240.00
G01 X22.2425 Y26.4352 F240.00
G01 X22.2139 Y26.4490 F240.00
G01 X22.1814 Y26.4682 F240.00
G01 X22.1715 Y26.4749 F240.00
G01 X22.1460 Y26.4938 F240.00
G01 X22.1367 Y26.5014 F240.00
G01 X22.1133 Y26.5227 F240.00
G01 X21.8404 Y26.7955 F240.00
G01 X21.6575 Y26.8713 F240.00
G01 X21.6286 Y26.8847 F240.00
G01 X21.6158 Y26.8912 F240.00
G01 X20.6922 Y26.8912 F240.00
G01 X20.6794 Y26.8847 F240.00
G01 X20.6506 Y26.8713 F240.00
G01 X20.4676 Y26.7954 F240.00
G01 X20.1265 Y26.4546 F240.00
G01 X19.9964 Y26.1401 F240.00
G01 X19.9829 Y26.1109 F240.00
G01 X19.9776 Y26.1003 F240.00
G01 X19.9613 Y26.0726 F240.00
G01 X19.9549 Y26.0625 F240.00
G01 X19.9480 Y26.0527 F240.00
G01 X19.9286 Y26.0272 F240.00
G01 X19.9072 Y26.0033 F240.00
G01 X19.8989 Y25.9946 F240.00
G01 X19.8708 Y25.9690 F240.00
G01 X19.8568 Y25.9578 F240.00
G01 X19.8307 Y25.9390 F240.00
G01 X19.8206 Y25.9327 F240.00
G01 X19.7929 Y25.9166 F240.00
G01 X19.7639 Y25.9027 F240.00
G01 X19.7530 Y25.8980 F240.00
G01 X19.7228 Y25.8871 F240.00
G01 X19.7056 Y25.8817 F240.00
G01 X19.6745 Y25.8742 F240.00
G01 X19.6627 Y25.8719 F240.00
G01 X19.6310 Y25.8675 F240.00
G01 X19.6131 Y25.8661 F240.00
G01 X19.5810 Y25.8651 F240.00
G01 X19.5490 Y25.8666 F240.00
G01 X19.5311 Y25.8683 F240.00
G01 X19.5038 Y25.8726 F240.00
G01 X19.5064 Y25.8500 F240.00
G01 X19.5100 Y25.7799 F240.00
G01 X19.5103 Y25.7680 F240.00
G01 X19.5103 Y24.4599 F240.00
G01 X19.5100 Y24.4481 F240.00
G01 X19.5064 Y24.3780 F240.00
G01 X19.5038 Y24.3556 F240.00
G01 X19.5305 Y24.3598 F240.00
G01 X19.5484 Y24.3616 F240.00
G01 X19.5805 Y24.3632 F240.00
G01 X19.6126 Y24.3622 F240.00
G01 X19.6305 Y24.3608 F240.00
G01 X19.6623 Y24.3564 F240.00
G01 X19.6799 Y24.3528 F240.00
G01 X19.7110 Y24.3450 F240.00
G01 X19.7414 Y24.3346 F240.00
G01 X19.7582 Y24.3281 F240.00
G01 X19.7873 Y24.3145 F240.00
G01 X19.8031 Y24.3060 F240.00
G01 X19.8306 Y24.2893 F240.00
G01 X19.8566 Y24.2706 F240.00
G01 X19.8707 Y24.2594 F240.00
G01 X19.8946 Y24.2379 F240.00
G01 X19.9031 Y24.2294 F240.00
G01 X19.9247 Y24.2057 F240.00
G01 X19.9323 Y24.1965 F240.00
G01 X19.9480 Y24.1755 F240.00
G01 X19.9549 Y24.1658 F240.00
G01 X19.9613 Y24.1556 F240.00
G01 X19.9747 Y24.1332 F240.00
G01 X19.9803 Y24.1226 F240.00
G01 X19.9964 Y24.0881 F240.00
G01 X20.1266 Y23.7733 F240.00
G01 X20.4675 Y23.4326 F240.00
G01 X20.9052 Y23.2513 F240.00
G01 X20.9160 Y23.2465 F240.00
G01 X20.9447 Y23.2327 F240.00
G01 X20.9721 Y23.2165 F240.00
G01 X20.9822 Y23.2102 F240.00
G01 X20.9919 Y23.2034 F240.00
G01 X21.0173 Y23.1842 F240.00
G01 X21.0411 Y23.1630 F240.00
G01 X21.0497 Y23.1548 F240.00
G01 X21.3346 Y22.8701 F240.00
G01 X21.7380 Y22.4665 F240.00
G01 X21.7596 Y22.4431 F240.00
G01 X21.7673 Y22.4341 F240.00
G01 X21.7747 Y22.4247 F240.00
G01 X21.7934 Y22.3990 F240.00
G01 X21.8130 Y22.3667 F240.00
G01 X21.8186 Y22.3562 F240.00
G01 X21.8297 Y22.3329 F240.00
G01 X21.8345 Y22.3220 F240.00
G01 X21.8388 Y22.3109 F240.00
G01 X21.8492 Y22.2809 F240.00
G01 X21.8573 Y22.2501 F240.00
G01 X21.8599 Y22.2385 F240.00
G01 X21.8619 Y22.2268 F240.00
G01 X21.8663 Y22.1952 F240.00
G01 X21.8683 Y22.1575 F240.00
G01 X21.8681 Y22.1397 F240.00
G01 X21.8663 Y22.1079 F240.00
G01 X21.8648 Y22.0962 F240.00
G01 X21.8599 Y22.0647 F240.00
G01 X21.8573 Y22.0531 F240.00
G01 X21.8492 Y22.0223 F240.00
G01 X21.8388 Y21.9923 F240.00
G01 X21.8322 Y21.9757 F240.00
G01 X21.8186 Y21.9469 F240.00
G01 X21.8130 Y21.9365 F240.00
G01 X21.7966 Y21.9092 F240.00
G01 X21.7865 Y21.8945 F240.00
G01 X21.7673 Y21.8691 F240.00
G01 X21.7462 Y21.8453 F240.00
G01 X21.7337 Y21.8326 F240.00
G01 X21.7102 Y21.8112 F240.00
G01 X21.7010 Y21.8037 F240.00
G01 X21.6802 Y21.7882 F240.00
G01 X21.6655 Y21.7781 F240.00
G01 X21.6330 Y21.7589 F240.00
G01 X21.5990 Y21.7425 F240.00
G01 X21.0198 Y21.5026 F240.00
G01 X20.6165 Y21.0992 F240.00
G01 X20.6035 Y21.0817 F240.00
G01 X20.5960 Y21.0724 F240.00
G01 X20.5746 Y21.0486 F240.00
G01 X20.5662 Y21.0401 F240.00
G01 X20.5380 Y21.0147 F240.00
G01 X20.5125 Y20.9953 F240.00
G01 X20.4978 Y20.9851 F240.00
G01 X20.4704 Y20.9686 F240.00
G01 X20.4545 Y20.9603 F240.00
G01 X20.4255 Y20.9468 F240.00
G01 X20.4144 Y20.9425 F240.00
G01 X20.3842 Y20.9319 F240.00
G01 X20.3727 Y20.9287 F240.00
G01 X20.3416 Y20.9212 F240.00
G01 X20.3099 Y20.9162 F240.00
G01 X20.2921 Y20.9142 F240.00
G01 X20.2542 Y20.9125 F240.00
G01 X19.6660 Y20.9125 F240.00
G01 X19.6341 Y20.9138 F240.00
G01 X19.6164 Y20.9153 F240.00
G01 X19.5908 Y20.9191 F240.00
G01 X19.5791 Y20.9211 F240.00
G01 X19.5675 Y20.9237 F240.00
G01 X19.5424 Y20.9301 F240.00
G01 X19.5310 Y20.9335 F240.00
G01 X19.5011 Y20.9442 F240.00
G01 X19.4901 Y20.9488 F240.00
G01 X19.4560 Y20.9651 F240.00
G01 X19.4286 Y20.9812 F240.00
G01 X19.4186 Y20.9876 F240.00
G01 X19.3928 Y21.0063 F240.00
G01 X19.3835 Y21.0136 F240.00
G01 X19.3553 Y21.0388 F240.00
G01 X17.1710 Y23.2231 F240.00
G01 X17.1455 Y23.2509 F240.00
G01 X17.1344 Y23.2648 F240.00
G01 X17.1156 Y23.2905 F240.00
G01 X17.0990 Y23.3176 F240.00
G01 X17.0932 Y23.3280 F240.00
G01 X17.0878 Y23.3386 F240.00
G01 X17.0745 Y23.3675 F240.00
G01 X17.0616 Y23.4029 F240.00
G01 X17.0581 Y23.4143 F240.00
G01 X17.0504 Y23.4452 F240.00
G01 X17.0481 Y23.4568 F240.00
G01 X17.0442 Y23.4824 F240.00
G01 X17.0427 Y23.4942 F240.00
G01 X17.0418 Y23.5060 F240.00
G01 X17.0406 Y23.5319 F240.00
G01 X17.0406 Y23.5438 F240.00
G01 X17.0427 Y23.5814 F240.00
G01 X17.0442 Y23.5932 F240.00
G01 X17.0491 Y23.6247 F240.00
G01 X17.0565 Y23.6556 F240.00
G01 X17.0597 Y23.6670 F240.00
G01 X17.0701 Y23.6971 F240.00
G01 X17.0744 Y23.7082 F240.00
G01 X17.2340 Y24.0937 F240.00
G01 X17.2505 Y24.1280 F240.00
G01 X17.2668 Y24.1557 F240.00
G01 X17.2732 Y24.1658 F240.00
G01 X17.2801 Y24.1756 F240.00
G01 X17.2958 Y24.1965 F240.00
G01 X17.3034 Y24.2058 F240.00
G01 X17.3292 Y24.2338 F240.00
G01 X17.3574 Y24.2594 F240.00
G01 X17.3667 Y24.2670 F240.00
G01 X17.3877 Y24.2825 F240.00
G01 X17.4025 Y24.2926 F240.00
G01 X17.4354 Y24.3118 F240.00
G01 X17.4699 Y24.3281 F240.00
G01 X17.4810 Y24.3326 F240.00
G01 X17.5056 Y24.3413 F240.00
G01 X17.5228 Y24.3466 F240.00
G01 X17.5599 Y24.3554 F240.00
G01 X17.5976 Y24.3608 F240.00
G01 X17.6095 Y24.3619 F240.00
G01 X17.6356 Y24.3630 F240.00
G01 X17.6536 Y24.3631 F240.00
G01 X17.6916 Y24.3606 F240.00
G01 X17.7240 Y24.3557 F240.00
G01 X17.7213 Y24.3780 F240.00
G01 X17.7178 Y24.4481 F240.00
G01 X17.7175 Y24.4599 F240.00
G01 X17.7175 Y25.7680 F240.00
G01 X17.7178 Y25.7799 F240.00
G01 X17.7213 Y25.8500 F240.00
G01 X17.7240 Y25.8726 F240.00
G01 X17.6969 Y25.8683 F240.00
G01 X17.6790 Y25.8666 F240.00
G01 X17.6470 Y25.8651 F240.00
G01 X17.6150 Y25.8661 F240.00
G01 X17.5971 Y25.8675 F240.00
G01 X17.5653 Y25.8719 F240.00
G01 X17.5477 Y25.8755 F240.00
G01 X17.5166 Y25.8834 F240.00
G01 X17.4806 Y25.8958 F240.00
G01 X17.4641 Y25.9027 F240.00
G01 X17.4351 Y25.9166 F240.00
G01 X17.4074 Y25.9327 F240.00
G01 X17.3923 Y25.9424 F240.00
G01 X17.3665 Y25.9614 F240.00
G01 X17.3527 Y25.9729 F240.00
G01 X17.3291 Y25.9946 F240.00
G01 X17.3208 Y26.0033 F240.00
G01 X17.2994 Y26.0272 F240.00
G01 X17.2800 Y26.0527 F240.00
G01 X17.2731 Y26.0625 F240.00
G01 X17.2667 Y26.0726 F240.00
G01 X17.2534 Y26.0950 F240.00
G01 X17.2477 Y26.1056 F240.00
G01 X17.2316 Y26.1401 F240.00
G01 X17.1015 Y26.4546 F240.00
G01 X16.7604 Y26.7955 F240.00
G01 X16.5775 Y26.8713 F240.00
G01 X16.5486 Y26.8847 F240.00
G01 X16.5380 Y26.8900 F240.00
G01 X16.5276 Y26.8959 F240.00
G01 X16.5005 Y26.9125 F240.00
G01 X16.4748 Y26.9312 F240.00
G01 X16.4654 Y26.9385 F240.00
G01 X16.4564 Y26.9463 F240.00
G01 X16.4373 Y26.9637 F240.00
G01 X16.4289 Y26.9721 F240.00
G01 X16.4037 Y27.0002 F240.00
G01 X16.3964 Y27.0096 F240.00
G01 X16.3777 Y27.0353 F240.00
G01 X16.3611 Y27.0625 F240.00
G01 X16.3552 Y27.0728 F240.00
G01 X16.3499 Y27.0834 F240.00
G01 X16.3366 Y27.1123 F240.00
G01 X16.3256 Y27.1422 F240.00
G01 X16.3218 Y27.1535 F240.00
G01 X16.3187 Y27.1649 F240.00
G01 X16.3112 Y27.1959 F240.00
G01 X16.3063 Y27.2273 F240.00
G01 X16.3048 Y27.2391 F240.00
G01 X16.3040 Y27.2509 F240.00
G01 X16.3027 Y27.2827 F240.00
G01 X16.3030 Y27.2946 F240.00
G01 X16.3049 Y27.3264 F240.00
G01 X16.3063 Y27.3382 F240.00
G01 X16.3113 Y27.3696 F240.00
G01 X16.3187 Y27.4005 F240.00
G01 X16.3219 Y27.4120 F240.00
G01 X16.3256 Y27.4233 F240.00
G01 X16.3366 Y27.4531 F240.00
G01 X16.3500 Y27.4820 F240.00
G01 X16.3553 Y27.4926 F240.00
G01 X16.3612 Y27.5029 F240.00
G01 X16.3778 Y27.5301 F240.00
G01 X16.3846 Y27.5398 F240.00
G01 X16.4038 Y27.5652 F240.00
G01 X16.4290 Y27.5933 F240.00
G01 X16.4374 Y27.6017 F240.00
G01 X16.4610 Y27.6231 F240.00
G01 X16.4702 Y27.6306 F240.00
G01 X16.4957 Y27.6496 F240.00
G01 X16.5056 Y27.6562 F240.00
G01 X16.5329 Y27.6725 F240.00
G01 X16.5434 Y27.6781 F240.00
G01 X16.5668 Y27.6892 F240.00
G01 X16.5831 Y27.6963 F240.00
G01 X16.6075 Y27.7051 F240.00
G01 X16.6187 Y27.7088 F240.00
G01 X16.6302 Y27.7119 F240.00
G01 X16.6553 Y27.7182 F240.00
G01 X16.6670 Y27.7205 F240.00
G01 X16.6985 Y27.7251 F240.00
G01 X16.7162 Y27.7267 F240.00
G01 X16.7480 Y27.7279 F240.00
G01 X19.3542 Y27.7279 F240.00
G01 X19.3671 Y27.7346 F240.00
G01 X19.3960 Y27.7479 F240.00
G01 X19.4315 Y27.7608 F240.00
G01 X19.4486 Y27.7658 F240.00
G01 X19.4795 Y27.7732 F240.00
G01 X19.5109 Y27.7782 F240.00
G01 X19.5287 Y27.7802 F240.00
G01 X19.5664 Y27.7818 F240.00
G01 X24.6464 Y27.7818 F240.00
G01 X24.6841 Y27.7802 F240.00
G01 X24.7018 Y27.7782 F240.00
G01 X24.7333 Y27.7732 F240.00
G01 X24.7642 Y27.7658 F240.00
G01 X24.7813 Y27.7608 F240.00
G01 X24.8168 Y27.7479 F240.00
G01 X24.8457 Y27.7346 F240.00
G01 X24.8586 Y27.7279 F240.00
G01 X25.2275 Y27.7279 F240.00
G01 X25.2593 Y27.7267 F240.00
G01 X25.2771 Y27.7251 F240.00
G01 X25.3144 Y27.7194 F240.00
G01 X25.3260 Y27.7168 F240.00
G01 X25.3568 Y27.7088 F240.00
G01 X25.3869 Y27.6983 F240.00
G01 X25.3979 Y27.6941 F240.00
G01 X25.4322 Y27.6781 F240.00
G01 X25.4426 Y27.6725 F240.00
G01 X25.4700 Y27.6561 F240.00
G01 X25.4798 Y27.6495 F240.00
G01 X25.5007 Y27.6342 F240.00
G01 X25.5100 Y27.6269 F240.00
G01 X25.5190 Y27.6191 F240.00
G01 X25.5382 Y27.6017 F240.00
G01 X25.5466 Y27.5933 F240.00
G01 X25.5718 Y27.5651 F240.00
G01 X25.5791 Y27.5558 F240.00
G01 X25.5978 Y27.5300 F240.00
G01 X25.6041 Y27.5200 F240.00
G01 X25.6203 Y27.4926 F240.00
G01 X25.6366 Y27.4585 F240.00
G01 X25.6411 Y27.4475 F240.00
G01 X25.6519 Y27.4176 F240.00
G01 X25.6553 Y27.4062 F240.00
G01 X25.6617 Y27.3811 F240.00
G01 X25.6643 Y27.3695 F240.00
G01 X25.6663 Y27.3578 F240.00
G01 X25.6700 Y27.3322 F240.00
G01 X25.6712 Y27.3204 F240.00
G01 X25.6728 Y27.2826 F240.00
G01 X25.6728 Y27.1054 F240.00
G01 X25.6712 Y27.0676 F240.00
G01 X25.6700 Y27.0558 F240.00
G01 X25.6663 Y27.0302 F240.00
G01 X25.6630 Y27.0127 F240.00
G01 X25.6537 Y26.9761 F240.00
G01 X25.6411 Y26.9405 F240.00
G01 X25.6366 Y26.9295 F240.00
G01 X25.6256 Y26.9061 F240.00
G01 X25.6203 Y26.8954 F240.00
G01 X25.6144 Y26.8851 F240.00
G01 X25.5978 Y26.8580 F240.00
G01 X25.5791 Y26.8322 F240.00
G01 X25.5718 Y26.8229 F240.00
G01 X25.5506 Y26.7991 F240.00
G01 X25.5424 Y26.7905 F240.00
G01 X25.4092 Y26.6573 F240.00
G01 X25.4092 Y26.1189 F240.00
G01 X25.4380 Y26.1800 F240.00
G01 X25.4434 Y26.1906 F240.00
G01 X25.4822 Y26.2560 F240.00
G01 X25.4886 Y26.2660 F240.00
G01 X25.4954 Y26.2758 F240.00
G01 X25.5373 Y26.3321 F240.00
G01 X25.5487 Y26.3457 F240.00
G01 X25.6000 Y26.4019 F240.00
G01 X25.6087 Y26.4101 F240.00
G01 X25.6652 Y26.4610 F240.00
G01 X25.7262 Y26.5065 F240.00
G01 X25.7359 Y26.5134 F240.00
G01 X25.7886 Y26.5453 F240.00
G01 X25.7886 Y27.8437 F240.00
G01 X15.6759 Y27.8437 F240.00
G01 X15.6759 Y27.4831 F240.00
G01 X15.6753 Y27.4712 F240.00
G01 X15.6741 Y27.4594 F240.00
G01 X15.6724 Y27.4477 F240.00
G01 X15.6700 Y27.4360 F240.00
G01 X15.6672 Y27.4245 F240.00
G01 X15.6637 Y27.4131 F240.00
G01 X15.6575 Y27.3964 F240.00
G01 X15.6527 Y27.3856 F240.00
G01 X15.6474 Y27.3749 F240.00
G01 X15.6415 Y27.3646 F240.00
G01 X15.6351 Y27.3546 F240.00
G01 X15.6247 Y27.3401 F240.00
G01 X15.6132 Y27.3265 F240.00
G01 X15.6050 Y27.3179 F240.00
G01 X15.5964 Y27.3097 F240.00
G01 X15.5874 Y27.3020 F240.00
G01 X15.5781 Y27.2946 F240.00
G01 X15.5684 Y27.2878 F240.00
G01 X15.5532 Y27.2785 F240.00
G01 X15.5427 Y27.2729 F240.00
G01 X15.5265 Y27.2654 F240.00
G01 X15.5155 Y27.2612 F240.00
G01 X15.5042 Y27.2574 F240.00
G01 X15.4927 Y27.2543 F240.00
G01 X15.4811 Y27.2517 F240.00
G01 X15.4635 Y27.2488 F240.00
G01 X15.4517 Y27.2477 F240.00
G01 X15.4399 Y27.2471 F240.00
G01 X14.5340 Y27.2470 F240.00
G01 X14.5221 Y27.2473 F240.00
G01 X14.5044 Y27.2488 F240.00
G01 X14.4926 Y27.2506 F240.00
G01 X14.4810 Y27.2529 F240.00
G01 X14.4638 Y27.2574 F240.00
G01 X14.4525 Y27.2612 F240.00
G01 X14.4414 Y27.2654 F240.00
G01 X14.4252 Y27.2729 F240.00
G01 X14.4096 Y27.2815 F240.00
G01 X14.3996 Y27.2878 F240.00
G01 X14.3899 Y27.2946 F240.00
G01 X14.3805 Y27.3020 F240.00
G01 X14.3715 Y27.3097 F240.00
G01 X14.3587 Y27.3222 F240.00
G01 X14.3508 Y27.3310 F240.00
G01 X14.3432 Y27.3401 F240.00
G01 X14.3328 Y27.3546 F240.00
G01 X14.3234 Y27.3697 F240.00
G01 X14.3178 Y27.3802 F240.00
G01 X14.3128 Y27.3910 F240.00
G01 X14.3082 Y27.4019 F240.00
G01 X14.3042 Y27.4131 F240.00
G01 X14.3008 Y27.4245 F240.00
G01 X14.2979 Y27.4360 F240.00
G01 X14.2946 Y27.4535 F240.00
G01 X14.2932 Y27.4653 F240.00
G01 X14.2923 Y27.4772 F240.00
G01 X14.2920 Y27.4890 F240.00
G01 X14.2920 Y29.0890 F240.00
G01 X14.2923 Y29.1008 F240.00
G01 X14.2932 Y29.1127 F240.00
G01 X14.2956 Y29.1303 F240.00
G01 X14.2979 Y29.1420 F240.00
G01 X14.3024 Y29.1592 F240.00
G01 X14.3082 Y29.1761 F240.00
G01 X14.3128 Y29.1870 F240.00
G01 X14.3178 Y29.1978 F240.00
G01 X14.3234 Y29.2082 F240.00
G01 X14.3296 Y29.2184 F240.00
G01 X14.3396 Y29.2331 F240.00
G01 X14.3469 Y29.2425 F240.00
G01 X14.3547 Y29.2515 F240.00
G01 X14.3671 Y29.2642 F240.00
G01 X14.3759 Y29.2722 F240.00
G01 X14.3899 Y29.2833 F240.00
G01 X14.3996 Y29.2902 F240.00
G01 X14.4147 Y29.2995 F240.00
G01 X14.4252 Y29.3051 F240.00
G01 X14.4414 Y29.3125 F240.00
G01 X14.4581 Y29.3188 F240.00
G01 X14.4752 Y29.3237 F240.00
G01 X14.4926 Y29.3274 F240.00
G01 X14.5103 Y29.3298 F240.00
G01 X14.5281 Y29.3309 F240.00
G01 X15.4399 Y29.3309 F240.00
G01 X15.4517 Y29.3303 F240.00
G01 X15.4635 Y29.3291 F240.00
G01 X15.4753 Y29.3274 F240.00
G01 X15.4869 Y29.3251 F240.00
G01 X15.4985 Y29.3222 F240.00
G01 X15.5098 Y29.3188 F240.00
G01 X15.5210 Y29.3148 F240.00
G01 X15.5320 Y29.3102 F240.00
G01 X15.5480 Y29.3024 F240.00
G01 X15.5583 Y29.2965 F240.00
G01 X15.5684 Y29.2902 F240.00
G01 X15.5781 Y29.2833 F240.00
G01 X15.5920 Y29.2722 F240.00
G01 X15.6008 Y29.2642 F240.00
G01 X15.6132 Y29.2515 F240.00
G01 X15.6210 Y29.2425 F240.00
G01 X15.6318 Y29.2283 F240.00
G01 X15.6384 Y29.2184 F240.00
G01 X15.6445 Y29.2082 F240.00
G01 X15.6501 Y29.1978 F240.00
G01 X15.6552 Y29.1870 F240.00
G01 X15.6618 Y29.1705 F240.00
G01 X15.6655 Y29.1592 F240.00
G01 X15.6687 Y29.1478 F240.00
G01 X15.6713 Y29.1362 F240.00
G01 X15.6733 Y29.1245 F240.00
G01 X15.6748 Y29.1127 F240.00
G01 X15.6759 Y29.0949 F240.00
G01 X15.6759 Y28.7343 F240.00
G01 X30.6789 Y28.7343 F240.00
G01 X30.7107 Y28.7330 F240.00
G01 X30.7225 Y28.7322 F240.00
G01 X30.7599 Y28.7268 F240.00
G01 X30.7716 Y28.7245 F240.00
G01 X30.7967 Y28.7183 F240.00
G01 X30.8081 Y28.7151 F240.00
G01 X30.8194 Y28.7114 F240.00
G01 X30.8493 Y28.7004 F240.00
G01 X30.8601 Y28.6956 F240.00
